def tuft_program():
    global tuft_coords = p[-0.743799, 1.270828, -0.183331, 1.574839, 0.004352, -0.002073]
    global current_pose = p[0,0,0,-1.19353,1.19941,1.24224]
    textmsg("Starting tufting job test-1.jpg")
    textmsg("Using coordinate frame tuft_coords")
    set_digital_out(0, False)
    global travel_speed = 0.2000
    global tuft_speed = 0.0600
    global contact_force_threshold = 15.00
    global contact_probe_step = 0.0010
    new_pose = pose_trans(tuft_coords, p[0.1458, 0.2421, 0.1500, 0, 0, 0])
    movel(p[new_pose[0], new_pose[1], new_pose[2], current_pose[3], current_pose[4], current_pose[5]], a=1.2, v=0.2000)
    local contact_pose_temp = pose_trans(tuft_coords, p[0.1458, 0.2421, 0.1500, 0, 0, 0])
    local contact_pose = p[contact_pose_temp[0], contact_pose_temp[1], contact_pose_temp[2], current_pose[3], current_pose[4], current_pose[5]]
    while norm(get_tcp_force()) < contact_force_threshold and contact_pose[2] > 0.1450:
        contact_pose := pose_trans(contact_pose, p[0, 0, -contact_probe_step, 0, 0, 0])
        movel(contact_pose, a=0.8, v=0.2000)
    end
    if contact_pose[2] > 0.1450:
        new_pose = pose_trans(tuft_coords, p[0.1458, 0.2421, 0.1450, 0, 0, 0])
        movel(p[new_pose[0], new_pose[1], new_pose[2], current_pose[3], current_pose[4], current_pose[5]], a=0.8, v=0.2000)
    end
    set_digital_out(0, True)
    new_pose = pose_trans(tuft_coords, p[0.1458, 0.2579, 0.1450, 0, 0, 0])
    movel(p[new_pose[0], new_pose[1], new_pose[2], current_pose[3], current_pose[4], current_pose[5]], a=1.2, v=0.0600)
    set_digital_out(0, False)
    new_pose = pose_trans(tuft_coords, p[0.1458, 0.2579, 0.1500, 0, 0, 0])
    movel(p[new_pose[0], new_pose[1], new_pose[2], current_pose[3], current_pose[4], current_pose[5]], a=0.8, v=0.2000)
    new_pose = pose_trans(tuft_coords, p[0.1464, 0.2321, 0.1500, 0, 0, 0])
    movel(p[new_pose[0], new_pose[1], new_pose[2], current_pose[3], current_pose[4], current_pose[5]], a=1.2, v=0.2000)
    local contact_pose_temp = pose_trans(tuft_coords, p[0.1464, 0.2321, 0.1500, 0, 0, 0])
    local contact_pose = p[contact_pose_temp[0], contact_pose_temp[1], contact_pose_temp[2], current_pose[3], current_pose[4], current_pose[5]]
    while norm(get_tcp_force()) < contact_force_threshold and contact_pose[2] > 0.1450:
        contact_pose := pose_trans(contact_pose, p[0, 0, -contact_probe_step, 0, 0, 0])
        movel(contact_pose, a=0.8, v=0.2000)
    end
    if contact_pose[2] > 0.1450:
        new_pose = pose_trans(tuft_coords, p[0.1464, 0.2321, 0.1450, 0, 0, 0])
        movel(p[new_pose[0], new_pose[1], new_pose[2], current_pose[3], current_pose[4], current_pose[5]], a=0.8, v=0.2000)
    end
    set_digital_out(0, True)
    new_pose = pose_trans(tuft_coords, p[0.1464, 0.2679, 0.1450, 0, 0, 0])
    movel(p[new_pose[0], new_pose[1], new_pose[2], current_pose[3], current_pose[4], current_pose[5]], a=1.2, v=0.0600)
    set_digital_out(0, False)
    new_pose = pose_trans(tuft_coords, p[0.1464, 0.2679, 0.1500, 0, 0, 0])
    movel(p[new_pose[0], new_pose[1], new_pose[2], current_pose[3], current_pose[4], current_pose[5]], a=0.8, v=0.2000)
    new_pose = pose_trans(tuft_coords, p[0.1469, 0.2263, 0.1500, 0, 0, 0])
    movel(p[new_pose[0], new_pose[1], new_pose[2], current_pose[3], current_pose[4], current_pose[5]], a=1.2, v=0.2000)
    local contact_pose_temp = pose_trans(tuft_coords, p[0.1469, 0.2263, 0.1500, 0, 0, 0])
    local contact_pose = p[contact_pose_temp[0], contact_pose_temp[1], contact_pose_temp[2], current_pose[3], current_pose[4], current_pose[5]]
    while norm(get_tcp_force()) < contact_force_threshold and contact_pose[2] > 0.1450:
        contact_pose := pose_trans(contact_pose, p[0, 0, -contact_probe_step, 0, 0, 0])
        movel(contact_pose, a=0.8, v=0.2000)
    end
    if contact_pose[2] > 0.1450:
        new_pose = pose_trans(tuft_coords, p[0.1469, 0.2263, 0.1450, 0, 0, 0])
        movel(p[new_pose[0], new_pose[1], new_pose[2], current_pose[3], current_pose[4], current_pose[5]], a=0.8, v=0.2000)
    end
    set_digital_out(0, True)
    new_pose = pose_trans(tuft_coords, p[0.1469, 0.2737, 0.1450, 0, 0, 0])
    movel(p[new_pose[0], new_pose[1], new_pose[2], current_pose[3], current_pose[4], current_pose[5]], a=1.2, v=0.0600)
    set_digital_out(0, False)
    new_pose = pose_trans(tuft_coords, p[0.1469, 0.2737, 0.1500, 0, 0, 0])
    movel(p[new_pose[0], new_pose[1], new_pose[2], current_pose[3], current_pose[4], current_pose[5]], a=0.8, v=0.2000)
    new_pose = pose_trans(tuft_coords, p[0.1475, 0.2213, 0.1500, 0, 0, 0])
    movel(p[new_pose[0], new_pose[1], new_pose[2], current_pose[3], current_pose[4], current_pose[5]], a=1.2, v=0.2000)
    local contact_pose_temp = pose_trans(tuft_coords, p[0.1475, 0.2213, 0.1500, 0, 0, 0])
    local contact_pose = p[contact_pose_temp[0], contact_pose_temp[1], contact_pose_temp[2], current_pose[3], current_pose[4], current_pose[5]]
    while norm(get_tcp_force()) < contact_force_threshold and contact_pose[2] > 0.1450:
        contact_pose := pose_trans(contact_pose, p[0, 0, -contact_probe_step, 0, 0, 0])
        movel(contact_pose, a=0.8, v=0.2000)
    end
    if contact_pose[2] > 0.1450:
        new_pose = pose_trans(tuft_coords, p[0.1475, 0.2213, 0.1450, 0, 0, 0])
        movel(p[new_pose[0], new_pose[1], new_pose[2], current_pose[3], current_pose[4], current_pose[5]], a=0.8, v=0.2000)
    end
    set_digital_out(0, True)
    new_pose = pose_trans(tuft_coords, p[0.1475, 0.2787, 0.1450, 0, 0, 0])
    movel(p[new_pose[0], new_pose[1], new_pose[2], current_pose[3], current_pose[4], current_pose[5]], a=1.2, v=0.0600)
    set_digital_out(0, False)
    new_pose = pose_trans(tuft_coords, p[0.1475, 0.2787, 0.1500, 0, 0, 0])
    movel(p[new_pose[0], new_pose[1], new_pose[2], current_pose[3], current_pose[4], current_pose[5]], a=0.8, v=0.2000)
    new_pose = pose_trans(tuft_coords, p[0.1481, 0.2171, 0.1500, 0, 0, 0])
    movel(p[new_pose[0], new_pose[1], new_pose[2], current_pose[3], current_pose[4], current_pose[5]], a=1.2, v=0.2000)
    local contact_pose_temp = pose_trans(tuft_coords, p[0.1481, 0.2171, 0.1500, 0, 0, 0])
    local contact_pose = p[contact_pose_temp[0], contact_pose_temp[1], contact_pose_temp[2], current_pose[3], current_pose[4], current_pose[5]]
    while norm(get_tcp_force()) < contact_force_threshold and contact_pose[2] > 0.1450:
        contact_pose := pose_trans(contact_pose, p[0, 0, -contact_probe_step, 0, 0, 0])
        movel(contact_pose, a=0.8, v=0.2000)
    end
    if contact_pose[2] > 0.1450:
        new_pose = pose_trans(tuft_coords, p[0.1481, 0.2171, 0.1450, 0, 0, 0])
        movel(p[new_pose[0], new_pose[1], new_pose[2], current_pose[3], current_pose[4], current_pose[5]], a=0.8, v=0.2000)
    end
    set_digital_out(0, True)
    new_pose = pose_trans(tuft_coords, p[0.1481, 0.2829, 0.1450, 0, 0, 0])
    movel(p[new_pose[0], new_pose[1], new_pose[2], current_pose[3], current_pose[4], current_pose[5]], a=1.2, v=0.0600)
    set_digital_out(0, False)
    new_pose = pose_trans(tuft_coords, p[0.1481, 0.2829, 0.1500, 0, 0, 0])
    movel(p[new_pose[0], new_pose[1], new_pose[2], current_pose[3], current_pose[4], current_pose[5]], a=0.8, v=0.2000)
    new_pose = pose_trans(tuft_coords, p[0.1486, 0.2137, 0.1500, 0, 0, 0])
    movel(p[new_pose[0], new_pose[1], new_pose[2], current_pose[3], current_pose[4], current_pose[5]], a=1.2, v=0.2000)
    local contact_pose_temp = pose_trans(tuft_coords, p[0.1486, 0.2137, 0.1500, 0, 0, 0])
    local contact_pose = p[contact_pose_temp[0], contact_pose_temp[1], contact_pose_temp[2], current_pose[3], current_pose[4], current_pose[5]]
    while norm(get_tcp_force()) < contact_force_threshold and contact_pose[2] > 0.1450:
        contact_pose := pose_trans(contact_pose, p[0, 0, -contact_probe_step, 0, 0, 0])
        movel(contact_pose, a=0.8, v=0.2000)
    end
    if contact_pose[2] > 0.1450:
        new_pose = pose_trans(tuft_coords, p[0.1486, 0.2137, 0.1450, 0, 0, 0])
        movel(p[new_pose[0], new_pose[1], new_pose[2], current_pose[3], current_pose[4], current_pose[5]], a=0.8, v=0.2000)
    end
    set_digital_out(0, True)
    new_pose = pose_trans(tuft_coords, p[0.1486, 0.2863, 0.1450, 0, 0, 0])
    movel(p[new_pose[0], new_pose[1], new_pose[2], current_pose[3], current_pose[4], current_pose[5]], a=1.2, v=0.0600)
    set_digital_out(0, False)
    new_pose = pose_trans(tuft_coords, p[0.1486, 0.2863, 0.1500, 0, 0, 0])
    movel(p[new_pose[0], new_pose[1], new_pose[2], current_pose[3], current_pose[4], current_pose[5]], a=0.8, v=0.2000)
    new_pose = pose_trans(tuft_coords, p[0.1492, 0.2104, 0.1500, 0, 0, 0])
    movel(p[new_pose[0], new_pose[1], new_pose[2], current_pose[3], current_pose[4], current_pose[5]], a=1.2, v=0.2000)
    local contact_pose_temp = pose_trans(tuft_coords, p[0.1492, 0.2104, 0.1500, 0, 0, 0])
    local contact_pose = p[contact_pose_temp[0], contact_pose_temp[1], contact_pose_temp[2], current_pose[3], current_pose[4], current_pose[5]]
    while norm(get_tcp_force()) < contact_force_threshold and contact_pose[2] > 0.1450:
        contact_pose := pose_trans(contact_pose, p[0, 0, -contact_probe_step, 0, 0, 0])
        movel(contact_pose, a=0.8, v=0.2000)
    end
    if contact_pose[2] > 0.1450:
        new_pose = pose_trans(tuft_coords, p[0.1492, 0.2104, 0.1450, 0, 0, 0])
        movel(p[new_pose[0], new_pose[1], new_pose[2], current_pose[3], current_pose[4], current_pose[5]], a=0.8, v=0.2000)
    end
    set_digital_out(0, True)
    new_pose = pose_trans(tuft_coords, p[0.1492, 0.2896, 0.1450, 0, 0, 0])
    movel(p[new_pose[0], new_pose[1], new_pose[2], current_pose[3], current_pose[4], current_pose[5]], a=1.2, v=0.0600)
    set_digital_out(0, False)
    new_pose = pose_trans(tuft_coords, p[0.1492, 0.2896, 0.1500, 0, 0, 0])
    movel(p[new_pose[0], new_pose[1], new_pose[2], current_pose[3], current_pose[4], current_pose[5]], a=0.8, v=0.2000)
    new_pose = pose_trans(tuft_coords, p[0.1497, 0.2071, 0.1500, 0, 0, 0])
    movel(p[new_pose[0], new_pose[1], new_pose[2], current_pose[3], current_pose[4], current_pose[5]], a=1.2, v=0.2000)
    local contact_pose_temp = pose_trans(tuft_coords, p[0.1497, 0.2071, 0.1500, 0, 0, 0])
    local contact_pose = p[contact_pose_temp[0], contact_pose_temp[1], contact_pose_temp[2], current_pose[3], current_pose[4], current_pose[5]]
    while norm(get_tcp_force()) < contact_force_threshold and contact_pose[2] > 0.1450:
        contact_pose := pose_trans(contact_pose, p[0, 0, -contact_probe_step, 0, 0, 0])
        movel(contact_pose, a=0.8, v=0.2000)
    end
    if contact_pose[2] > 0.1450:
        new_pose = pose_trans(tuft_coords, p[0.1497, 0.2071, 0.1450, 0, 0, 0])
        movel(p[new_pose[0], new_pose[1], new_pose[2], current_pose[3], current_pose[4], current_pose[5]], a=0.8, v=0.2000)
    end
    set_digital_out(0, True)
    new_pose = pose_trans(tuft_coords, p[0.1497, 0.2929, 0.1450, 0, 0, 0])
    movel(p[new_pose[0], new_pose[1], new_pose[2], current_pose[3], current_pose[4], current_pose[5]], a=1.2, v=0.0600)
    set_digital_out(0, False)
    new_pose = pose_trans(tuft_coords, p[0.1497, 0.2929, 0.1500, 0, 0, 0])
    movel(p[new_pose[0], new_pose[1], new_pose[2], current_pose[3], current_pose[4], current_pose[5]], a=0.8, v=0.2000)
    new_pose = pose_trans(tuft_coords, p[0.1503, 0.2046, 0.1500, 0, 0, 0])
    movel(p[new_pose[0], new_pose[1], new_pose[2], current_pose[3], current_pose[4], current_pose[5]], a=1.2, v=0.2000)
    local contact_pose_temp = pose_trans(tuft_coords, p[0.1503, 0.2046, 0.1500, 0, 0, 0])
    local contact_pose = p[contact_pose_temp[0], contact_pose_temp[1], contact_pose_temp[2], current_pose[3], current_pose[4], current_pose[5]]
    while norm(get_tcp_force()) < contact_force_threshold and contact_pose[2] > 0.1450:
        contact_pose := pose_trans(contact_pose, p[0, 0, -contact_probe_step, 0, 0, 0])
        movel(contact_pose, a=0.8, v=0.2000)
    end
    if contact_pose[2] > 0.1450:
        new_pose = pose_trans(tuft_coords, p[0.1503, 0.2046, 0.1450, 0, 0, 0])
        movel(p[new_pose[0], new_pose[1], new_pose[2], current_pose[3], current_pose[4], current_pose[5]], a=0.8, v=0.2000)
    end
    set_digital_out(0, True)
    new_pose = pose_trans(tuft_coords, p[0.1503, 0.2954, 0.1450, 0, 0, 0])
    movel(p[new_pose[0], new_pose[1], new_pose[2], current_pose[3], current_pose[4], current_pose[5]], a=1.2, v=0.0600)
    set_digital_out(0, False)
    new_pose = pose_trans(tuft_coords, p[0.1503, 0.2954, 0.1500, 0, 0, 0])
    movel(p[new_pose[0], new_pose[1], new_pose[2], current_pose[3], current_pose[4], current_pose[5]], a=0.8, v=0.2000)
    new_pose = pose_trans(tuft_coords, p[0.1508, 0.2021, 0.1500, 0, 0, 0])
    movel(p[new_pose[0], new_pose[1], new_pose[2], current_pose[3], current_pose[4], current_pose[5]], a=1.2, v=0.2000)
    local contact_pose_temp = pose_trans(tuft_coords, p[0.1508, 0.2021, 0.1500, 0, 0, 0])
    local contact_pose = p[contact_pose_temp[0], contact_pose_temp[1], contact_pose_temp[2], current_pose[3], current_pose[4], current_pose[5]]
    while norm(get_tcp_force()) < contact_force_threshold and contact_pose[2] > 0.1450:
        contact_pose := pose_trans(contact_pose, p[0, 0, -contact_probe_step, 0, 0, 0])
        movel(contact_pose, a=0.8, v=0.2000)
    end
    if contact_pose[2] > 0.1450:
        new_pose = pose_trans(tuft_coords, p[0.1508, 0.2021, 0.1450, 0, 0, 0])
        movel(p[new_pose[0], new_pose[1], new_pose[2], current_pose[3], current_pose[4], current_pose[5]], a=0.8, v=0.2000)
    end
    set_digital_out(0, True)
    new_pose = pose_trans(tuft_coords, p[0.1508, 0.2979, 0.1450, 0, 0, 0])
    movel(p[new_pose[0], new_pose[1], new_pose[2], current_pose[3], current_pose[4], current_pose[5]], a=1.2, v=0.0600)
    set_digital_out(0, False)
    new_pose = pose_trans(tuft_coords, p[0.1508, 0.2979, 0.1500, 0, 0, 0])
    movel(p[new_pose[0], new_pose[1], new_pose[2], current_pose[3], current_pose[4], current_pose[5]], a=0.8, v=0.2000)
    new_pose = pose_trans(tuft_coords, p[0.1514, 0.1996, 0.1500, 0, 0, 0])
    movel(p[new_pose[0], new_pose[1], new_pose[2], current_pose[3], current_pose[4], current_pose[5]], a=1.2, v=0.2000)
    local contact_pose_temp = pose_trans(tuft_coords, p[0.1514, 0.1996, 0.1500, 0, 0, 0])
    local contact_pose = p[contact_pose_temp[0], contact_pose_temp[1], contact_pose_temp[2], current_pose[3], current_pose[4], current_pose[5]]
    while norm(get_tcp_force()) < contact_force_threshold and contact_pose[2] > 0.1450:
        contact_pose := pose_trans(contact_pose, p[0, 0, -contact_probe_step, 0, 0, 0])
        movel(contact_pose, a=0.8, v=0.2000)
    end
    if contact_pose[2] > 0.1450:
        new_pose = pose_trans(tuft_coords, p[0.1514, 0.1996, 0.1450, 0, 0, 0])
        movel(p[new_pose[0], new_pose[1], new_pose[2], current_pose[3], current_pose[4], current_pose[5]], a=0.8, v=0.2000)
    end
    set_digital_out(0, True)
    new_pose = pose_trans(tuft_coords, p[0.1514, 0.3004, 0.1450, 0, 0, 0])
    movel(p[new_pose[0], new_pose[1], new_pose[2], current_pose[3], current_pose[4], current_pose[5]], a=1.2, v=0.0600)
    set_digital_out(0, False)
    new_pose = pose_trans(tuft_coords, p[0.1514, 0.3004, 0.1500, 0, 0, 0])
    movel(p[new_pose[0], new_pose[1], new_pose[2], current_pose[3], current_pose[4], current_pose[5]], a=0.8, v=0.2000)
    new_pose = pose_trans(tuft_coords, p[0.1519, 0.1971, 0.1500, 0, 0, 0])
    movel(p[new_pose[0], new_pose[1], new_pose[2], current_pose[3], current_pose[4], current_pose[5]], a=1.2, v=0.2000)
    local contact_pose_temp = pose_trans(tuft_coords, p[0.1519, 0.1971, 0.1500, 0, 0, 0])
    local contact_pose = p[contact_pose_temp[0], contact_pose_temp[1], contact_pose_temp[2], current_pose[3], current_pose[4], current_pose[5]]
    while norm(get_tcp_force()) < contact_force_threshold and contact_pose[2] > 0.1450:
        contact_pose := pose_trans(contact_pose, p[0, 0, -contact_probe_step, 0, 0, 0])
        movel(contact_pose, a=0.8, v=0.2000)
    end
    if contact_pose[2] > 0.1450:
        new_pose = pose_trans(tuft_coords, p[0.1519, 0.1971, 0.1450, 0, 0, 0])
        movel(p[new_pose[0], new_pose[1], new_pose[2], current_pose[3], current_pose[4], current_pose[5]], a=0.8, v=0.2000)
    end
    set_digital_out(0, True)
    new_pose = pose_trans(tuft_coords, p[0.1519, 0.3029, 0.1450, 0, 0, 0])
    movel(p[new_pose[0], new_pose[1], new_pose[2], current_pose[3], current_pose[4], current_pose[5]], a=1.2, v=0.0600)
    set_digital_out(0, False)
    new_pose = pose_trans(tuft_coords, p[0.1519, 0.3029, 0.1500, 0, 0, 0])
    movel(p[new_pose[0], new_pose[1], new_pose[2], current_pose[3], current_pose[4], current_pose[5]], a=0.8, v=0.2000)
    new_pose = pose_trans(tuft_coords, p[0.1525, 0.1946, 0.1500, 0, 0, 0])
    movel(p[new_pose[0], new_pose[1], new_pose[2], current_pose[3], current_pose[4], current_pose[5]], a=1.2, v=0.2000)
    local contact_pose_temp = pose_trans(tuft_coords, p[0.1525, 0.1946, 0.1500, 0, 0, 0])
    local contact_pose = p[contact_pose_temp[0], contact_pose_temp[1], contact_pose_temp[2], current_pose[3], current_pose[4], current_pose[5]]
    while norm(get_tcp_force()) < contact_force_threshold and contact_pose[2] > 0.1450:
        contact_pose := pose_trans(contact_pose, p[0, 0, -contact_probe_step, 0, 0, 0])
        movel(contact_pose, a=0.8, v=0.2000)
    end
    if contact_pose[2] > 0.1450:
        new_pose = pose_trans(tuft_coords, p[0.1525, 0.1946, 0.1450, 0, 0, 0])
        movel(p[new_pose[0], new_pose[1], new_pose[2], current_pose[3], current_pose[4], current_pose[5]], a=0.8, v=0.2000)
    end
    set_digital_out(0, True)
    new_pose = pose_trans(tuft_coords, p[0.1525, 0.3054, 0.1450, 0, 0, 0])
    movel(p[new_pose[0], new_pose[1], new_pose[2], current_pose[3], current_pose[4], current_pose[5]], a=1.2, v=0.0600)
    set_digital_out(0, False)
    new_pose = pose_trans(tuft_coords, p[0.1525, 0.3054, 0.1500, 0, 0, 0])
    movel(p[new_pose[0], new_pose[1], new_pose[2], current_pose[3], current_pose[4], current_pose[5]], a=0.8, v=0.2000)
    new_pose = pose_trans(tuft_coords, p[0.1531, 0.1929, 0.1500, 0, 0, 0])
    movel(p[new_pose[0], new_pose[1], new_pose[2], current_pose[3], current_pose[4], current_pose[5]], a=1.2, v=0.2000)
    local contact_pose_temp = pose_trans(tuft_coords, p[0.1531, 0.1929, 0.1500, 0, 0, 0])
    local contact_pose = p[contact_pose_temp[0], contact_pose_temp[1], contact_pose_temp[2], current_pose[3], current_pose[4], current_pose[5]]
    while norm(get_tcp_force()) < contact_force_threshold and contact_pose[2] > 0.1450:
        contact_pose := pose_trans(contact_pose, p[0, 0, -contact_probe_step, 0, 0, 0])
        movel(contact_pose, a=0.8, v=0.2000)
    end
    if contact_pose[2] > 0.1450:
        new_pose = pose_trans(tuft_coords, p[0.1531, 0.1929, 0.1450, 0, 0, 0])
        movel(p[new_pose[0], new_pose[1], new_pose[2], current_pose[3], current_pose[4], current_pose[5]], a=0.8, v=0.2000)
    end
    set_digital_out(0, True)
    new_pose = pose_trans(tuft_coords, p[0.1531, 0.3079, 0.1450, 0, 0, 0])
    movel(p[new_pose[0], new_pose[1], new_pose[2], current_pose[3], current_pose[4], current_pose[5]], a=1.2, v=0.0600)
    set_digital_out(0, False)
    new_pose = pose_trans(tuft_coords, p[0.1531, 0.3079, 0.1500, 0, 0, 0])
    movel(p[new_pose[0], new_pose[1], new_pose[2], current_pose[3], current_pose[4], current_pose[5]], a=0.8, v=0.2000)
    new_pose = pose_trans(tuft_coords, p[0.1536, 0.1904, 0.1500, 0, 0, 0])
    movel(p[new_pose[0], new_pose[1], new_pose[2], current_pose[3], current_pose[4], current_pose[5]], a=1.2, v=0.2000)
    local contact_pose_temp = pose_trans(tuft_coords, p[0.1536, 0.1904, 0.1500, 0, 0, 0])
    local contact_pose = p[contact_pose_temp[0], contact_pose_temp[1], contact_pose_temp[2], current_pose[3], current_pose[4], current_pose[5]]
    while norm(get_tcp_force()) < contact_force_threshold and contact_pose[2] > 0.1450:
        contact_pose := pose_trans(contact_pose, p[0, 0, -contact_probe_step, 0, 0, 0])
        movel(contact_pose, a=0.8, v=0.2000)
    end
    if contact_pose[2] > 0.1450:
        new_pose = pose_trans(tuft_coords, p[0.1536, 0.1904, 0.1450, 0, 0, 0])
        movel(p[new_pose[0], new_pose[1], new_pose[2], current_pose[3], current_pose[4], current_pose[5]], a=0.8, v=0.2000)
    end
    set_digital_out(0, True)
    new_pose = pose_trans(tuft_coords, p[0.1536, 0.3096, 0.1450, 0, 0, 0])
    movel(p[new_pose[0], new_pose[1], new_pose[2], current_pose[3], current_pose[4], current_pose[5]], a=1.2, v=0.0600)
    set_digital_out(0, False)
    new_pose = pose_trans(tuft_coords, p[0.1536, 0.3096, 0.1500, 0, 0, 0])
    movel(p[new_pose[0], new_pose[1], new_pose[2], current_pose[3], current_pose[4], current_pose[5]], a=0.8, v=0.2000)
    new_pose = pose_trans(tuft_coords, p[0.1542, 0.1888, 0.1500, 0, 0, 0])
    movel(p[new_pose[0], new_pose[1], new_pose[2], current_pose[3], current_pose[4], current_pose[5]], a=1.2, v=0.2000)
    local contact_pose_temp = pose_trans(tuft_coords, p[0.1542, 0.1888, 0.1500, 0, 0, 0])
    local contact_pose = p[contact_pose_temp[0], contact_pose_temp[1], contact_pose_temp[2], current_pose[3], current_pose[4], current_pose[5]]
    while norm(get_tcp_force()) < contact_force_threshold and contact_pose[2] > 0.1450:
        contact_pose := pose_trans(contact_pose, p[0, 0, -contact_probe_step, 0, 0, 0])
        movel(contact_pose, a=0.8, v=0.2000)
    end
    if contact_pose[2] > 0.1450:
        new_pose = pose_trans(tuft_coords, p[0.1542, 0.1888, 0.1450, 0, 0, 0])
        movel(p[new_pose[0], new_pose[1], new_pose[2], current_pose[3], current_pose[4], current_pose[5]], a=0.8, v=0.2000)
    end
    set_digital_out(0, True)
    new_pose = pose_trans(tuft_coords, p[0.1542, 0.3113, 0.1450, 0, 0, 0])
    movel(p[new_pose[0], new_pose[1], new_pose[2], current_pose[3], current_pose[4], current_pose[5]], a=1.2, v=0.0600)
    set_digital_out(0, False)
    new_pose = pose_trans(tuft_coords, p[0.1542, 0.3113, 0.1500, 0, 0, 0])
    movel(p[new_pose[0], new_pose[1], new_pose[2], current_pose[3], current_pose[4], current_pose[5]], a=0.8, v=0.2000)
    new_pose = pose_trans(tuft_coords, p[0.1547, 0.1862, 0.1500, 0, 0, 0])
    movel(p[new_pose[0], new_pose[1], new_pose[2], current_pose[3], current_pose[4], current_pose[5]], a=1.2, v=0.2000)
    local contact_pose_temp = pose_trans(tuft_coords, p[0.1547, 0.1862, 0.1500, 0, 0, 0])
    local contact_pose = p[contact_pose_temp[0], contact_pose_temp[1], contact_pose_temp[2], current_pose[3], current_pose[4], current_pose[5]]
    while norm(get_tcp_force()) < contact_force_threshold and contact_pose[2] > 0.1450:
        contact_pose := pose_trans(contact_pose, p[0, 0, -contact_probe_step, 0, 0, 0])
        movel(contact_pose, a=0.8, v=0.2000)
    end
    if contact_pose[2] > 0.1450:
        new_pose = pose_trans(tuft_coords, p[0.1547, 0.1862, 0.1450, 0, 0, 0])
        movel(p[new_pose[0], new_pose[1], new_pose[2], current_pose[3], current_pose[4], current_pose[5]], a=0.8, v=0.2000)
    end
    set_digital_out(0, True)
    new_pose = pose_trans(tuft_coords, p[0.1547, 0.3137, 0.1450, 0, 0, 0])
    movel(p[new_pose[0], new_pose[1], new_pose[2], current_pose[3], current_pose[4], current_pose[5]], a=1.2, v=0.0600)
    set_digital_out(0, False)
    new_pose = pose_trans(tuft_coords, p[0.1547, 0.3137, 0.1500, 0, 0, 0])
    movel(p[new_pose[0], new_pose[1], new_pose[2], current_pose[3], current_pose[4], current_pose[5]], a=0.8, v=0.2000)
    new_pose = pose_trans(tuft_coords, p[0.1553, 0.1846, 0.1500, 0, 0, 0])
    movel(p[new_pose[0], new_pose[1], new_pose[2], current_pose[3], current_pose[4], current_pose[5]], a=1.2, v=0.2000)
    local contact_pose_temp = pose_trans(tuft_coords, p[0.1553, 0.1846, 0.1500, 0, 0, 0])
    local contact_pose = p[contact_pose_temp[0], contact_pose_temp[1], contact_pose_temp[2], current_pose[3], current_pose[4], current_pose[5]]
    while norm(get_tcp_force()) < contact_force_threshold and contact_pose[2] > 0.1450:
        contact_pose := pose_trans(contact_pose, p[0, 0, -contact_probe_step, 0, 0, 0])
        movel(contact_pose, a=0.8, v=0.2000)
    end
    if contact_pose[2] > 0.1450:
        new_pose = pose_trans(tuft_coords, p[0.1553, 0.1846, 0.1450, 0, 0, 0])
        movel(p[new_pose[0], new_pose[1], new_pose[2], current_pose[3], current_pose[4], current_pose[5]], a=0.8, v=0.2000)
    end
    set_digital_out(0, True)
    new_pose = pose_trans(tuft_coords, p[0.1553, 0.3154, 0.1450, 0, 0, 0])
    movel(p[new_pose[0], new_pose[1], new_pose[2], current_pose[3], current_pose[4], current_pose[5]], a=1.2, v=0.0600)
    set_digital_out(0, False)
    new_pose = pose_trans(tuft_coords, p[0.1553, 0.3154, 0.1500, 0, 0, 0])
    movel(p[new_pose[0], new_pose[1], new_pose[2], current_pose[3], current_pose[4], current_pose[5]], a=0.8, v=0.2000)
    new_pose = pose_trans(tuft_coords, p[0.1558, 0.1829, 0.1500, 0, 0, 0])
    movel(p[new_pose[0], new_pose[1], new_pose[2], current_pose[3], current_pose[4], current_pose[5]], a=1.2, v=0.2000)
    local contact_pose_temp = pose_trans(tuft_coords, p[0.1558, 0.1829, 0.1500, 0, 0, 0])
    local contact_pose = p[contact_pose_temp[0], contact_pose_temp[1], contact_pose_temp[2], current_pose[3], current_pose[4], current_pose[5]]
    while norm(get_tcp_force()) < contact_force_threshold and contact_pose[2] > 0.1450:
        contact_pose := pose_trans(contact_pose, p[0, 0, -contact_probe_step, 0, 0, 0])
        movel(contact_pose, a=0.8, v=0.2000)
    end
    if contact_pose[2] > 0.1450:
        new_pose = pose_trans(tuft_coords, p[0.1558, 0.1829, 0.1450, 0, 0, 0])
        movel(p[new_pose[0], new_pose[1], new_pose[2], current_pose[3], current_pose[4], current_pose[5]], a=0.8, v=0.2000)
    end
    set_digital_out(0, True)
    new_pose = pose_trans(tuft_coords, p[0.1558, 0.3171, 0.1450, 0, 0, 0])
    movel(p[new_pose[0], new_pose[1], new_pose[2], current_pose[3], current_pose[4], current_pose[5]], a=1.2, v=0.0600)
    set_digital_out(0, False)
    new_pose = pose_trans(tuft_coords, p[0.1558, 0.3171, 0.1500, 0, 0, 0])
    movel(p[new_pose[0], new_pose[1], new_pose[2], current_pose[3], current_pose[4], current_pose[5]], a=0.8, v=0.2000)
    new_pose = pose_trans(tuft_coords, p[0.1564, 0.1812, 0.1500, 0, 0, 0])
    movel(p[new_pose[0], new_pose[1], new_pose[2], current_pose[3], current_pose[4], current_pose[5]], a=1.2, v=0.2000)
    local contact_pose_temp = pose_trans(tuft_coords, p[0.1564, 0.1812, 0.1500, 0, 0, 0])
    local contact_pose = p[contact_pose_temp[0], contact_pose_temp[1], contact_pose_temp[2], current_pose[3], current_pose[4], current_pose[5]]
    while norm(get_tcp_force()) < contact_force_threshold and contact_pose[2] > 0.1450:
        contact_pose := pose_trans(contact_pose, p[0, 0, -contact_probe_step, 0, 0, 0])
        movel(contact_pose, a=0.8, v=0.2000)
    end
    if contact_pose[2] > 0.1450:
        new_pose = pose_trans(tuft_coords, p[0.1564, 0.1812, 0.1450, 0, 0, 0])
        movel(p[new_pose[0], new_pose[1], new_pose[2], current_pose[3], current_pose[4], current_pose[5]], a=0.8, v=0.2000)
    end
    set_digital_out(0, True)
    new_pose = pose_trans(tuft_coords, p[0.1564, 0.3187, 0.1450, 0, 0, 0])
    movel(p[new_pose[0], new_pose[1], new_pose[2], current_pose[3], current_pose[4], current_pose[5]], a=1.2, v=0.0600)
    set_digital_out(0, False)
    new_pose = pose_trans(tuft_coords, p[0.1564, 0.3187, 0.1500, 0, 0, 0])
    movel(p[new_pose[0], new_pose[1], new_pose[2], current_pose[3], current_pose[4], current_pose[5]], a=0.8, v=0.2000)
    new_pose = pose_trans(tuft_coords, p[0.1569, 0.1796, 0.1500, 0, 0, 0])
    movel(p[new_pose[0], new_pose[1], new_pose[2], current_pose[3], current_pose[4], current_pose[5]], a=1.2, v=0.2000)
    local contact_pose_temp = pose_trans(tuft_coords, p[0.1569, 0.1796, 0.1500, 0, 0, 0])
    local contact_pose = p[contact_pose_temp[0], contact_pose_temp[1], contact_pose_temp[2], current_pose[3], current_pose[4], current_pose[5]]
    while norm(get_tcp_force()) < contact_force_threshold and contact_pose[2] > 0.1450:
        contact_pose := pose_trans(contact_pose, p[0, 0, -contact_probe_step, 0, 0, 0])
        movel(contact_pose, a=0.8, v=0.2000)
    end
    if contact_pose[2] > 0.1450:
        new_pose = pose_trans(tuft_coords, p[0.1569, 0.1796, 0.1450, 0, 0, 0])
        movel(p[new_pose[0], new_pose[1], new_pose[2], current_pose[3], current_pose[4], current_pose[5]], a=0.8, v=0.2000)
    end
    set_digital_out(0, True)
    new_pose = pose_trans(tuft_coords, p[0.1569, 0.3204, 0.1450, 0, 0, 0])
    movel(p[new_pose[0], new_pose[1], new_pose[2], current_pose[3], current_pose[4], current_pose[5]], a=1.2, v=0.0600)
    set_digital_out(0, False)
    new_pose = pose_trans(tuft_coords, p[0.1569, 0.3204, 0.1500, 0, 0, 0])
    movel(p[new_pose[0], new_pose[1], new_pose[2], current_pose[3], current_pose[4], current_pose[5]], a=0.8, v=0.2000)
    new_pose = pose_trans(tuft_coords, p[0.1575, 0.1779, 0.1500, 0, 0, 0])
    movel(p[new_pose[0], new_pose[1], new_pose[2], current_pose[3], current_pose[4], current_pose[5]], a=1.2, v=0.2000)
    local contact_pose_temp = pose_trans(tuft_coords, p[0.1575, 0.1779, 0.1500, 0, 0, 0])
    local contact_pose = p[contact_pose_temp[0], contact_pose_temp[1], contact_pose_temp[2], current_pose[3], current_pose[4], current_pose[5]]
    while norm(get_tcp_force()) < contact_force_threshold and contact_pose[2] > 0.1450:
        contact_pose := pose_trans(contact_pose, p[0, 0, -contact_probe_step, 0, 0, 0])
        movel(contact_pose, a=0.8, v=0.2000)
    end
    if contact_pose[2] > 0.1450:
        new_pose = pose_trans(tuft_coords, p[0.1575, 0.1779, 0.1450, 0, 0, 0])
        movel(p[new_pose[0], new_pose[1], new_pose[2], current_pose[3], current_pose[4], current_pose[5]], a=0.8, v=0.2000)
    end
    set_digital_out(0, True)
    new_pose = pose_trans(tuft_coords, p[0.1575, 0.3221, 0.1450, 0, 0, 0])
    movel(p[new_pose[0], new_pose[1], new_pose[2], current_pose[3], current_pose[4], current_pose[5]], a=1.2, v=0.0600)
    set_digital_out(0, False)
    new_pose = pose_trans(tuft_coords, p[0.1575, 0.3221, 0.1500, 0, 0, 0])
    movel(p[new_pose[0], new_pose[1], new_pose[2], current_pose[3], current_pose[4], current_pose[5]], a=0.8, v=0.2000)
    new_pose = pose_trans(tuft_coords, p[0.1581, 0.1762, 0.1500, 0, 0, 0])
    movel(p[new_pose[0], new_pose[1], new_pose[2], current_pose[3], current_pose[4], current_pose[5]], a=1.2, v=0.2000)
    local contact_pose_temp = pose_trans(tuft_coords, p[0.1581, 0.1762, 0.1500, 0, 0, 0])
    local contact_pose = p[contact_pose_temp[0], contact_pose_temp[1], contact_pose_temp[2], current_pose[3], current_pose[4], current_pose[5]]
    while norm(get_tcp_force()) < contact_force_threshold and contact_pose[2] > 0.1450:
        contact_pose := pose_trans(contact_pose, p[0, 0, -contact_probe_step, 0, 0, 0])
        movel(contact_pose, a=0.8, v=0.2000)
    end
    if contact_pose[2] > 0.1450:
        new_pose = pose_trans(tuft_coords, p[0.1581, 0.1762, 0.1450, 0, 0, 0])
        movel(p[new_pose[0], new_pose[1], new_pose[2], current_pose[3], current_pose[4], current_pose[5]], a=0.8, v=0.2000)
    end
    set_digital_out(0, True)
    new_pose = pose_trans(tuft_coords, p[0.1581, 0.3237, 0.1450, 0, 0, 0])
    movel(p[new_pose[0], new_pose[1], new_pose[2], current_pose[3], current_pose[4], current_pose[5]], a=1.2, v=0.0600)
    set_digital_out(0, False)
    new_pose = pose_trans(tuft_coords, p[0.1581, 0.3237, 0.1500, 0, 0, 0])
    movel(p[new_pose[0], new_pose[1], new_pose[2], current_pose[3], current_pose[4], current_pose[5]], a=0.8, v=0.2000)
    new_pose = pose_trans(tuft_coords, p[0.1586, 0.1746, 0.1500, 0, 0, 0])
    movel(p[new_pose[0], new_pose[1], new_pose[2], current_pose[3], current_pose[4], current_pose[5]], a=1.2, v=0.2000)
    local contact_pose_temp = pose_trans(tuft_coords, p[0.1586, 0.1746, 0.1500, 0, 0, 0])
    local contact_pose = p[contact_pose_temp[0], contact_pose_temp[1], contact_pose_temp[2], current_pose[3], current_pose[4], current_pose[5]]
    while norm(get_tcp_force()) < contact_force_threshold and contact_pose[2] > 0.1450:
        contact_pose := pose_trans(contact_pose, p[0, 0, -contact_probe_step, 0, 0, 0])
        movel(contact_pose, a=0.8, v=0.2000)
    end
    if contact_pose[2] > 0.1450:
        new_pose = pose_trans(tuft_coords, p[0.1586, 0.1746, 0.1450, 0, 0, 0])
        movel(p[new_pose[0], new_pose[1], new_pose[2], current_pose[3], current_pose[4], current_pose[5]], a=0.8, v=0.2000)
    end
    set_digital_out(0, True)
    new_pose = pose_trans(tuft_coords, p[0.1586, 0.3254, 0.1450, 0, 0, 0])
    movel(p[new_pose[0], new_pose[1], new_pose[2], current_pose[3], current_pose[4], current_pose[5]], a=1.2, v=0.0600)
    set_digital_out(0, False)
    new_pose = pose_trans(tuft_coords, p[0.1586, 0.3254, 0.1500, 0, 0, 0])
    movel(p[new_pose[0], new_pose[1], new_pose[2], current_pose[3], current_pose[4], current_pose[5]], a=0.8, v=0.2000)
    new_pose = pose_trans(tuft_coords, p[0.1592, 0.1737, 0.1500, 0, 0, 0])
    movel(p[new_pose[0], new_pose[1], new_pose[2], current_pose[3], current_pose[4], current_pose[5]], a=1.2, v=0.2000)
    local contact_pose_temp = pose_trans(tuft_coords, p[0.1592, 0.1737, 0.1500, 0, 0, 0])
    local contact_pose = p[contact_pose_temp[0], contact_pose_temp[1], contact_pose_temp[2], current_pose[3], current_pose[4], current_pose[5]]
    while norm(get_tcp_force()) < contact_force_threshold and contact_pose[2] > 0.1450:
        contact_pose := pose_trans(contact_pose, p[0, 0, -contact_probe_step, 0, 0, 0])
        movel(contact_pose, a=0.8, v=0.2000)
    end
    if contact_pose[2] > 0.1450:
        new_pose = pose_trans(tuft_coords, p[0.1592, 0.1737, 0.1450, 0, 0, 0])
        movel(p[new_pose[0], new_pose[1], new_pose[2], current_pose[3], current_pose[4], current_pose[5]], a=0.8, v=0.2000)
    end
    set_digital_out(0, True)
    new_pose = pose_trans(tuft_coords, p[0.1592, 0.3262, 0.1450, 0, 0, 0])
    movel(p[new_pose[0], new_pose[1], new_pose[2], current_pose[3], current_pose[4], current_pose[5]], a=1.2, v=0.0600)
    set_digital_out(0, False)
    new_pose = pose_trans(tuft_coords, p[0.1592, 0.3262, 0.1500, 0, 0, 0])
    movel(p[new_pose[0], new_pose[1], new_pose[2], current_pose[3], current_pose[4], current_pose[5]], a=0.8, v=0.2000)
    new_pose = pose_trans(tuft_coords, p[0.1597, 0.1721, 0.1500, 0, 0, 0])
    movel(p[new_pose[0], new_pose[1], new_pose[2], current_pose[3], current_pose[4], current_pose[5]], a=1.2, v=0.2000)
    local contact_pose_temp = pose_trans(tuft_coords, p[0.1597, 0.1721, 0.1500, 0, 0, 0])
    local contact_pose = p[contact_pose_temp[0], contact_pose_temp[1], contact_pose_temp[2], current_pose[3], current_pose[4], current_pose[5]]
    while norm(get_tcp_force()) < contact_force_threshold and contact_pose[2] > 0.1450:
        contact_pose := pose_trans(contact_pose, p[0, 0, -contact_probe_step, 0, 0, 0])
        movel(contact_pose, a=0.8, v=0.2000)
    end
    if contact_pose[2] > 0.1450:
        new_pose = pose_trans(tuft_coords, p[0.1597, 0.1721, 0.1450, 0, 0, 0])
        movel(p[new_pose[0], new_pose[1], new_pose[2], current_pose[3], current_pose[4], current_pose[5]], a=0.8, v=0.2000)
    end
    set_digital_out(0, True)
    new_pose = pose_trans(tuft_coords, p[0.1597, 0.3279, 0.1450, 0, 0, 0])
    movel(p[new_pose[0], new_pose[1], new_pose[2], current_pose[3], current_pose[4], current_pose[5]], a=1.2, v=0.0600)
    set_digital_out(0, False)
    new_pose = pose_trans(tuft_coords, p[0.1597, 0.3279, 0.1500, 0, 0, 0])
    movel(p[new_pose[0], new_pose[1], new_pose[2], current_pose[3], current_pose[4], current_pose[5]], a=0.8, v=0.2000)
    new_pose = pose_trans(tuft_coords, p[0.1603, 0.1704, 0.1500, 0, 0, 0])
    movel(p[new_pose[0], new_pose[1], new_pose[2], current_pose[3], current_pose[4], current_pose[5]], a=1.2, v=0.2000)
    local contact_pose_temp = pose_trans(tuft_coords, p[0.1603, 0.1704, 0.1500, 0, 0, 0])
    local contact_pose = p[contact_pose_temp[0], contact_pose_temp[1], contact_pose_temp[2], current_pose[3], current_pose[4], current_pose[5]]
    while norm(get_tcp_force()) < contact_force_threshold and contact_pose[2] > 0.1450:
        contact_pose := pose_trans(contact_pose, p[0, 0, -contact_probe_step, 0, 0, 0])
        movel(contact_pose, a=0.8, v=0.2000)
    end
    if contact_pose[2] > 0.1450:
        new_pose = pose_trans(tuft_coords, p[0.1603, 0.1704, 0.1450, 0, 0, 0])
        movel(p[new_pose[0], new_pose[1], new_pose[2], current_pose[3], current_pose[4], current_pose[5]], a=0.8, v=0.2000)
    end
    set_digital_out(0, True)
    new_pose = pose_trans(tuft_coords, p[0.1603, 0.3296, 0.1450, 0, 0, 0])
    movel(p[new_pose[0], new_pose[1], new_pose[2], current_pose[3], current_pose[4], current_pose[5]], a=1.2, v=0.0600)
    set_digital_out(0, False)
    new_pose = pose_trans(tuft_coords, p[0.1603, 0.3296, 0.1500, 0, 0, 0])
    movel(p[new_pose[0], new_pose[1], new_pose[2], current_pose[3], current_pose[4], current_pose[5]], a=0.8, v=0.2000)
    new_pose = pose_trans(tuft_coords, p[0.1608, 0.1696, 0.1500, 0, 0, 0])
    movel(p[new_pose[0], new_pose[1], new_pose[2], current_pose[3], current_pose[4], current_pose[5]], a=1.2, v=0.2000)
    local contact_pose_temp = pose_trans(tuft_coords, p[0.1608, 0.1696, 0.1500, 0, 0, 0])
    local contact_pose = p[contact_pose_temp[0], contact_pose_temp[1], contact_pose_temp[2], current_pose[3], current_pose[4], current_pose[5]]
    while norm(get_tcp_force()) < contact_force_threshold and contact_pose[2] > 0.1450:
        contact_pose := pose_trans(contact_pose, p[0, 0, -contact_probe_step, 0, 0, 0])
        movel(contact_pose, a=0.8, v=0.2000)
    end
    if contact_pose[2] > 0.1450:
        new_pose = pose_trans(tuft_coords, p[0.1608, 0.1696, 0.1450, 0, 0, 0])
        movel(p[new_pose[0], new_pose[1], new_pose[2], current_pose[3], current_pose[4], current_pose[5]], a=0.8, v=0.2000)
    end
    set_digital_out(0, True)
    new_pose = pose_trans(tuft_coords, p[0.1608, 0.3304, 0.1450, 0, 0, 0])
    movel(p[new_pose[0], new_pose[1], new_pose[2], current_pose[3], current_pose[4], current_pose[5]], a=1.2, v=0.0600)
    set_digital_out(0, False)
    new_pose = pose_trans(tuft_coords, p[0.1608, 0.3304, 0.1500, 0, 0, 0])
    movel(p[new_pose[0], new_pose[1], new_pose[2], current_pose[3], current_pose[4], current_pose[5]], a=0.8, v=0.2000)
    new_pose = pose_trans(tuft_coords, p[0.1614, 0.1679, 0.1500, 0, 0, 0])
    movel(p[new_pose[0], new_pose[1], new_pose[2], current_pose[3], current_pose[4], current_pose[5]], a=1.2, v=0.2000)
    local contact_pose_temp = pose_trans(tuft_coords, p[0.1614, 0.1679, 0.1500, 0, 0, 0])
    local contact_pose = p[contact_pose_temp[0], contact_pose_temp[1], contact_pose_temp[2], current_pose[3], current_pose[4], current_pose[5]]
    while norm(get_tcp_force()) < contact_force_threshold and contact_pose[2] > 0.1450:
        contact_pose := pose_trans(contact_pose, p[0, 0, -contact_probe_step, 0, 0, 0])
        movel(contact_pose, a=0.8, v=0.2000)
    end
    if contact_pose[2] > 0.1450:
        new_pose = pose_trans(tuft_coords, p[0.1614, 0.1679, 0.1450, 0, 0, 0])
        movel(p[new_pose[0], new_pose[1], new_pose[2], current_pose[3], current_pose[4], current_pose[5]], a=0.8, v=0.2000)
    end
    set_digital_out(0, True)
    new_pose = pose_trans(tuft_coords, p[0.1614, 0.3321, 0.1450, 0, 0, 0])
    movel(p[new_pose[0], new_pose[1], new_pose[2], current_pose[3], current_pose[4], current_pose[5]], a=1.2, v=0.0600)
    set_digital_out(0, False)
    new_pose = pose_trans(tuft_coords, p[0.1614, 0.3321, 0.1500, 0, 0, 0])
    movel(p[new_pose[0], new_pose[1], new_pose[2], current_pose[3], current_pose[4], current_pose[5]], a=0.8, v=0.2000)
    new_pose = pose_trans(tuft_coords, p[0.1619, 0.1663, 0.1500, 0, 0, 0])
    movel(p[new_pose[0], new_pose[1], new_pose[2], current_pose[3], current_pose[4], current_pose[5]], a=1.2, v=0.2000)
    local contact_pose_temp = pose_trans(tuft_coords, p[0.1619, 0.1663, 0.1500, 0, 0, 0])
    local contact_pose = p[contact_pose_temp[0], contact_pose_temp[1], contact_pose_temp[2], current_pose[3], current_pose[4], current_pose[5]]
    while norm(get_tcp_force()) < contact_force_threshold and contact_pose[2] > 0.1450:
        contact_pose := pose_trans(contact_pose, p[0, 0, -contact_probe_step, 0, 0, 0])
        movel(contact_pose, a=0.8, v=0.2000)
    end
    if contact_pose[2] > 0.1450:
        new_pose = pose_trans(tuft_coords, p[0.1619, 0.1663, 0.1450, 0, 0, 0])
        movel(p[new_pose[0], new_pose[1], new_pose[2], current_pose[3], current_pose[4], current_pose[5]], a=0.8, v=0.2000)
    end
    set_digital_out(0, True)
    new_pose = pose_trans(tuft_coords, p[0.1619, 0.3337, 0.1450, 0, 0, 0])
    movel(p[new_pose[0], new_pose[1], new_pose[2], current_pose[3], current_pose[4], current_pose[5]], a=1.2, v=0.0600)
    set_digital_out(0, False)
    new_pose = pose_trans(tuft_coords, p[0.1619, 0.3337, 0.1500, 0, 0, 0])
    movel(p[new_pose[0], new_pose[1], new_pose[2], current_pose[3], current_pose[4], current_pose[5]], a=0.8, v=0.2000)
    new_pose = pose_trans(tuft_coords, p[0.1625, 0.1654, 0.1500, 0, 0, 0])
    movel(p[new_pose[0], new_pose[1], new_pose[2], current_pose[3], current_pose[4], current_pose[5]], a=1.2, v=0.2000)
    local contact_pose_temp = pose_trans(tuft_coords, p[0.1625, 0.1654, 0.1500, 0, 0, 0])
    local contact_pose = p[contact_pose_temp[0], contact_pose_temp[1], contact_pose_temp[2], current_pose[3], current_pose[4], current_pose[5]]
    while norm(get_tcp_force()) < contact_force_threshold and contact_pose[2] > 0.1450:
        contact_pose := pose_trans(contact_pose, p[0, 0, -contact_probe_step, 0, 0, 0])
        movel(contact_pose, a=0.8, v=0.2000)
    end
    if contact_pose[2] > 0.1450:
        new_pose = pose_trans(tuft_coords, p[0.1625, 0.1654, 0.1450, 0, 0, 0])
        movel(p[new_pose[0], new_pose[1], new_pose[2], current_pose[3], current_pose[4], current_pose[5]], a=0.8, v=0.2000)
    end
    set_digital_out(0, True)
    new_pose = pose_trans(tuft_coords, p[0.1625, 0.3346, 0.1450, 0, 0, 0])
    movel(p[new_pose[0], new_pose[1], new_pose[2], current_pose[3], current_pose[4], current_pose[5]], a=1.2, v=0.0600)
    set_digital_out(0, False)
    new_pose = pose_trans(tuft_coords, p[0.1625, 0.3346, 0.1500, 0, 0, 0])
    movel(p[new_pose[0], new_pose[1], new_pose[2], current_pose[3], current_pose[4], current_pose[5]], a=0.8, v=0.2000)
    new_pose = pose_trans(tuft_coords, p[0.1631, 0.1638, 0.1500, 0, 0, 0])
    movel(p[new_pose[0], new_pose[1], new_pose[2], current_pose[3], current_pose[4], current_pose[5]], a=1.2, v=0.2000)
    local contact_pose_temp = pose_trans(tuft_coords, p[0.1631, 0.1638, 0.1500, 0, 0, 0])
    local contact_pose = p[contact_pose_temp[0], contact_pose_temp[1], contact_pose_temp[2], current_pose[3], current_pose[4], current_pose[5]]
    while norm(get_tcp_force()) < contact_force_threshold and contact_pose[2] > 0.1450:
        contact_pose := pose_trans(contact_pose, p[0, 0, -contact_probe_step, 0, 0, 0])
        movel(contact_pose, a=0.8, v=0.2000)
    end
    if contact_pose[2] > 0.1450:
        new_pose = pose_trans(tuft_coords, p[0.1631, 0.1638, 0.1450, 0, 0, 0])
        movel(p[new_pose[0], new_pose[1], new_pose[2], current_pose[3], current_pose[4], current_pose[5]], a=0.8, v=0.2000)
    end
    set_digital_out(0, True)
    new_pose = pose_trans(tuft_coords, p[0.1631, 0.3362, 0.1450, 0, 0, 0])
    movel(p[new_pose[0], new_pose[1], new_pose[2], current_pose[3], current_pose[4], current_pose[5]], a=1.2, v=0.0600)
    set_digital_out(0, False)
    new_pose = pose_trans(tuft_coords, p[0.1631, 0.3362, 0.1500, 0, 0, 0])
    movel(p[new_pose[0], new_pose[1], new_pose[2], current_pose[3], current_pose[4], current_pose[5]], a=0.8, v=0.2000)
    new_pose = pose_trans(tuft_coords, p[0.1636, 0.1629, 0.1500, 0, 0, 0])
    movel(p[new_pose[0], new_pose[1], new_pose[2], current_pose[3], current_pose[4], current_pose[5]], a=1.2, v=0.2000)
    local contact_pose_temp = pose_trans(tuft_coords, p[0.1636, 0.1629, 0.1500, 0, 0, 0])
    local contact_pose = p[contact_pose_temp[0], contact_pose_temp[1], contact_pose_temp[2], current_pose[3], current_pose[4], current_pose[5]]
    while norm(get_tcp_force()) < contact_force_threshold and contact_pose[2] > 0.1450:
        contact_pose := pose_trans(contact_pose, p[0, 0, -contact_probe_step, 0, 0, 0])
        movel(contact_pose, a=0.8, v=0.2000)
    end
    if contact_pose[2] > 0.1450:
        new_pose = pose_trans(tuft_coords, p[0.1636, 0.1629, 0.1450, 0, 0, 0])
        movel(p[new_pose[0], new_pose[1], new_pose[2], current_pose[3], current_pose[4], current_pose[5]], a=0.8, v=0.2000)
    end
    set_digital_out(0, True)
    new_pose = pose_trans(tuft_coords, p[0.1636, 0.3371, 0.1450, 0, 0, 0])
    movel(p[new_pose[0], new_pose[1], new_pose[2], current_pose[3], current_pose[4], current_pose[5]], a=1.2, v=0.0600)
    set_digital_out(0, False)
    new_pose = pose_trans(tuft_coords, p[0.1636, 0.3371, 0.1500, 0, 0, 0])
    movel(p[new_pose[0], new_pose[1], new_pose[2], current_pose[3], current_pose[4], current_pose[5]], a=0.8, v=0.2000)
    new_pose = pose_trans(tuft_coords, p[0.1642, 0.1613, 0.1500, 0, 0, 0])
    movel(p[new_pose[0], new_pose[1], new_pose[2], current_pose[3], current_pose[4], current_pose[5]], a=1.2, v=0.2000)
    local contact_pose_temp = pose_trans(tuft_coords, p[0.1642, 0.1613, 0.1500, 0, 0, 0])
    local contact_pose = p[contact_pose_temp[0], contact_pose_temp[1], contact_pose_temp[2], current_pose[3], current_pose[4], current_pose[5]]
    while norm(get_tcp_force()) < contact_force_threshold and contact_pose[2] > 0.1450:
        contact_pose := pose_trans(contact_pose, p[0, 0, -contact_probe_step, 0, 0, 0])
        movel(contact_pose, a=0.8, v=0.2000)
    end
    if contact_pose[2] > 0.1450:
        new_pose = pose_trans(tuft_coords, p[0.1642, 0.1613, 0.1450, 0, 0, 0])
        movel(p[new_pose[0], new_pose[1], new_pose[2], current_pose[3], current_pose[4], current_pose[5]], a=0.8, v=0.2000)
    end
    set_digital_out(0, True)
    new_pose = pose_trans(tuft_coords, p[0.1642, 0.3387, 0.1450, 0, 0, 0])
    movel(p[new_pose[0], new_pose[1], new_pose[2], current_pose[3], current_pose[4], current_pose[5]], a=1.2, v=0.0600)
    set_digital_out(0, False)
    new_pose = pose_trans(tuft_coords, p[0.1642, 0.3387, 0.1500, 0, 0, 0])
    movel(p[new_pose[0], new_pose[1], new_pose[2], current_pose[3], current_pose[4], current_pose[5]], a=0.8, v=0.2000)
    new_pose = pose_trans(tuft_coords, p[0.1647, 0.1604, 0.1500, 0, 0, 0])
    movel(p[new_pose[0], new_pose[1], new_pose[2], current_pose[3], current_pose[4], current_pose[5]], a=1.2, v=0.2000)
    local contact_pose_temp = pose_trans(tuft_coords, p[0.1647, 0.1604, 0.1500, 0, 0, 0])
    local contact_pose = p[contact_pose_temp[0], contact_pose_temp[1], contact_pose_temp[2], current_pose[3], current_pose[4], current_pose[5]]
    while norm(get_tcp_force()) < contact_force_threshold and contact_pose[2] > 0.1450:
        contact_pose := pose_trans(contact_pose, p[0, 0, -contact_probe_step, 0, 0, 0])
        movel(contact_pose, a=0.8, v=0.2000)
    end
    if contact_pose[2] > 0.1450:
        new_pose = pose_trans(tuft_coords, p[0.1647, 0.1604, 0.1450, 0, 0, 0])
        movel(p[new_pose[0], new_pose[1], new_pose[2], current_pose[3], current_pose[4], current_pose[5]], a=0.8, v=0.2000)
    end
    set_digital_out(0, True)
    new_pose = pose_trans(tuft_coords, p[0.1647, 0.3396, 0.1450, 0, 0, 0])
    movel(p[new_pose[0], new_pose[1], new_pose[2], current_pose[3], current_pose[4], current_pose[5]], a=1.2, v=0.0600)
    set_digital_out(0, False)
    new_pose = pose_trans(tuft_coords, p[0.1647, 0.3396, 0.1500, 0, 0, 0])
    movel(p[new_pose[0], new_pose[1], new_pose[2], current_pose[3], current_pose[4], current_pose[5]], a=0.8, v=0.2000)
    new_pose = pose_trans(tuft_coords, p[0.1653, 0.1588, 0.1500, 0, 0, 0])
    movel(p[new_pose[0], new_pose[1], new_pose[2], current_pose[3], current_pose[4], current_pose[5]], a=1.2, v=0.2000)
    local contact_pose_temp = pose_trans(tuft_coords, p[0.1653, 0.1588, 0.1500, 0, 0, 0])
    local contact_pose = p[contact_pose_temp[0], contact_pose_temp[1], contact_pose_temp[2], current_pose[3], current_pose[4], current_pose[5]]
    while norm(get_tcp_force()) < contact_force_threshold and contact_pose[2] > 0.1450:
        contact_pose := pose_trans(contact_pose, p[0, 0, -contact_probe_step, 0, 0, 0])
        movel(contact_pose, a=0.8, v=0.2000)
    end
    if contact_pose[2] > 0.1450:
        new_pose = pose_trans(tuft_coords, p[0.1653, 0.1588, 0.1450, 0, 0, 0])
        movel(p[new_pose[0], new_pose[1], new_pose[2], current_pose[3], current_pose[4], current_pose[5]], a=0.8, v=0.2000)
    end
    set_digital_out(0, True)
    new_pose = pose_trans(tuft_coords, p[0.1653, 0.3412, 0.1450, 0, 0, 0])
    movel(p[new_pose[0], new_pose[1], new_pose[2], current_pose[3], current_pose[4], current_pose[5]], a=1.2, v=0.0600)
    set_digital_out(0, False)
    new_pose = pose_trans(tuft_coords, p[0.1653, 0.3412, 0.1500, 0, 0, 0])
    movel(p[new_pose[0], new_pose[1], new_pose[2], current_pose[3], current_pose[4], current_pose[5]], a=0.8, v=0.2000)
    new_pose = pose_trans(tuft_coords, p[0.1658, 0.1579, 0.1500, 0, 0, 0])
    movel(p[new_pose[0], new_pose[1], new_pose[2], current_pose[3], current_pose[4], current_pose[5]], a=1.2, v=0.2000)
    local contact_pose_temp = pose_trans(tuft_coords, p[0.1658, 0.1579, 0.1500, 0, 0, 0])
    local contact_pose = p[contact_pose_temp[0], contact_pose_temp[1], contact_pose_temp[2], current_pose[3], current_pose[4], current_pose[5]]
    while norm(get_tcp_force()) < contact_force_threshold and contact_pose[2] > 0.1450:
        contact_pose := pose_trans(contact_pose, p[0, 0, -contact_probe_step, 0, 0, 0])
        movel(contact_pose, a=0.8, v=0.2000)
    end
    if contact_pose[2] > 0.1450:
        new_pose = pose_trans(tuft_coords, p[0.1658, 0.1579, 0.1450, 0, 0, 0])
        movel(p[new_pose[0], new_pose[1], new_pose[2], current_pose[3], current_pose[4], current_pose[5]], a=0.8, v=0.2000)
    end
    set_digital_out(0, True)
    new_pose = pose_trans(tuft_coords, p[0.1658, 0.3421, 0.1450, 0, 0, 0])
    movel(p[new_pose[0], new_pose[1], new_pose[2], current_pose[3], current_pose[4], current_pose[5]], a=1.2, v=0.0600)
    set_digital_out(0, False)
    new_pose = pose_trans(tuft_coords, p[0.1658, 0.3421, 0.1500, 0, 0, 0])
    movel(p[new_pose[0], new_pose[1], new_pose[2], current_pose[3], current_pose[4], current_pose[5]], a=0.8, v=0.2000)
    new_pose = pose_trans(tuft_coords, p[0.1664, 0.1571, 0.1500, 0, 0, 0])
    movel(p[new_pose[0], new_pose[1], new_pose[2], current_pose[3], current_pose[4], current_pose[5]], a=1.2, v=0.2000)
    local contact_pose_temp = pose_trans(tuft_coords, p[0.1664, 0.1571, 0.1500, 0, 0, 0])
    local contact_pose = p[contact_pose_temp[0], contact_pose_temp[1], contact_pose_temp[2], current_pose[3], current_pose[4], current_pose[5]]
    while norm(get_tcp_force()) < contact_force_threshold and contact_pose[2] > 0.1450:
        contact_pose := pose_trans(contact_pose, p[0, 0, -contact_probe_step, 0, 0, 0])
        movel(contact_pose, a=0.8, v=0.2000)
    end
    if contact_pose[2] > 0.1450:
        new_pose = pose_trans(tuft_coords, p[0.1664, 0.1571, 0.1450, 0, 0, 0])
        movel(p[new_pose[0], new_pose[1], new_pose[2], current_pose[3], current_pose[4], current_pose[5]], a=0.8, v=0.2000)
    end
    set_digital_out(0, True)
    new_pose = pose_trans(tuft_coords, p[0.1664, 0.3429, 0.1450, 0, 0, 0])
    movel(p[new_pose[0], new_pose[1], new_pose[2], current_pose[3], current_pose[4], current_pose[5]], a=1.2, v=0.0600)
    set_digital_out(0, False)
    new_pose = pose_trans(tuft_coords, p[0.1664, 0.3429, 0.1500, 0, 0, 0])
    movel(p[new_pose[0], new_pose[1], new_pose[2], current_pose[3], current_pose[4], current_pose[5]], a=0.8, v=0.2000)
    new_pose = pose_trans(tuft_coords, p[0.1669, 0.1554, 0.1500, 0, 0, 0])
    movel(p[new_pose[0], new_pose[1], new_pose[2], current_pose[3], current_pose[4], current_pose[5]], a=1.2, v=0.2000)
    local contact_pose_temp = pose_trans(tuft_coords, p[0.1669, 0.1554, 0.1500, 0, 0, 0])
    local contact_pose = p[contact_pose_temp[0], contact_pose_temp[1], contact_pose_temp[2], current_pose[3], current_pose[4], current_pose[5]]
    while norm(get_tcp_force()) < contact_force_threshold and contact_pose[2] > 0.1450:
        contact_pose := pose_trans(contact_pose, p[0, 0, -contact_probe_step, 0, 0, 0])
        movel(contact_pose, a=0.8, v=0.2000)
    end
    if contact_pose[2] > 0.1450:
        new_pose = pose_trans(tuft_coords, p[0.1669, 0.1554, 0.1450, 0, 0, 0])
        movel(p[new_pose[0], new_pose[1], new_pose[2], current_pose[3], current_pose[4], current_pose[5]], a=0.8, v=0.2000)
    end
    set_digital_out(0, True)
    new_pose = pose_trans(tuft_coords, p[0.1669, 0.3446, 0.1450, 0, 0, 0])
    movel(p[new_pose[0], new_pose[1], new_pose[2], current_pose[3], current_pose[4], current_pose[5]], a=1.2, v=0.0600)
    set_digital_out(0, False)
    new_pose = pose_trans(tuft_coords, p[0.1669, 0.3446, 0.1500, 0, 0, 0])
    movel(p[new_pose[0], new_pose[1], new_pose[2], current_pose[3], current_pose[4], current_pose[5]], a=0.8, v=0.2000)
    new_pose = pose_trans(tuft_coords, p[0.1675, 0.1546, 0.1500, 0, 0, 0])
    movel(p[new_pose[0], new_pose[1], new_pose[2], current_pose[3], current_pose[4], current_pose[5]], a=1.2, v=0.2000)
    local contact_pose_temp = pose_trans(tuft_coords, p[0.1675, 0.1546, 0.1500, 0, 0, 0])
    local contact_pose = p[contact_pose_temp[0], contact_pose_temp[1], contact_pose_temp[2], current_pose[3], current_pose[4], current_pose[5]]
    while norm(get_tcp_force()) < contact_force_threshold and contact_pose[2] > 0.1450:
        contact_pose := pose_trans(contact_pose, p[0, 0, -contact_probe_step, 0, 0, 0])
        movel(contact_pose, a=0.8, v=0.2000)
    end
    if contact_pose[2] > 0.1450:
        new_pose = pose_trans(tuft_coords, p[0.1675, 0.1546, 0.1450, 0, 0, 0])
        movel(p[new_pose[0], new_pose[1], new_pose[2], current_pose[3], current_pose[4], current_pose[5]], a=0.8, v=0.2000)
    end
    set_digital_out(0, True)
    new_pose = pose_trans(tuft_coords, p[0.1675, 0.3454, 0.1450, 0, 0, 0])
    movel(p[new_pose[0], new_pose[1], new_pose[2], current_pose[3], current_pose[4], current_pose[5]], a=1.2, v=0.0600)
    set_digital_out(0, False)
    new_pose = pose_trans(tuft_coords, p[0.1675, 0.3454, 0.1500, 0, 0, 0])
    movel(p[new_pose[0], new_pose[1], new_pose[2], current_pose[3], current_pose[4], current_pose[5]], a=0.8, v=0.2000)
    new_pose = pose_trans(tuft_coords, p[0.1681, 0.1537, 0.1500, 0, 0, 0])
    movel(p[new_pose[0], new_pose[1], new_pose[2], current_pose[3], current_pose[4], current_pose[5]], a=1.2, v=0.2000)
    local contact_pose_temp = pose_trans(tuft_coords, p[0.1681, 0.1537, 0.1500, 0, 0, 0])
    local contact_pose = p[contact_pose_temp[0], contact_pose_temp[1], contact_pose_temp[2], current_pose[3], current_pose[4], current_pose[5]]
    while norm(get_tcp_force()) < contact_force_threshold and contact_pose[2] > 0.1450:
        contact_pose := pose_trans(contact_pose, p[0, 0, -contact_probe_step, 0, 0, 0])
        movel(contact_pose, a=0.8, v=0.2000)
    end
    if contact_pose[2] > 0.1450:
        new_pose = pose_trans(tuft_coords, p[0.1681, 0.1537, 0.1450, 0, 0, 0])
        movel(p[new_pose[0], new_pose[1], new_pose[2], current_pose[3], current_pose[4], current_pose[5]], a=0.8, v=0.2000)
    end
    set_digital_out(0, True)
    new_pose = pose_trans(tuft_coords, p[0.1681, 0.3463, 0.1450, 0, 0, 0])
    movel(p[new_pose[0], new_pose[1], new_pose[2], current_pose[3], current_pose[4], current_pose[5]], a=1.2, v=0.0600)
    set_digital_out(0, False)
    new_pose = pose_trans(tuft_coords, p[0.1681, 0.3463, 0.1500, 0, 0, 0])
    movel(p[new_pose[0], new_pose[1], new_pose[2], current_pose[3], current_pose[4], current_pose[5]], a=0.8, v=0.2000)
    new_pose = pose_trans(tuft_coords, p[0.1686, 0.1529, 0.1500, 0, 0, 0])
    movel(p[new_pose[0], new_pose[1], new_pose[2], current_pose[3], current_pose[4], current_pose[5]], a=1.2, v=0.2000)
    local contact_pose_temp = pose_trans(tuft_coords, p[0.1686, 0.1529, 0.1500, 0, 0, 0])
    local contact_pose = p[contact_pose_temp[0], contact_pose_temp[1], contact_pose_temp[2], current_pose[3], current_pose[4], current_pose[5]]
    while norm(get_tcp_force()) < contact_force_threshold and contact_pose[2] > 0.1450:
        contact_pose := pose_trans(contact_pose, p[0, 0, -contact_probe_step, 0, 0, 0])
        movel(contact_pose, a=0.8, v=0.2000)
    end
    if contact_pose[2] > 0.1450:
        new_pose = pose_trans(tuft_coords, p[0.1686, 0.1529, 0.1450, 0, 0, 0])
        movel(p[new_pose[0], new_pose[1], new_pose[2], current_pose[3], current_pose[4], current_pose[5]], a=0.8, v=0.2000)
    end
    set_digital_out(0, True)
    new_pose = pose_trans(tuft_coords, p[0.1686, 0.3471, 0.1450, 0, 0, 0])
    movel(p[new_pose[0], new_pose[1], new_pose[2], current_pose[3], current_pose[4], current_pose[5]], a=1.2, v=0.0600)
    set_digital_out(0, False)
    new_pose = pose_trans(tuft_coords, p[0.1686, 0.3471, 0.1500, 0, 0, 0])
    movel(p[new_pose[0], new_pose[1], new_pose[2], current_pose[3], current_pose[4], current_pose[5]], a=0.8, v=0.2000)
    new_pose = pose_trans(tuft_coords, p[0.1692, 0.1512, 0.1500, 0, 0, 0])
    movel(p[new_pose[0], new_pose[1], new_pose[2], current_pose[3], current_pose[4], current_pose[5]], a=1.2, v=0.2000)
    local contact_pose_temp = pose_trans(tuft_coords, p[0.1692, 0.1512, 0.1500, 0, 0, 0])
    local contact_pose = p[contact_pose_temp[0], contact_pose_temp[1], contact_pose_temp[2], current_pose[3], current_pose[4], current_pose[5]]
    while norm(get_tcp_force()) < contact_force_threshold and contact_pose[2] > 0.1450:
        contact_pose := pose_trans(contact_pose, p[0, 0, -contact_probe_step, 0, 0, 0])
        movel(contact_pose, a=0.8, v=0.2000)
    end
    if contact_pose[2] > 0.1450:
        new_pose = pose_trans(tuft_coords, p[0.1692, 0.1512, 0.1450, 0, 0, 0])
        movel(p[new_pose[0], new_pose[1], new_pose[2], current_pose[3], current_pose[4], current_pose[5]], a=0.8, v=0.2000)
    end
    set_digital_out(0, True)
    new_pose = pose_trans(tuft_coords, p[0.1692, 0.3488, 0.1450, 0, 0, 0])
    movel(p[new_pose[0], new_pose[1], new_pose[2], current_pose[3], current_pose[4], current_pose[5]], a=1.2, v=0.0600)
    set_digital_out(0, False)
    new_pose = pose_trans(tuft_coords, p[0.1692, 0.3488, 0.1500, 0, 0, 0])
    movel(p[new_pose[0], new_pose[1], new_pose[2], current_pose[3], current_pose[4], current_pose[5]], a=0.8, v=0.2000)
    new_pose = pose_trans(tuft_coords, p[0.1697, 0.1504, 0.1500, 0, 0, 0])
    movel(p[new_pose[0], new_pose[1], new_pose[2], current_pose[3], current_pose[4], current_pose[5]], a=1.2, v=0.2000)
    local contact_pose_temp = pose_trans(tuft_coords, p[0.1697, 0.1504, 0.1500, 0, 0, 0])
    local contact_pose = p[contact_pose_temp[0], contact_pose_temp[1], contact_pose_temp[2], current_pose[3], current_pose[4], current_pose[5]]
    while norm(get_tcp_force()) < contact_force_threshold and contact_pose[2] > 0.1450:
        contact_pose := pose_trans(contact_pose, p[0, 0, -contact_probe_step, 0, 0, 0])
        movel(contact_pose, a=0.8, v=0.2000)
    end
    if contact_pose[2] > 0.1450:
        new_pose = pose_trans(tuft_coords, p[0.1697, 0.1504, 0.1450, 0, 0, 0])
        movel(p[new_pose[0], new_pose[1], new_pose[2], current_pose[3], current_pose[4], current_pose[5]], a=0.8, v=0.2000)
    end
    set_digital_out(0, True)
    new_pose = pose_trans(tuft_coords, p[0.1697, 0.3496, 0.1450, 0, 0, 0])
    movel(p[new_pose[0], new_pose[1], new_pose[2], current_pose[3], current_pose[4], current_pose[5]], a=1.2, v=0.0600)
    set_digital_out(0, False)
    new_pose = pose_trans(tuft_coords, p[0.1697, 0.3496, 0.1500, 0, 0, 0])
    movel(p[new_pose[0], new_pose[1], new_pose[2], current_pose[3], current_pose[4], current_pose[5]], a=0.8, v=0.2000)
    new_pose = pose_trans(tuft_coords, p[0.1703, 0.1496, 0.1500, 0, 0, 0])
    movel(p[new_pose[0], new_pose[1], new_pose[2], current_pose[3], current_pose[4], current_pose[5]], a=1.2, v=0.2000)
    local contact_pose_temp = pose_trans(tuft_coords, p[0.1703, 0.1496, 0.1500, 0, 0, 0])
    local contact_pose = p[contact_pose_temp[0], contact_pose_temp[1], contact_pose_temp[2], current_pose[3], current_pose[4], current_pose[5]]
    while norm(get_tcp_force()) < contact_force_threshold and contact_pose[2] > 0.1450:
        contact_pose := pose_trans(contact_pose, p[0, 0, -contact_probe_step, 0, 0, 0])
        movel(contact_pose, a=0.8, v=0.2000)
    end
    if contact_pose[2] > 0.1450:
        new_pose = pose_trans(tuft_coords, p[0.1703, 0.1496, 0.1450, 0, 0, 0])
        movel(p[new_pose[0], new_pose[1], new_pose[2], current_pose[3], current_pose[4], current_pose[5]], a=0.8, v=0.2000)
    end
    set_digital_out(0, True)
    new_pose = pose_trans(tuft_coords, p[0.1703, 0.3504, 0.1450, 0, 0, 0])
    movel(p[new_pose[0], new_pose[1], new_pose[2], current_pose[3], current_pose[4], current_pose[5]], a=1.2, v=0.0600)
    set_digital_out(0, False)
    new_pose = pose_trans(tuft_coords, p[0.1703, 0.3504, 0.1500, 0, 0, 0])
    movel(p[new_pose[0], new_pose[1], new_pose[2], current_pose[3], current_pose[4], current_pose[5]], a=0.8, v=0.2000)
    new_pose = pose_trans(tuft_coords, p[0.1708, 0.1487, 0.1500, 0, 0, 0])
    movel(p[new_pose[0], new_pose[1], new_pose[2], current_pose[3], current_pose[4], current_pose[5]], a=1.2, v=0.2000)
    local contact_pose_temp = pose_trans(tuft_coords, p[0.1708, 0.1487, 0.1500, 0, 0, 0])
    local contact_pose = p[contact_pose_temp[0], contact_pose_temp[1], contact_pose_temp[2], current_pose[3], current_pose[4], current_pose[5]]
    while norm(get_tcp_force()) < contact_force_threshold and contact_pose[2] > 0.1450:
        contact_pose := pose_trans(contact_pose, p[0, 0, -contact_probe_step, 0, 0, 0])
        movel(contact_pose, a=0.8, v=0.2000)
    end
    if contact_pose[2] > 0.1450:
        new_pose = pose_trans(tuft_coords, p[0.1708, 0.1487, 0.1450, 0, 0, 0])
        movel(p[new_pose[0], new_pose[1], new_pose[2], current_pose[3], current_pose[4], current_pose[5]], a=0.8, v=0.2000)
    end
    set_digital_out(0, True)
    new_pose = pose_trans(tuft_coords, p[0.1708, 0.3513, 0.1450, 0, 0, 0])
    movel(p[new_pose[0], new_pose[1], new_pose[2], current_pose[3], current_pose[4], current_pose[5]], a=1.2, v=0.0600)
    set_digital_out(0, False)
    new_pose = pose_trans(tuft_coords, p[0.1708, 0.3513, 0.1500, 0, 0, 0])
    movel(p[new_pose[0], new_pose[1], new_pose[2], current_pose[3], current_pose[4], current_pose[5]], a=0.8, v=0.2000)
    new_pose = pose_trans(tuft_coords, p[0.1714, 0.1479, 0.1500, 0, 0, 0])
    movel(p[new_pose[0], new_pose[1], new_pose[2], current_pose[3], current_pose[4], current_pose[5]], a=1.2, v=0.2000)
    local contact_pose_temp = pose_trans(tuft_coords, p[0.1714, 0.1479, 0.1500, 0, 0, 0])
    local contact_pose = p[contact_pose_temp[0], contact_pose_temp[1], contact_pose_temp[2], current_pose[3], current_pose[4], current_pose[5]]
    while norm(get_tcp_force()) < contact_force_threshold and contact_pose[2] > 0.1450:
        contact_pose := pose_trans(contact_pose, p[0, 0, -contact_probe_step, 0, 0, 0])
        movel(contact_pose, a=0.8, v=0.2000)
    end
    if contact_pose[2] > 0.1450:
        new_pose = pose_trans(tuft_coords, p[0.1714, 0.1479, 0.1450, 0, 0, 0])
        movel(p[new_pose[0], new_pose[1], new_pose[2], current_pose[3], current_pose[4], current_pose[5]], a=0.8, v=0.2000)
    end
    set_digital_out(0, True)
    new_pose = pose_trans(tuft_coords, p[0.1714, 0.3521, 0.1450, 0, 0, 0])
    movel(p[new_pose[0], new_pose[1], new_pose[2], current_pose[3], current_pose[4], current_pose[5]], a=1.2, v=0.0600)
    set_digital_out(0, False)
    new_pose = pose_trans(tuft_coords, p[0.1714, 0.3521, 0.1500, 0, 0, 0])
    movel(p[new_pose[0], new_pose[1], new_pose[2], current_pose[3], current_pose[4], current_pose[5]], a=0.8, v=0.2000)
    new_pose = pose_trans(tuft_coords, p[0.1719, 0.1462, 0.1500, 0, 0, 0])
    movel(p[new_pose[0], new_pose[1], new_pose[2], current_pose[3], current_pose[4], current_pose[5]], a=1.2, v=0.2000)
    local contact_pose_temp = pose_trans(tuft_coords, p[0.1719, 0.1462, 0.1500, 0, 0, 0])
    local contact_pose = p[contact_pose_temp[0], contact_pose_temp[1], contact_pose_temp[2], current_pose[3], current_pose[4], current_pose[5]]
    while norm(get_tcp_force()) < contact_force_threshold and contact_pose[2] > 0.1450:
        contact_pose := pose_trans(contact_pose, p[0, 0, -contact_probe_step, 0, 0, 0])
        movel(contact_pose, a=0.8, v=0.2000)
    end
    if contact_pose[2] > 0.1450:
        new_pose = pose_trans(tuft_coords, p[0.1719, 0.1462, 0.1450, 0, 0, 0])
        movel(p[new_pose[0], new_pose[1], new_pose[2], current_pose[3], current_pose[4], current_pose[5]], a=0.8, v=0.2000)
    end
    set_digital_out(0, True)
    new_pose = pose_trans(tuft_coords, p[0.1719, 0.3538, 0.1450, 0, 0, 0])
    movel(p[new_pose[0], new_pose[1], new_pose[2], current_pose[3], current_pose[4], current_pose[5]], a=1.2, v=0.0600)
    set_digital_out(0, False)
    new_pose = pose_trans(tuft_coords, p[0.1719, 0.3538, 0.1500, 0, 0, 0])
    movel(p[new_pose[0], new_pose[1], new_pose[2], current_pose[3], current_pose[4], current_pose[5]], a=0.8, v=0.2000)
    new_pose = pose_trans(tuft_coords, p[0.1725, 0.1454, 0.1500, 0, 0, 0])
    movel(p[new_pose[0], new_pose[1], new_pose[2], current_pose[3], current_pose[4], current_pose[5]], a=1.2, v=0.2000)
    local contact_pose_temp = pose_trans(tuft_coords, p[0.1725, 0.1454, 0.1500, 0, 0, 0])
    local contact_pose = p[contact_pose_temp[0], contact_pose_temp[1], contact_pose_temp[2], current_pose[3], current_pose[4], current_pose[5]]
    while norm(get_tcp_force()) < contact_force_threshold and contact_pose[2] > 0.1450:
        contact_pose := pose_trans(contact_pose, p[0, 0, -contact_probe_step, 0, 0, 0])
        movel(contact_pose, a=0.8, v=0.2000)
    end
    if contact_pose[2] > 0.1450:
        new_pose = pose_trans(tuft_coords, p[0.1725, 0.1454, 0.1450, 0, 0, 0])
        movel(p[new_pose[0], new_pose[1], new_pose[2], current_pose[3], current_pose[4], current_pose[5]], a=0.8, v=0.2000)
    end
    set_digital_out(0, True)
    new_pose = pose_trans(tuft_coords, p[0.1725, 0.3546, 0.1450, 0, 0, 0])
    movel(p[new_pose[0], new_pose[1], new_pose[2], current_pose[3], current_pose[4], current_pose[5]], a=1.2, v=0.0600)
    set_digital_out(0, False)
    new_pose = pose_trans(tuft_coords, p[0.1725, 0.3546, 0.1500, 0, 0, 0])
    movel(p[new_pose[0], new_pose[1], new_pose[2], current_pose[3], current_pose[4], current_pose[5]], a=0.8, v=0.2000)
    new_pose = pose_trans(tuft_coords, p[0.1731, 0.1446, 0.1500, 0, 0, 0])
    movel(p[new_pose[0], new_pose[1], new_pose[2], current_pose[3], current_pose[4], current_pose[5]], a=1.2, v=0.2000)
    local contact_pose_temp = pose_trans(tuft_coords, p[0.1731, 0.1446, 0.1500, 0, 0, 0])
    local contact_pose = p[contact_pose_temp[0], contact_pose_temp[1], contact_pose_temp[2], current_pose[3], current_pose[4], current_pose[5]]
    while norm(get_tcp_force()) < contact_force_threshold and contact_pose[2] > 0.1450:
        contact_pose := pose_trans(contact_pose, p[0, 0, -contact_probe_step, 0, 0, 0])
        movel(contact_pose, a=0.8, v=0.2000)
    end
    if contact_pose[2] > 0.1450:
        new_pose = pose_trans(tuft_coords, p[0.1731, 0.1446, 0.1450, 0, 0, 0])
        movel(p[new_pose[0], new_pose[1], new_pose[2], current_pose[3], current_pose[4], current_pose[5]], a=0.8, v=0.2000)
    end
    set_digital_out(0, True)
    new_pose = pose_trans(tuft_coords, p[0.1731, 0.3554, 0.1450, 0, 0, 0])
    movel(p[new_pose[0], new_pose[1], new_pose[2], current_pose[3], current_pose[4], current_pose[5]], a=1.2, v=0.0600)
    set_digital_out(0, False)
    new_pose = pose_trans(tuft_coords, p[0.1731, 0.3554, 0.1500, 0, 0, 0])
    movel(p[new_pose[0], new_pose[1], new_pose[2], current_pose[3], current_pose[4], current_pose[5]], a=0.8, v=0.2000)
    new_pose = pose_trans(tuft_coords, p[0.1736, 0.1437, 0.1500, 0, 0, 0])
    movel(p[new_pose[0], new_pose[1], new_pose[2], current_pose[3], current_pose[4], current_pose[5]], a=1.2, v=0.2000)
    local contact_pose_temp = pose_trans(tuft_coords, p[0.1736, 0.1437, 0.1500, 0, 0, 0])
    local contact_pose = p[contact_pose_temp[0], contact_pose_temp[1], contact_pose_temp[2], current_pose[3], current_pose[4], current_pose[5]]
    while norm(get_tcp_force()) < contact_force_threshold and contact_pose[2] > 0.1450:
        contact_pose := pose_trans(contact_pose, p[0, 0, -contact_probe_step, 0, 0, 0])
        movel(contact_pose, a=0.8, v=0.2000)
    end
    if contact_pose[2] > 0.1450:
        new_pose = pose_trans(tuft_coords, p[0.1736, 0.1437, 0.1450, 0, 0, 0])
        movel(p[new_pose[0], new_pose[1], new_pose[2], current_pose[3], current_pose[4], current_pose[5]], a=0.8, v=0.2000)
    end
    set_digital_out(0, True)
    new_pose = pose_trans(tuft_coords, p[0.1736, 0.3563, 0.1450, 0, 0, 0])
    movel(p[new_pose[0], new_pose[1], new_pose[2], current_pose[3], current_pose[4], current_pose[5]], a=1.2, v=0.0600)
    set_digital_out(0, False)
    new_pose = pose_trans(tuft_coords, p[0.1736, 0.3563, 0.1500, 0, 0, 0])
    movel(p[new_pose[0], new_pose[1], new_pose[2], current_pose[3], current_pose[4], current_pose[5]], a=0.8, v=0.2000)
    new_pose = pose_trans(tuft_coords, p[0.1742, 0.1429, 0.1500, 0, 0, 0])
    movel(p[new_pose[0], new_pose[1], new_pose[2], current_pose[3], current_pose[4], current_pose[5]], a=1.2, v=0.2000)
    local contact_pose_temp = pose_trans(tuft_coords, p[0.1742, 0.1429, 0.1500, 0, 0, 0])
    local contact_pose = p[contact_pose_temp[0], contact_pose_temp[1], contact_pose_temp[2], current_pose[3], current_pose[4], current_pose[5]]
    while norm(get_tcp_force()) < contact_force_threshold and contact_pose[2] > 0.1450:
        contact_pose := pose_trans(contact_pose, p[0, 0, -contact_probe_step, 0, 0, 0])
        movel(contact_pose, a=0.8, v=0.2000)
    end
    if contact_pose[2] > 0.1450:
        new_pose = pose_trans(tuft_coords, p[0.1742, 0.1429, 0.1450, 0, 0, 0])
        movel(p[new_pose[0], new_pose[1], new_pose[2], current_pose[3], current_pose[4], current_pose[5]], a=0.8, v=0.2000)
    end
    set_digital_out(0, True)
    new_pose = pose_trans(tuft_coords, p[0.1742, 0.3571, 0.1450, 0, 0, 0])
    movel(p[new_pose[0], new_pose[1], new_pose[2], current_pose[3], current_pose[4], current_pose[5]], a=1.2, v=0.0600)
    set_digital_out(0, False)
    new_pose = pose_trans(tuft_coords, p[0.1742, 0.3571, 0.1500, 0, 0, 0])
    movel(p[new_pose[0], new_pose[1], new_pose[2], current_pose[3], current_pose[4], current_pose[5]], a=0.8, v=0.2000)
    new_pose = pose_trans(tuft_coords, p[0.1747, 0.1421, 0.1500, 0, 0, 0])
    movel(p[new_pose[0], new_pose[1], new_pose[2], current_pose[3], current_pose[4], current_pose[5]], a=1.2, v=0.2000)
    local contact_pose_temp = pose_trans(tuft_coords, p[0.1747, 0.1421, 0.1500, 0, 0, 0])
    local contact_pose = p[contact_pose_temp[0], contact_pose_temp[1], contact_pose_temp[2], current_pose[3], current_pose[4], current_pose[5]]
    while norm(get_tcp_force()) < contact_force_threshold and contact_pose[2] > 0.1450:
        contact_pose := pose_trans(contact_pose, p[0, 0, -contact_probe_step, 0, 0, 0])
        movel(contact_pose, a=0.8, v=0.2000)
    end
    if contact_pose[2] > 0.1450:
        new_pose = pose_trans(tuft_coords, p[0.1747, 0.1421, 0.1450, 0, 0, 0])
        movel(p[new_pose[0], new_pose[1], new_pose[2], current_pose[3], current_pose[4], current_pose[5]], a=0.8, v=0.2000)
    end
    set_digital_out(0, True)
    new_pose = pose_trans(tuft_coords, p[0.1747, 0.3579, 0.1450, 0, 0, 0])
    movel(p[new_pose[0], new_pose[1], new_pose[2], current_pose[3], current_pose[4], current_pose[5]], a=1.2, v=0.0600)
    set_digital_out(0, False)
    new_pose = pose_trans(tuft_coords, p[0.1747, 0.3579, 0.1500, 0, 0, 0])
    movel(p[new_pose[0], new_pose[1], new_pose[2], current_pose[3], current_pose[4], current_pose[5]], a=0.8, v=0.2000)
    new_pose = pose_trans(tuft_coords, p[0.1753, 0.1412, 0.1500, 0, 0, 0])
    movel(p[new_pose[0], new_pose[1], new_pose[2], current_pose[3], current_pose[4], current_pose[5]], a=1.2, v=0.2000)
    local contact_pose_temp = pose_trans(tuft_coords, p[0.1753, 0.1412, 0.1500, 0, 0, 0])
    local contact_pose = p[contact_pose_temp[0], contact_pose_temp[1], contact_pose_temp[2], current_pose[3], current_pose[4], current_pose[5]]
    while norm(get_tcp_force()) < contact_force_threshold and contact_pose[2] > 0.1450:
        contact_pose := pose_trans(contact_pose, p[0, 0, -contact_probe_step, 0, 0, 0])
        movel(contact_pose, a=0.8, v=0.2000)
    end
    if contact_pose[2] > 0.1450:
        new_pose = pose_trans(tuft_coords, p[0.1753, 0.1412, 0.1450, 0, 0, 0])
        movel(p[new_pose[0], new_pose[1], new_pose[2], current_pose[3], current_pose[4], current_pose[5]], a=0.8, v=0.2000)
    end
    set_digital_out(0, True)
    new_pose = pose_trans(tuft_coords, p[0.1753, 0.3588, 0.1450, 0, 0, 0])
    movel(p[new_pose[0], new_pose[1], new_pose[2], current_pose[3], current_pose[4], current_pose[5]], a=1.2, v=0.0600)
    set_digital_out(0, False)
    new_pose = pose_trans(tuft_coords, p[0.1753, 0.3588, 0.1500, 0, 0, 0])
    movel(p[new_pose[0], new_pose[1], new_pose[2], current_pose[3], current_pose[4], current_pose[5]], a=0.8, v=0.2000)
    new_pose = pose_trans(tuft_coords, p[0.1758, 0.1404, 0.1500, 0, 0, 0])
    movel(p[new_pose[0], new_pose[1], new_pose[2], current_pose[3], current_pose[4], current_pose[5]], a=1.2, v=0.2000)
    local contact_pose_temp = pose_trans(tuft_coords, p[0.1758, 0.1404, 0.1500, 0, 0, 0])
    local contact_pose = p[contact_pose_temp[0], contact_pose_temp[1], contact_pose_temp[2], current_pose[3], current_pose[4], current_pose[5]]
    while norm(get_tcp_force()) < contact_force_threshold and contact_pose[2] > 0.1450:
        contact_pose := pose_trans(contact_pose, p[0, 0, -contact_probe_step, 0, 0, 0])
        movel(contact_pose, a=0.8, v=0.2000)
    end
    if contact_pose[2] > 0.1450:
        new_pose = pose_trans(tuft_coords, p[0.1758, 0.1404, 0.1450, 0, 0, 0])
        movel(p[new_pose[0], new_pose[1], new_pose[2], current_pose[3], current_pose[4], current_pose[5]], a=0.8, v=0.2000)
    end
    set_digital_out(0, True)
    new_pose = pose_trans(tuft_coords, p[0.1758, 0.3596, 0.1450, 0, 0, 0])
    movel(p[new_pose[0], new_pose[1], new_pose[2], current_pose[3], current_pose[4], current_pose[5]], a=1.2, v=0.0600)
    set_digital_out(0, False)
    new_pose = pose_trans(tuft_coords, p[0.1758, 0.3596, 0.1500, 0, 0, 0])
    movel(p[new_pose[0], new_pose[1], new_pose[2], current_pose[3], current_pose[4], current_pose[5]], a=0.8, v=0.2000)
    new_pose = pose_trans(tuft_coords, p[0.1764, 0.1396, 0.1500, 0, 0, 0])
    movel(p[new_pose[0], new_pose[1], new_pose[2], current_pose[3], current_pose[4], current_pose[5]], a=1.2, v=0.2000)
    local contact_pose_temp = pose_trans(tuft_coords, p[0.1764, 0.1396, 0.1500, 0, 0, 0])
    local contact_pose = p[contact_pose_temp[0], contact_pose_temp[1], contact_pose_temp[2], current_pose[3], current_pose[4], current_pose[5]]
    while norm(get_tcp_force()) < contact_force_threshold and contact_pose[2] > 0.1450:
        contact_pose := pose_trans(contact_pose, p[0, 0, -contact_probe_step, 0, 0, 0])
        movel(contact_pose, a=0.8, v=0.2000)
    end
    if contact_pose[2] > 0.1450:
        new_pose = pose_trans(tuft_coords, p[0.1764, 0.1396, 0.1450, 0, 0, 0])
        movel(p[new_pose[0], new_pose[1], new_pose[2], current_pose[3], current_pose[4], current_pose[5]], a=0.8, v=0.2000)
    end
    set_digital_out(0, True)
    new_pose = pose_trans(tuft_coords, p[0.1764, 0.3604, 0.1450, 0, 0, 0])
    movel(p[new_pose[0], new_pose[1], new_pose[2], current_pose[3], current_pose[4], current_pose[5]], a=1.2, v=0.0600)
    set_digital_out(0, False)
    new_pose = pose_trans(tuft_coords, p[0.1764, 0.3604, 0.1500, 0, 0, 0])
    movel(p[new_pose[0], new_pose[1], new_pose[2], current_pose[3], current_pose[4], current_pose[5]], a=0.8, v=0.2000)
    new_pose = pose_trans(tuft_coords, p[0.1769, 0.1388, 0.1500, 0, 0, 0])
    movel(p[new_pose[0], new_pose[1], new_pose[2], current_pose[3], current_pose[4], current_pose[5]], a=1.2, v=0.2000)
    local contact_pose_temp = pose_trans(tuft_coords, p[0.1769, 0.1388, 0.1500, 0, 0, 0])
    local contact_pose = p[contact_pose_temp[0], contact_pose_temp[1], contact_pose_temp[2], current_pose[3], current_pose[4], current_pose[5]]
    while norm(get_tcp_force()) < contact_force_threshold and contact_pose[2] > 0.1450:
        contact_pose := pose_trans(contact_pose, p[0, 0, -contact_probe_step, 0, 0, 0])
        movel(contact_pose, a=0.8, v=0.2000)
    end
    if contact_pose[2] > 0.1450:
        new_pose = pose_trans(tuft_coords, p[0.1769, 0.1388, 0.1450, 0, 0, 0])
        movel(p[new_pose[0], new_pose[1], new_pose[2], current_pose[3], current_pose[4], current_pose[5]], a=0.8, v=0.2000)
    end
    set_digital_out(0, True)
    new_pose = pose_trans(tuft_coords, p[0.1769, 0.3613, 0.1450, 0, 0, 0])
    movel(p[new_pose[0], new_pose[1], new_pose[2], current_pose[3], current_pose[4], current_pose[5]], a=1.2, v=0.0600)
    set_digital_out(0, False)
    new_pose = pose_trans(tuft_coords, p[0.1769, 0.3613, 0.1500, 0, 0, 0])
    movel(p[new_pose[0], new_pose[1], new_pose[2], current_pose[3], current_pose[4], current_pose[5]], a=0.8, v=0.2000)
    new_pose = pose_trans(tuft_coords, p[0.1775, 0.1379, 0.1500, 0, 0, 0])
    movel(p[new_pose[0], new_pose[1], new_pose[2], current_pose[3], current_pose[4], current_pose[5]], a=1.2, v=0.2000)
    local contact_pose_temp = pose_trans(tuft_coords, p[0.1775, 0.1379, 0.1500, 0, 0, 0])
    local contact_pose = p[contact_pose_temp[0], contact_pose_temp[1], contact_pose_temp[2], current_pose[3], current_pose[4], current_pose[5]]
    while norm(get_tcp_force()) < contact_force_threshold and contact_pose[2] > 0.1450:
        contact_pose := pose_trans(contact_pose, p[0, 0, -contact_probe_step, 0, 0, 0])
        movel(contact_pose, a=0.8, v=0.2000)
    end
    if contact_pose[2] > 0.1450:
        new_pose = pose_trans(tuft_coords, p[0.1775, 0.1379, 0.1450, 0, 0, 0])
        movel(p[new_pose[0], new_pose[1], new_pose[2], current_pose[3], current_pose[4], current_pose[5]], a=0.8, v=0.2000)
    end
    set_digital_out(0, True)
    new_pose = pose_trans(tuft_coords, p[0.1775, 0.3621, 0.1450, 0, 0, 0])
    movel(p[new_pose[0], new_pose[1], new_pose[2], current_pose[3], current_pose[4], current_pose[5]], a=1.2, v=0.0600)
    set_digital_out(0, False)
    new_pose = pose_trans(tuft_coords, p[0.1775, 0.3621, 0.1500, 0, 0, 0])
    movel(p[new_pose[0], new_pose[1], new_pose[2], current_pose[3], current_pose[4], current_pose[5]], a=0.8, v=0.2000)
    new_pose = pose_trans(tuft_coords, p[0.1781, 0.1371, 0.1500, 0, 0, 0])
    movel(p[new_pose[0], new_pose[1], new_pose[2], current_pose[3], current_pose[4], current_pose[5]], a=1.2, v=0.2000)
    local contact_pose_temp = pose_trans(tuft_coords, p[0.1781, 0.1371, 0.1500, 0, 0, 0])
    local contact_pose = p[contact_pose_temp[0], contact_pose_temp[1], contact_pose_temp[2], current_pose[3], current_pose[4], current_pose[5]]
    while norm(get_tcp_force()) < contact_force_threshold and contact_pose[2] > 0.1450:
        contact_pose := pose_trans(contact_pose, p[0, 0, -contact_probe_step, 0, 0, 0])
        movel(contact_pose, a=0.8, v=0.2000)
    end
    if contact_pose[2] > 0.1450:
        new_pose = pose_trans(tuft_coords, p[0.1781, 0.1371, 0.1450, 0, 0, 0])
        movel(p[new_pose[0], new_pose[1], new_pose[2], current_pose[3], current_pose[4], current_pose[5]], a=0.8, v=0.2000)
    end
    set_digital_out(0, True)
    new_pose = pose_trans(tuft_coords, p[0.1781, 0.3629, 0.1450, 0, 0, 0])
    movel(p[new_pose[0], new_pose[1], new_pose[2], current_pose[3], current_pose[4], current_pose[5]], a=1.2, v=0.0600)
    set_digital_out(0, False)
    new_pose = pose_trans(tuft_coords, p[0.1781, 0.3629, 0.1500, 0, 0, 0])
    movel(p[new_pose[0], new_pose[1], new_pose[2], current_pose[3], current_pose[4], current_pose[5]], a=0.8, v=0.2000)
    new_pose = pose_trans(tuft_coords, p[0.1786, 0.1363, 0.1500, 0, 0, 0])
    movel(p[new_pose[0], new_pose[1], new_pose[2], current_pose[3], current_pose[4], current_pose[5]], a=1.2, v=0.2000)
    local contact_pose_temp = pose_trans(tuft_coords, p[0.1786, 0.1363, 0.1500, 0, 0, 0])
    local contact_pose = p[contact_pose_temp[0], contact_pose_temp[1], contact_pose_temp[2], current_pose[3], current_pose[4], current_pose[5]]
    while norm(get_tcp_force()) < contact_force_threshold and contact_pose[2] > 0.1450:
        contact_pose := pose_trans(contact_pose, p[0, 0, -contact_probe_step, 0, 0, 0])
        movel(contact_pose, a=0.8, v=0.2000)
    end
    if contact_pose[2] > 0.1450:
        new_pose = pose_trans(tuft_coords, p[0.1786, 0.1363, 0.1450, 0, 0, 0])
        movel(p[new_pose[0], new_pose[1], new_pose[2], current_pose[3], current_pose[4], current_pose[5]], a=0.8, v=0.2000)
    end
    set_digital_out(0, True)
    new_pose = pose_trans(tuft_coords, p[0.1786, 0.3638, 0.1450, 0, 0, 0])
    movel(p[new_pose[0], new_pose[1], new_pose[2], current_pose[3], current_pose[4], current_pose[5]], a=1.2, v=0.0600)
    set_digital_out(0, False)
    new_pose = pose_trans(tuft_coords, p[0.1786, 0.3638, 0.1500, 0, 0, 0])
    movel(p[new_pose[0], new_pose[1], new_pose[2], current_pose[3], current_pose[4], current_pose[5]], a=0.8, v=0.2000)
    new_pose = pose_trans(tuft_coords, p[0.1792, 0.1354, 0.1500, 0, 0, 0])
    movel(p[new_pose[0], new_pose[1], new_pose[2], current_pose[3], current_pose[4], current_pose[5]], a=1.2, v=0.2000)
    local contact_pose_temp = pose_trans(tuft_coords, p[0.1792, 0.1354, 0.1500, 0, 0, 0])
    local contact_pose = p[contact_pose_temp[0], contact_pose_temp[1], contact_pose_temp[2], current_pose[3], current_pose[4], current_pose[5]]
    while norm(get_tcp_force()) < contact_force_threshold and contact_pose[2] > 0.1450:
        contact_pose := pose_trans(contact_pose, p[0, 0, -contact_probe_step, 0, 0, 0])
        movel(contact_pose, a=0.8, v=0.2000)
    end
    if contact_pose[2] > 0.1450:
        new_pose = pose_trans(tuft_coords, p[0.1792, 0.1354, 0.1450, 0, 0, 0])
        movel(p[new_pose[0], new_pose[1], new_pose[2], current_pose[3], current_pose[4], current_pose[5]], a=0.8, v=0.2000)
    end
    set_digital_out(0, True)
    new_pose = pose_trans(tuft_coords, p[0.1792, 0.3646, 0.1450, 0, 0, 0])
    movel(p[new_pose[0], new_pose[1], new_pose[2], current_pose[3], current_pose[4], current_pose[5]], a=1.2, v=0.0600)
    set_digital_out(0, False)
    new_pose = pose_trans(tuft_coords, p[0.1792, 0.3646, 0.1500, 0, 0, 0])
    movel(p[new_pose[0], new_pose[1], new_pose[2], current_pose[3], current_pose[4], current_pose[5]], a=0.8, v=0.2000)
    new_pose = pose_trans(tuft_coords, p[0.1797, 0.1346, 0.1500, 0, 0, 0])
    movel(p[new_pose[0], new_pose[1], new_pose[2], current_pose[3], current_pose[4], current_pose[5]], a=1.2, v=0.2000)
    local contact_pose_temp = pose_trans(tuft_coords, p[0.1797, 0.1346, 0.1500, 0, 0, 0])
    local contact_pose = p[contact_pose_temp[0], contact_pose_temp[1], contact_pose_temp[2], current_pose[3], current_pose[4], current_pose[5]]
    while norm(get_tcp_force()) < contact_force_threshold and contact_pose[2] > 0.1450:
        contact_pose := pose_trans(contact_pose, p[0, 0, -contact_probe_step, 0, 0, 0])
        movel(contact_pose, a=0.8, v=0.2000)
    end
    if contact_pose[2] > 0.1450:
        new_pose = pose_trans(tuft_coords, p[0.1797, 0.1346, 0.1450, 0, 0, 0])
        movel(p[new_pose[0], new_pose[1], new_pose[2], current_pose[3], current_pose[4], current_pose[5]], a=0.8, v=0.2000)
    end
    set_digital_out(0, True)
    new_pose = pose_trans(tuft_coords, p[0.1797, 0.3654, 0.1450, 0, 0, 0])
    movel(p[new_pose[0], new_pose[1], new_pose[2], current_pose[3], current_pose[4], current_pose[5]], a=1.2, v=0.0600)
    set_digital_out(0, False)
    new_pose = pose_trans(tuft_coords, p[0.1797, 0.3654, 0.1500, 0, 0, 0])
    movel(p[new_pose[0], new_pose[1], new_pose[2], current_pose[3], current_pose[4], current_pose[5]], a=0.8, v=0.2000)
    new_pose = pose_trans(tuft_coords, p[0.1803, 0.1338, 0.1500, 0, 0, 0])
    movel(p[new_pose[0], new_pose[1], new_pose[2], current_pose[3], current_pose[4], current_pose[5]], a=1.2, v=0.2000)
    local contact_pose_temp = pose_trans(tuft_coords, p[0.1803, 0.1338, 0.1500, 0, 0, 0])
    local contact_pose = p[contact_pose_temp[0], contact_pose_temp[1], contact_pose_temp[2], current_pose[3], current_pose[4], current_pose[5]]
    while norm(get_tcp_force()) < contact_force_threshold and contact_pose[2] > 0.1450:
        contact_pose := pose_trans(contact_pose, p[0, 0, -contact_probe_step, 0, 0, 0])
        movel(contact_pose, a=0.8, v=0.2000)
    end
    if contact_pose[2] > 0.1450:
        new_pose = pose_trans(tuft_coords, p[0.1803, 0.1338, 0.1450, 0, 0, 0])
        movel(p[new_pose[0], new_pose[1], new_pose[2], current_pose[3], current_pose[4], current_pose[5]], a=0.8, v=0.2000)
    end
    set_digital_out(0, True)
    new_pose = pose_trans(tuft_coords, p[0.1803, 0.3663, 0.1450, 0, 0, 0])
    movel(p[new_pose[0], new_pose[1], new_pose[2], current_pose[3], current_pose[4], current_pose[5]], a=1.2, v=0.0600)
    set_digital_out(0, False)
    new_pose = pose_trans(tuft_coords, p[0.1803, 0.3663, 0.1500, 0, 0, 0])
    movel(p[new_pose[0], new_pose[1], new_pose[2], current_pose[3], current_pose[4], current_pose[5]], a=0.8, v=0.2000)
    new_pose = pose_trans(tuft_coords, p[0.1808, 0.1329, 0.1500, 0, 0, 0])
    movel(p[new_pose[0], new_pose[1], new_pose[2], current_pose[3], current_pose[4], current_pose[5]], a=1.2, v=0.2000)
    local contact_pose_temp = pose_trans(tuft_coords, p[0.1808, 0.1329, 0.1500, 0, 0, 0])
    local contact_pose = p[contact_pose_temp[0], contact_pose_temp[1], contact_pose_temp[2], current_pose[3], current_pose[4], current_pose[5]]
    while norm(get_tcp_force()) < contact_force_threshold and contact_pose[2] > 0.1450:
        contact_pose := pose_trans(contact_pose, p[0, 0, -contact_probe_step, 0, 0, 0])
        movel(contact_pose, a=0.8, v=0.2000)
    end
    if contact_pose[2] > 0.1450:
        new_pose = pose_trans(tuft_coords, p[0.1808, 0.1329, 0.1450, 0, 0, 0])
        movel(p[new_pose[0], new_pose[1], new_pose[2], current_pose[3], current_pose[4], current_pose[5]], a=0.8, v=0.2000)
    end
    set_digital_out(0, True)
    new_pose = pose_trans(tuft_coords, p[0.1808, 0.3671, 0.1450, 0, 0, 0])
    movel(p[new_pose[0], new_pose[1], new_pose[2], current_pose[3], current_pose[4], current_pose[5]], a=1.2, v=0.0600)
    set_digital_out(0, False)
    new_pose = pose_trans(tuft_coords, p[0.1808, 0.3671, 0.1500, 0, 0, 0])
    movel(p[new_pose[0], new_pose[1], new_pose[2], current_pose[3], current_pose[4], current_pose[5]], a=0.8, v=0.2000)
    new_pose = pose_trans(tuft_coords, p[0.1814, 0.1329, 0.1500, 0, 0, 0])
    movel(p[new_pose[0], new_pose[1], new_pose[2], current_pose[3], current_pose[4], current_pose[5]], a=1.2, v=0.2000)
    local contact_pose_temp = pose_trans(tuft_coords, p[0.1814, 0.1329, 0.1500, 0, 0, 0])
    local contact_pose = p[contact_pose_temp[0], contact_pose_temp[1], contact_pose_temp[2], current_pose[3], current_pose[4], current_pose[5]]
    while norm(get_tcp_force()) < contact_force_threshold and contact_pose[2] > 0.1450:
        contact_pose := pose_trans(contact_pose, p[0, 0, -contact_probe_step, 0, 0, 0])
        movel(contact_pose, a=0.8, v=0.2000)
    end
    if contact_pose[2] > 0.1450:
        new_pose = pose_trans(tuft_coords, p[0.1814, 0.1329, 0.1450, 0, 0, 0])
        movel(p[new_pose[0], new_pose[1], new_pose[2], current_pose[3], current_pose[4], current_pose[5]], a=0.8, v=0.2000)
    end
    set_digital_out(0, True)
    new_pose = pose_trans(tuft_coords, p[0.1814, 0.3671, 0.1450, 0, 0, 0])
    movel(p[new_pose[0], new_pose[1], new_pose[2], current_pose[3], current_pose[4], current_pose[5]], a=1.2, v=0.0600)
    set_digital_out(0, False)
    new_pose = pose_trans(tuft_coords, p[0.1814, 0.3671, 0.1500, 0, 0, 0])
    movel(p[new_pose[0], new_pose[1], new_pose[2], current_pose[3], current_pose[4], current_pose[5]], a=0.8, v=0.2000)
    new_pose = pose_trans(tuft_coords, p[0.1819, 0.1321, 0.1500, 0, 0, 0])
    movel(p[new_pose[0], new_pose[1], new_pose[2], current_pose[3], current_pose[4], current_pose[5]], a=1.2, v=0.2000)
    local contact_pose_temp = pose_trans(tuft_coords, p[0.1819, 0.1321, 0.1500, 0, 0, 0])
    local contact_pose = p[contact_pose_temp[0], contact_pose_temp[1], contact_pose_temp[2], current_pose[3], current_pose[4], current_pose[5]]
    while norm(get_tcp_force()) < contact_force_threshold and contact_pose[2] > 0.1450:
        contact_pose := pose_trans(contact_pose, p[0, 0, -contact_probe_step, 0, 0, 0])
        movel(contact_pose, a=0.8, v=0.2000)
    end
    if contact_pose[2] > 0.1450:
        new_pose = pose_trans(tuft_coords, p[0.1819, 0.1321, 0.1450, 0, 0, 0])
        movel(p[new_pose[0], new_pose[1], new_pose[2], current_pose[3], current_pose[4], current_pose[5]], a=0.8, v=0.2000)
    end
    set_digital_out(0, True)
    new_pose = pose_trans(tuft_coords, p[0.1819, 0.3679, 0.1450, 0, 0, 0])
    movel(p[new_pose[0], new_pose[1], new_pose[2], current_pose[3], current_pose[4], current_pose[5]], a=1.2, v=0.0600)
    set_digital_out(0, False)
    new_pose = pose_trans(tuft_coords, p[0.1819, 0.3679, 0.1500, 0, 0, 0])
    movel(p[new_pose[0], new_pose[1], new_pose[2], current_pose[3], current_pose[4], current_pose[5]], a=0.8, v=0.2000)
    new_pose = pose_trans(tuft_coords, p[0.1825, 0.1313, 0.1500, 0, 0, 0])
    movel(p[new_pose[0], new_pose[1], new_pose[2], current_pose[3], current_pose[4], current_pose[5]], a=1.2, v=0.2000)
    local contact_pose_temp = pose_trans(tuft_coords, p[0.1825, 0.1313, 0.1500, 0, 0, 0])
    local contact_pose = p[contact_pose_temp[0], contact_pose_temp[1], contact_pose_temp[2], current_pose[3], current_pose[4], current_pose[5]]
    while norm(get_tcp_force()) < contact_force_threshold and contact_pose[2] > 0.1450:
        contact_pose := pose_trans(contact_pose, p[0, 0, -contact_probe_step, 0, 0, 0])
        movel(contact_pose, a=0.8, v=0.2000)
    end
    if contact_pose[2] > 0.1450:
        new_pose = pose_trans(tuft_coords, p[0.1825, 0.1313, 0.1450, 0, 0, 0])
        movel(p[new_pose[0], new_pose[1], new_pose[2], current_pose[3], current_pose[4], current_pose[5]], a=0.8, v=0.2000)
    end
    set_digital_out(0, True)
    new_pose = pose_trans(tuft_coords, p[0.1825, 0.3688, 0.1450, 0, 0, 0])
    movel(p[new_pose[0], new_pose[1], new_pose[2], current_pose[3], current_pose[4], current_pose[5]], a=1.2, v=0.0600)
    set_digital_out(0, False)
    new_pose = pose_trans(tuft_coords, p[0.1825, 0.3688, 0.1500, 0, 0, 0])
    movel(p[new_pose[0], new_pose[1], new_pose[2], current_pose[3], current_pose[4], current_pose[5]], a=0.8, v=0.2000)
    new_pose = pose_trans(tuft_coords, p[0.1831, 0.1304, 0.1500, 0, 0, 0])
    movel(p[new_pose[0], new_pose[1], new_pose[2], current_pose[3], current_pose[4], current_pose[5]], a=1.2, v=0.2000)
    local contact_pose_temp = pose_trans(tuft_coords, p[0.1831, 0.1304, 0.1500, 0, 0, 0])
    local contact_pose = p[contact_pose_temp[0], contact_pose_temp[1], contact_pose_temp[2], current_pose[3], current_pose[4], current_pose[5]]
    while norm(get_tcp_force()) < contact_force_threshold and contact_pose[2] > 0.1450:
        contact_pose := pose_trans(contact_pose, p[0, 0, -contact_probe_step, 0, 0, 0])
        movel(contact_pose, a=0.8, v=0.2000)
    end
    if contact_pose[2] > 0.1450:
        new_pose = pose_trans(tuft_coords, p[0.1831, 0.1304, 0.1450, 0, 0, 0])
        movel(p[new_pose[0], new_pose[1], new_pose[2], current_pose[3], current_pose[4], current_pose[5]], a=0.8, v=0.2000)
    end
    set_digital_out(0, True)
    new_pose = pose_trans(tuft_coords, p[0.1831, 0.3696, 0.1450, 0, 0, 0])
    movel(p[new_pose[0], new_pose[1], new_pose[2], current_pose[3], current_pose[4], current_pose[5]], a=1.2, v=0.0600)
    set_digital_out(0, False)
    new_pose = pose_trans(tuft_coords, p[0.1831, 0.3696, 0.1500, 0, 0, 0])
    movel(p[new_pose[0], new_pose[1], new_pose[2], current_pose[3], current_pose[4], current_pose[5]], a=0.8, v=0.2000)
    new_pose = pose_trans(tuft_coords, p[0.1836, 0.1296, 0.1500, 0, 0, 0])
    movel(p[new_pose[0], new_pose[1], new_pose[2], current_pose[3], current_pose[4], current_pose[5]], a=1.2, v=0.2000)
    local contact_pose_temp = pose_trans(tuft_coords, p[0.1836, 0.1296, 0.1500, 0, 0, 0])
    local contact_pose = p[contact_pose_temp[0], contact_pose_temp[1], contact_pose_temp[2], current_pose[3], current_pose[4], current_pose[5]]
    while norm(get_tcp_force()) < contact_force_threshold and contact_pose[2] > 0.1450:
        contact_pose := pose_trans(contact_pose, p[0, 0, -contact_probe_step, 0, 0, 0])
        movel(contact_pose, a=0.8, v=0.2000)
    end
    if contact_pose[2] > 0.1450:
        new_pose = pose_trans(tuft_coords, p[0.1836, 0.1296, 0.1450, 0, 0, 0])
        movel(p[new_pose[0], new_pose[1], new_pose[2], current_pose[3], current_pose[4], current_pose[5]], a=0.8, v=0.2000)
    end
    set_digital_out(0, True)
    new_pose = pose_trans(tuft_coords, p[0.1836, 0.3704, 0.1450, 0, 0, 0])
    movel(p[new_pose[0], new_pose[1], new_pose[2], current_pose[3], current_pose[4], current_pose[5]], a=1.2, v=0.0600)
    set_digital_out(0, False)
    new_pose = pose_trans(tuft_coords, p[0.1836, 0.3704, 0.1500, 0, 0, 0])
    movel(p[new_pose[0], new_pose[1], new_pose[2], current_pose[3], current_pose[4], current_pose[5]], a=0.8, v=0.2000)
    new_pose = pose_trans(tuft_coords, p[0.1842, 0.1288, 0.1500, 0, 0, 0])
    movel(p[new_pose[0], new_pose[1], new_pose[2], current_pose[3], current_pose[4], current_pose[5]], a=1.2, v=0.2000)
    local contact_pose_temp = pose_trans(tuft_coords, p[0.1842, 0.1288, 0.1500, 0, 0, 0])
    local contact_pose = p[contact_pose_temp[0], contact_pose_temp[1], contact_pose_temp[2], current_pose[3], current_pose[4], current_pose[5]]
    while norm(get_tcp_force()) < contact_force_threshold and contact_pose[2] > 0.1450:
        contact_pose := pose_trans(contact_pose, p[0, 0, -contact_probe_step, 0, 0, 0])
        movel(contact_pose, a=0.8, v=0.2000)
    end
    if contact_pose[2] > 0.1450:
        new_pose = pose_trans(tuft_coords, p[0.1842, 0.1288, 0.1450, 0, 0, 0])
        movel(p[new_pose[0], new_pose[1], new_pose[2], current_pose[3], current_pose[4], current_pose[5]], a=0.8, v=0.2000)
    end
    set_digital_out(0, True)
    new_pose = pose_trans(tuft_coords, p[0.1842, 0.3713, 0.1450, 0, 0, 0])
    movel(p[new_pose[0], new_pose[1], new_pose[2], current_pose[3], current_pose[4], current_pose[5]], a=1.2, v=0.0600)
    set_digital_out(0, False)
    new_pose = pose_trans(tuft_coords, p[0.1842, 0.3713, 0.1500, 0, 0, 0])
    movel(p[new_pose[0], new_pose[1], new_pose[2], current_pose[3], current_pose[4], current_pose[5]], a=0.8, v=0.2000)
    new_pose = pose_trans(tuft_coords, p[0.1847, 0.1279, 0.1500, 0, 0, 0])
    movel(p[new_pose[0], new_pose[1], new_pose[2], current_pose[3], current_pose[4], current_pose[5]], a=1.2, v=0.2000)
    local contact_pose_temp = pose_trans(tuft_coords, p[0.1847, 0.1279, 0.1500, 0, 0, 0])
    local contact_pose = p[contact_pose_temp[0], contact_pose_temp[1], contact_pose_temp[2], current_pose[3], current_pose[4], current_pose[5]]
    while norm(get_tcp_force()) < contact_force_threshold and contact_pose[2] > 0.1450:
        contact_pose := pose_trans(contact_pose, p[0, 0, -contact_probe_step, 0, 0, 0])
        movel(contact_pose, a=0.8, v=0.2000)
    end
    if contact_pose[2] > 0.1450:
        new_pose = pose_trans(tuft_coords, p[0.1847, 0.1279, 0.1450, 0, 0, 0])
        movel(p[new_pose[0], new_pose[1], new_pose[2], current_pose[3], current_pose[4], current_pose[5]], a=0.8, v=0.2000)
    end
    set_digital_out(0, True)
    new_pose = pose_trans(tuft_coords, p[0.1847, 0.3721, 0.1450, 0, 0, 0])
    movel(p[new_pose[0], new_pose[1], new_pose[2], current_pose[3], current_pose[4], current_pose[5]], a=1.2, v=0.0600)
    set_digital_out(0, False)
    new_pose = pose_trans(tuft_coords, p[0.1847, 0.3721, 0.1500, 0, 0, 0])
    movel(p[new_pose[0], new_pose[1], new_pose[2], current_pose[3], current_pose[4], current_pose[5]], a=0.8, v=0.2000)
    new_pose = pose_trans(tuft_coords, p[0.1853, 0.1279, 0.1500, 0, 0, 0])
    movel(p[new_pose[0], new_pose[1], new_pose[2], current_pose[3], current_pose[4], current_pose[5]], a=1.2, v=0.2000)
    local contact_pose_temp = pose_trans(tuft_coords, p[0.1853, 0.1279, 0.1500, 0, 0, 0])
    local contact_pose = p[contact_pose_temp[0], contact_pose_temp[1], contact_pose_temp[2], current_pose[3], current_pose[4], current_pose[5]]
    while norm(get_tcp_force()) < contact_force_threshold and contact_pose[2] > 0.1450:
        contact_pose := pose_trans(contact_pose, p[0, 0, -contact_probe_step, 0, 0, 0])
        movel(contact_pose, a=0.8, v=0.2000)
    end
    if contact_pose[2] > 0.1450:
        new_pose = pose_trans(tuft_coords, p[0.1853, 0.1279, 0.1450, 0, 0, 0])
        movel(p[new_pose[0], new_pose[1], new_pose[2], current_pose[3], current_pose[4], current_pose[5]], a=0.8, v=0.2000)
    end
    set_digital_out(0, True)
    new_pose = pose_trans(tuft_coords, p[0.1853, 0.3721, 0.1450, 0, 0, 0])
    movel(p[new_pose[0], new_pose[1], new_pose[2], current_pose[3], current_pose[4], current_pose[5]], a=1.2, v=0.0600)
    set_digital_out(0, False)
    new_pose = pose_trans(tuft_coords, p[0.1853, 0.3721, 0.1500, 0, 0, 0])
    movel(p[new_pose[0], new_pose[1], new_pose[2], current_pose[3], current_pose[4], current_pose[5]], a=0.8, v=0.2000)
    new_pose = pose_trans(tuft_coords, p[0.1858, 0.1271, 0.1500, 0, 0, 0])
    movel(p[new_pose[0], new_pose[1], new_pose[2], current_pose[3], current_pose[4], current_pose[5]], a=1.2, v=0.2000)
    local contact_pose_temp = pose_trans(tuft_coords, p[0.1858, 0.1271, 0.1500, 0, 0, 0])
    local contact_pose = p[contact_pose_temp[0], contact_pose_temp[1], contact_pose_temp[2], current_pose[3], current_pose[4], current_pose[5]]
    while norm(get_tcp_force()) < contact_force_threshold and contact_pose[2] > 0.1450:
        contact_pose := pose_trans(contact_pose, p[0, 0, -contact_probe_step, 0, 0, 0])
        movel(contact_pose, a=0.8, v=0.2000)
    end
    if contact_pose[2] > 0.1450:
        new_pose = pose_trans(tuft_coords, p[0.1858, 0.1271, 0.1450, 0, 0, 0])
        movel(p[new_pose[0], new_pose[1], new_pose[2], current_pose[3], current_pose[4], current_pose[5]], a=0.8, v=0.2000)
    end
    set_digital_out(0, True)
    new_pose = pose_trans(tuft_coords, p[0.1858, 0.3729, 0.1450, 0, 0, 0])
    movel(p[new_pose[0], new_pose[1], new_pose[2], current_pose[3], current_pose[4], current_pose[5]], a=1.2, v=0.0600)
    set_digital_out(0, False)
    new_pose = pose_trans(tuft_coords, p[0.1858, 0.3729, 0.1500, 0, 0, 0])
    movel(p[new_pose[0], new_pose[1], new_pose[2], current_pose[3], current_pose[4], current_pose[5]], a=0.8, v=0.2000)
    new_pose = pose_trans(tuft_coords, p[0.1864, 0.1263, 0.1500, 0, 0, 0])
    movel(p[new_pose[0], new_pose[1], new_pose[2], current_pose[3], current_pose[4], current_pose[5]], a=1.2, v=0.2000)
    local contact_pose_temp = pose_trans(tuft_coords, p[0.1864, 0.1263, 0.1500, 0, 0, 0])
    local contact_pose = p[contact_pose_temp[0], contact_pose_temp[1], contact_pose_temp[2], current_pose[3], current_pose[4], current_pose[5]]
    while norm(get_tcp_force()) < contact_force_threshold and contact_pose[2] > 0.1450:
        contact_pose := pose_trans(contact_pose, p[0, 0, -contact_probe_step, 0, 0, 0])
        movel(contact_pose, a=0.8, v=0.2000)
    end
    if contact_pose[2] > 0.1450:
        new_pose = pose_trans(tuft_coords, p[0.1864, 0.1263, 0.1450, 0, 0, 0])
        movel(p[new_pose[0], new_pose[1], new_pose[2], current_pose[3], current_pose[4], current_pose[5]], a=0.8, v=0.2000)
    end
    set_digital_out(0, True)
