def tuft_program():
    global tuft_coords = p[-0.743799, 1.270828, -0.183331, 1.574839, 0.004352, -0.002073]
    global current_pose = p[0,0,0,-1.19353,1.19941,1.24224]
    textmsg("Starting tufting job test-1.jpg")
    textmsg("Using coordinate frame tuft_coords")
    set_digital_out(0, False)
    global travel_speed = 0.2000
    global tuft_speed = 0.0600
    global contact_force_threshold = 15.00
    global contact_probe_step = 0.0010
    global progress_host = "127.0.0.1"
    global progress_port = 4700
    global progress_total = 2256
    global progress_current = 0
    global progress_job_id = "8309ac7e-560b-48a0-9cdc-a09455ee7f72"
    global open=socket_open(progress_host,progress_port)
    while (open ==  False  ):
        global open=socket_open(progress_host,progress_port)
    end
    def report_progress():
        progress_current = progress_current + 1
        global sendToServer="{jobId:" + progress_job_id + ",current:" + to_str(progress_current) + ",total:" + to_str(progress_total) + "}
"
        socket_send_string(sendToServer)
    end
    new_pose = pose_trans(tuft_coords, p[0.3854, 0.5052, 0.1500, 0, 0, 0])
    movel(p[new_pose[0], new_pose[1], new_pose[2], current_pose[3], current_pose[4], current_pose[5]], a=1.2, v=0.2000)
    report_progress()
    new_pose = pose_trans(tuft_coords, p[0.3854, 0.5052, -0.0020, 0, 0, 0])
    movel(p[new_pose[0], new_pose[1], new_pose[2], current_pose[3], current_pose[4], current_pose[5]], a=0.8, v=0.2000)
    report_progress()
    set_digital_out(0, True)
    report_progress()
    new_pose = pose_trans(tuft_coords, p[0.3854, 0.5448, -0.0020, 0, 0, 0])
    movel(p[new_pose[0], new_pose[1], new_pose[2], current_pose[3], current_pose[4], current_pose[5]], a=1.2, v=0.0600)
    report_progress()
    set_digital_out(0, False)
    report_progress()
    new_pose = pose_trans(tuft_coords, p[0.3854, 0.5448, 0.1500, 0, 0, 0])
    movel(p[new_pose[0], new_pose[1], new_pose[2], current_pose[3], current_pose[4], current_pose[5]], a=0.8, v=0.2000)
    report_progress()
    new_pose = pose_trans(tuft_coords, p[0.3874, 0.4815, 0.1500, 0, 0, 0])
    movel(p[new_pose[0], new_pose[1], new_pose[2], current_pose[3], current_pose[4], current_pose[5]], a=1.2, v=0.2000)
    report_progress()
    new_pose = pose_trans(tuft_coords, p[0.3874, 0.4815, -0.0020, 0, 0, 0])
    movel(p[new_pose[0], new_pose[1], new_pose[2], current_pose[3], current_pose[4], current_pose[5]], a=0.8, v=0.2000)
    report_progress()
    set_digital_out(0, True)
    report_progress()
    new_pose = pose_trans(tuft_coords, p[0.3874, 0.5685, -0.0020, 0, 0, 0])
    movel(p[new_pose[0], new_pose[1], new_pose[2], current_pose[3], current_pose[4], current_pose[5]], a=1.2, v=0.0600)
    report_progress()
    set_digital_out(0, False)
    report_progress()
    new_pose = pose_trans(tuft_coords, p[0.3874, 0.5685, 0.1500, 0, 0, 0])
    movel(p[new_pose[0], new_pose[1], new_pose[2], current_pose[3], current_pose[4], current_pose[5]], a=0.8, v=0.2000)
    report_progress()
    new_pose = pose_trans(tuft_coords, p[0.3893, 0.4676, 0.1500, 0, 0, 0])
    movel(p[new_pose[0], new_pose[1], new_pose[2], current_pose[3], current_pose[4], current_pose[5]], a=1.2, v=0.2000)
    report_progress()
    new_pose = pose_trans(tuft_coords, p[0.3893, 0.4676, -0.0020, 0, 0, 0])
    movel(p[new_pose[0], new_pose[1], new_pose[2], current_pose[3], current_pose[4], current_pose[5]], a=0.8, v=0.2000)
    report_progress()
    set_digital_out(0, True)
    report_progress()
    new_pose = pose_trans(tuft_coords, p[0.3893, 0.5824, -0.0020, 0, 0, 0])
    movel(p[new_pose[0], new_pose[1], new_pose[2], current_pose[3], current_pose[4], current_pose[5]], a=1.2, v=0.0600)
    report_progress()
    set_digital_out(0, False)
    report_progress()
    new_pose = pose_trans(tuft_coords, p[0.3893, 0.5824, 0.1500, 0, 0, 0])
    movel(p[new_pose[0], new_pose[1], new_pose[2], current_pose[3], current_pose[4], current_pose[5]], a=0.8, v=0.2000)
    report_progress()
    new_pose = pose_trans(tuft_coords, p[0.3912, 0.4557, 0.1500, 0, 0, 0])
    movel(p[new_pose[0], new_pose[1], new_pose[2], current_pose[3], current_pose[4], current_pose[5]], a=1.2, v=0.2000)
    report_progress()
    new_pose = pose_trans(tuft_coords, p[0.3912, 0.4557, -0.0020, 0, 0, 0])
    movel(p[new_pose[0], new_pose[1], new_pose[2], current_pose[3], current_pose[4], current_pose[5]], a=0.8, v=0.2000)
    report_progress()
    set_digital_out(0, True)
    report_progress()
    new_pose = pose_trans(tuft_coords, p[0.3912, 0.5943, -0.0020, 0, 0, 0])
    movel(p[new_pose[0], new_pose[1], new_pose[2], current_pose[3], current_pose[4], current_pose[5]], a=1.2, v=0.0600)
    report_progress()
    set_digital_out(0, False)
    report_progress()
    new_pose = pose_trans(tuft_coords, p[0.3912, 0.5943, 0.1500, 0, 0, 0])
    movel(p[new_pose[0], new_pose[1], new_pose[2], current_pose[3], current_pose[4], current_pose[5]], a=0.8, v=0.2000)
    report_progress()
    new_pose = pose_trans(tuft_coords, p[0.3932, 0.4458, 0.1500, 0, 0, 0])
    movel(p[new_pose[0], new_pose[1], new_pose[2], current_pose[3], current_pose[4], current_pose[5]], a=1.2, v=0.2000)
    report_progress()
    new_pose = pose_trans(tuft_coords, p[0.3932, 0.4458, -0.0020, 0, 0, 0])
    movel(p[new_pose[0], new_pose[1], new_pose[2], current_pose[3], current_pose[4], current_pose[5]], a=0.8, v=0.2000)
    report_progress()
    set_digital_out(0, True)
    report_progress()
    new_pose = pose_trans(tuft_coords, p[0.3932, 0.6042, -0.0020, 0, 0, 0])
    movel(p[new_pose[0], new_pose[1], new_pose[2], current_pose[3], current_pose[4], current_pose[5]], a=1.2, v=0.0600)
    report_progress()
    set_digital_out(0, False)
    report_progress()
    new_pose = pose_trans(tuft_coords, p[0.3932, 0.6042, 0.1500, 0, 0, 0])
    movel(p[new_pose[0], new_pose[1], new_pose[2], current_pose[3], current_pose[4], current_pose[5]], a=0.8, v=0.2000)
    report_progress()
    new_pose = pose_trans(tuft_coords, p[0.3951, 0.4379, 0.1500, 0, 0, 0])
    movel(p[new_pose[0], new_pose[1], new_pose[2], current_pose[3], current_pose[4], current_pose[5]], a=1.2, v=0.2000)
    report_progress()
    new_pose = pose_trans(tuft_coords, p[0.3951, 0.4379, -0.0020, 0, 0, 0])
    movel(p[new_pose[0], new_pose[1], new_pose[2], current_pose[3], current_pose[4], current_pose[5]], a=0.8, v=0.2000)
    report_progress()
    set_digital_out(0, True)
    report_progress()
    new_pose = pose_trans(tuft_coords, p[0.3951, 0.6121, -0.0020, 0, 0, 0])
    movel(p[new_pose[0], new_pose[1], new_pose[2], current_pose[3], current_pose[4], current_pose[5]], a=1.2, v=0.0600)
    report_progress()
    set_digital_out(0, False)
    report_progress()
    new_pose = pose_trans(tuft_coords, p[0.3951, 0.6121, 0.1500, 0, 0, 0])
    movel(p[new_pose[0], new_pose[1], new_pose[2], current_pose[3], current_pose[4], current_pose[5]], a=0.8, v=0.2000)
    report_progress()
    new_pose = pose_trans(tuft_coords, p[0.3971, 0.4300, 0.1500, 0, 0, 0])
    movel(p[new_pose[0], new_pose[1], new_pose[2], current_pose[3], current_pose[4], current_pose[5]], a=1.2, v=0.2000)
    report_progress()
    new_pose = pose_trans(tuft_coords, p[0.3971, 0.4300, -0.0020, 0, 0, 0])
    movel(p[new_pose[0], new_pose[1], new_pose[2], current_pose[3], current_pose[4], current_pose[5]], a=0.8, v=0.2000)
    report_progress()
    set_digital_out(0, True)
    report_progress()
    new_pose = pose_trans(tuft_coords, p[0.3971, 0.6200, -0.0020, 0, 0, 0])
    movel(p[new_pose[0], new_pose[1], new_pose[2], current_pose[3], current_pose[4], current_pose[5]], a=1.2, v=0.0600)
    report_progress()
    set_digital_out(0, False)
    report_progress()
    new_pose = pose_trans(tuft_coords, p[0.3971, 0.6200, 0.1500, 0, 0, 0])
    movel(p[new_pose[0], new_pose[1], new_pose[2], current_pose[3], current_pose[4], current_pose[5]], a=0.8, v=0.2000)
    report_progress()
    new_pose = pose_trans(tuft_coords, p[0.3990, 0.4221, 0.1500, 0, 0, 0])
    movel(p[new_pose[0], new_pose[1], new_pose[2], current_pose[3], current_pose[4], current_pose[5]], a=1.2, v=0.2000)
    report_progress()
    new_pose = pose_trans(tuft_coords, p[0.3990, 0.4221, -0.0020, 0, 0, 0])
    movel(p[new_pose[0], new_pose[1], new_pose[2], current_pose[3], current_pose[4], current_pose[5]], a=0.8, v=0.2000)
    report_progress()
    set_digital_out(0, True)
    report_progress()
    new_pose = pose_trans(tuft_coords, p[0.3990, 0.6279, -0.0020, 0, 0, 0])
    movel(p[new_pose[0], new_pose[1], new_pose[2], current_pose[3], current_pose[4], current_pose[5]], a=1.2, v=0.0600)
    report_progress()
    set_digital_out(0, False)
    report_progress()
    new_pose = pose_trans(tuft_coords, p[0.3990, 0.6279, 0.1500, 0, 0, 0])
    movel(p[new_pose[0], new_pose[1], new_pose[2], current_pose[3], current_pose[4], current_pose[5]], a=0.8, v=0.2000)
    report_progress()
    new_pose = pose_trans(tuft_coords, p[0.4010, 0.4161, 0.1500, 0, 0, 0])
    movel(p[new_pose[0], new_pose[1], new_pose[2], current_pose[3], current_pose[4], current_pose[5]], a=1.2, v=0.2000)
    report_progress()
    new_pose = pose_trans(tuft_coords, p[0.4010, 0.4161, -0.0020, 0, 0, 0])
    movel(p[new_pose[0], new_pose[1], new_pose[2], current_pose[3], current_pose[4], current_pose[5]], a=0.8, v=0.2000)
    report_progress()
    set_digital_out(0, True)
    report_progress()
    new_pose = pose_trans(tuft_coords, p[0.4010, 0.6339, -0.0020, 0, 0, 0])
    movel(p[new_pose[0], new_pose[1], new_pose[2], current_pose[3], current_pose[4], current_pose[5]], a=1.2, v=0.0600)
    report_progress()
    set_digital_out(0, False)
    report_progress()
    new_pose = pose_trans(tuft_coords, p[0.4010, 0.6339, 0.1500, 0, 0, 0])
    movel(p[new_pose[0], new_pose[1], new_pose[2], current_pose[3], current_pose[4], current_pose[5]], a=0.8, v=0.2000)
    report_progress()
    new_pose = pose_trans(tuft_coords, p[0.4029, 0.4102, 0.1500, 0, 0, 0])
    movel(p[new_pose[0], new_pose[1], new_pose[2], current_pose[3], current_pose[4], current_pose[5]], a=1.2, v=0.2000)
    report_progress()
    new_pose = pose_trans(tuft_coords, p[0.4029, 0.4102, -0.0020, 0, 0, 0])
    movel(p[new_pose[0], new_pose[1], new_pose[2], current_pose[3], current_pose[4], current_pose[5]], a=0.8, v=0.2000)
    report_progress()
    set_digital_out(0, True)
    report_progress()
    new_pose = pose_trans(tuft_coords, p[0.4029, 0.6398, -0.0020, 0, 0, 0])
    movel(p[new_pose[0], new_pose[1], new_pose[2], current_pose[3], current_pose[4], current_pose[5]], a=1.2, v=0.0600)
    report_progress()
    set_digital_out(0, False)
    report_progress()
    new_pose = pose_trans(tuft_coords, p[0.4029, 0.6398, 0.1500, 0, 0, 0])
    movel(p[new_pose[0], new_pose[1], new_pose[2], current_pose[3], current_pose[4], current_pose[5]], a=0.8, v=0.2000)
    report_progress()
    new_pose = pose_trans(tuft_coords, p[0.4049, 0.4043, 0.1500, 0, 0, 0])
    movel(p[new_pose[0], new_pose[1], new_pose[2], current_pose[3], current_pose[4], current_pose[5]], a=1.2, v=0.2000)
    report_progress()
    new_pose = pose_trans(tuft_coords, p[0.4049, 0.4043, -0.0020, 0, 0, 0])
    movel(p[new_pose[0], new_pose[1], new_pose[2], current_pose[3], current_pose[4], current_pose[5]], a=0.8, v=0.2000)
    report_progress()
    set_digital_out(0, True)
    report_progress()
    new_pose = pose_trans(tuft_coords, p[0.4049, 0.6457, -0.0020, 0, 0, 0])
    movel(p[new_pose[0], new_pose[1], new_pose[2], current_pose[3], current_pose[4], current_pose[5]], a=1.2, v=0.0600)
    report_progress()
    set_digital_out(0, False)
    report_progress()
    new_pose = pose_trans(tuft_coords, p[0.4049, 0.6457, 0.1500, 0, 0, 0])
    movel(p[new_pose[0], new_pose[1], new_pose[2], current_pose[3], current_pose[4], current_pose[5]], a=0.8, v=0.2000)
    report_progress()
    new_pose = pose_trans(tuft_coords, p[0.4068, 0.3983, 0.1500, 0, 0, 0])
    movel(p[new_pose[0], new_pose[1], new_pose[2], current_pose[3], current_pose[4], current_pose[5]], a=1.2, v=0.2000)
    report_progress()
    new_pose = pose_trans(tuft_coords, p[0.4068, 0.3983, -0.0020, 0, 0, 0])
    movel(p[new_pose[0], new_pose[1], new_pose[2], current_pose[3], current_pose[4], current_pose[5]], a=0.8, v=0.2000)
    report_progress()
    set_digital_out(0, True)
    report_progress()
    new_pose = pose_trans(tuft_coords, p[0.4068, 0.6517, -0.0020, 0, 0, 0])
    movel(p[new_pose[0], new_pose[1], new_pose[2], current_pose[3], current_pose[4], current_pose[5]], a=1.2, v=0.0600)
    report_progress()
    set_digital_out(0, False)
    report_progress()
    new_pose = pose_trans(tuft_coords, p[0.4068, 0.6517, 0.1500, 0, 0, 0])
    movel(p[new_pose[0], new_pose[1], new_pose[2], current_pose[3], current_pose[4], current_pose[5]], a=0.8, v=0.2000)
    report_progress()
    new_pose = pose_trans(tuft_coords, p[0.4088, 0.3924, 0.1500, 0, 0, 0])
    movel(p[new_pose[0], new_pose[1], new_pose[2], current_pose[3], current_pose[4], current_pose[5]], a=1.2, v=0.2000)
    report_progress()
    new_pose = pose_trans(tuft_coords, p[0.4088, 0.3924, -0.0020, 0, 0, 0])
    movel(p[new_pose[0], new_pose[1], new_pose[2], current_pose[3], current_pose[4], current_pose[5]], a=0.8, v=0.2000)
    report_progress()
    set_digital_out(0, True)
    report_progress()
    new_pose = pose_trans(tuft_coords, p[0.4088, 0.6576, -0.0020, 0, 0, 0])
    movel(p[new_pose[0], new_pose[1], new_pose[2], current_pose[3], current_pose[4], current_pose[5]], a=1.2, v=0.0600)
    report_progress()
    set_digital_out(0, False)
    report_progress()
    new_pose = pose_trans(tuft_coords, p[0.4088, 0.6576, 0.1500, 0, 0, 0])
    movel(p[new_pose[0], new_pose[1], new_pose[2], current_pose[3], current_pose[4], current_pose[5]], a=0.8, v=0.2000)
    report_progress()
    new_pose = pose_trans(tuft_coords, p[0.4107, 0.3865, 0.1500, 0, 0, 0])
    movel(p[new_pose[0], new_pose[1], new_pose[2], current_pose[3], current_pose[4], current_pose[5]], a=1.2, v=0.2000)
    report_progress()
    new_pose = pose_trans(tuft_coords, p[0.4107, 0.3865, -0.0020, 0, 0, 0])
    movel(p[new_pose[0], new_pose[1], new_pose[2], current_pose[3], current_pose[4], current_pose[5]], a=0.8, v=0.2000)
    report_progress()
    set_digital_out(0, True)
    report_progress()
    new_pose = pose_trans(tuft_coords, p[0.4107, 0.6616, -0.0020, 0, 0, 0])
    movel(p[new_pose[0], new_pose[1], new_pose[2], current_pose[3], current_pose[4], current_pose[5]], a=1.2, v=0.0600)
    report_progress()
    set_digital_out(0, False)
    report_progress()
    new_pose = pose_trans(tuft_coords, p[0.4107, 0.6616, 0.1500, 0, 0, 0])
    movel(p[new_pose[0], new_pose[1], new_pose[2], current_pose[3], current_pose[4], current_pose[5]], a=0.8, v=0.2000)
    report_progress()
    new_pose = pose_trans(tuft_coords, p[0.4126, 0.3825, 0.1500, 0, 0, 0])
    movel(p[new_pose[0], new_pose[1], new_pose[2], current_pose[3], current_pose[4], current_pose[5]], a=1.2, v=0.2000)
    report_progress()
    new_pose = pose_trans(tuft_coords, p[0.4126, 0.3825, -0.0020, 0, 0, 0])
    movel(p[new_pose[0], new_pose[1], new_pose[2], current_pose[3], current_pose[4], current_pose[5]], a=0.8, v=0.2000)
    report_progress()
    set_digital_out(0, True)
    report_progress()
    new_pose = pose_trans(tuft_coords, p[0.4126, 0.6675, -0.0020, 0, 0, 0])
    movel(p[new_pose[0], new_pose[1], new_pose[2], current_pose[3], current_pose[4], current_pose[5]], a=1.2, v=0.0600)
    report_progress()
    set_digital_out(0, False)
    report_progress()
    new_pose = pose_trans(tuft_coords, p[0.4126, 0.6675, 0.1500, 0, 0, 0])
    movel(p[new_pose[0], new_pose[1], new_pose[2], current_pose[3], current_pose[4], current_pose[5]], a=0.8, v=0.2000)
    report_progress()
    new_pose = pose_trans(tuft_coords, p[0.4146, 0.3785, 0.1500, 0, 0, 0])
    movel(p[new_pose[0], new_pose[1], new_pose[2], current_pose[3], current_pose[4], current_pose[5]], a=1.2, v=0.2000)
    report_progress()
    new_pose = pose_trans(tuft_coords, p[0.4146, 0.3785, -0.0020, 0, 0, 0])
    movel(p[new_pose[0], new_pose[1], new_pose[2], current_pose[3], current_pose[4], current_pose[5]], a=0.8, v=0.2000)
    report_progress()
    set_digital_out(0, True)
    report_progress()
    new_pose = pose_trans(tuft_coords, p[0.4146, 0.6715, -0.0020, 0, 0, 0])
    movel(p[new_pose[0], new_pose[1], new_pose[2], current_pose[3], current_pose[4], current_pose[5]], a=1.2, v=0.0600)
    report_progress()
    set_digital_out(0, False)
    report_progress()
    new_pose = pose_trans(tuft_coords, p[0.4146, 0.6715, 0.1500, 0, 0, 0])
    movel(p[new_pose[0], new_pose[1], new_pose[2], current_pose[3], current_pose[4], current_pose[5]], a=0.8, v=0.2000)
    report_progress()
    new_pose = pose_trans(tuft_coords, p[0.4165, 0.3726, 0.1500, 0, 0, 0])
    movel(p[new_pose[0], new_pose[1], new_pose[2], current_pose[3], current_pose[4], current_pose[5]], a=1.2, v=0.2000)
    report_progress()
    new_pose = pose_trans(tuft_coords, p[0.4165, 0.3726, -0.0020, 0, 0, 0])
    movel(p[new_pose[0], new_pose[1], new_pose[2], current_pose[3], current_pose[4], current_pose[5]], a=0.8, v=0.2000)
    report_progress()
    set_digital_out(0, True)
    report_progress()
    new_pose = pose_trans(tuft_coords, p[0.4165, 0.6774, -0.0020, 0, 0, 0])
    movel(p[new_pose[0], new_pose[1], new_pose[2], current_pose[3], current_pose[4], current_pose[5]], a=1.2, v=0.0600)
    report_progress()
    set_digital_out(0, False)
    report_progress()
    new_pose = pose_trans(tuft_coords, p[0.4165, 0.6774, 0.1500, 0, 0, 0])
    movel(p[new_pose[0], new_pose[1], new_pose[2], current_pose[3], current_pose[4], current_pose[5]], a=0.8, v=0.2000)
    report_progress()
    new_pose = pose_trans(tuft_coords, p[0.4185, 0.3686, 0.1500, 0, 0, 0])
    movel(p[new_pose[0], new_pose[1], new_pose[2], current_pose[3], current_pose[4], current_pose[5]], a=1.2, v=0.2000)
    report_progress()
    new_pose = pose_trans(tuft_coords, p[0.4185, 0.3686, -0.0020, 0, 0, 0])
    movel(p[new_pose[0], new_pose[1], new_pose[2], current_pose[3], current_pose[4], current_pose[5]], a=0.8, v=0.2000)
    report_progress()
    set_digital_out(0, True)
    report_progress()
    new_pose = pose_trans(tuft_coords, p[0.4185, 0.6814, -0.0020, 0, 0, 0])
    movel(p[new_pose[0], new_pose[1], new_pose[2], current_pose[3], current_pose[4], current_pose[5]], a=1.2, v=0.0600)
    report_progress()
    set_digital_out(0, False)
    report_progress()
    new_pose = pose_trans(tuft_coords, p[0.4185, 0.6814, 0.1500, 0, 0, 0])
    movel(p[new_pose[0], new_pose[1], new_pose[2], current_pose[3], current_pose[4], current_pose[5]], a=0.8, v=0.2000)
    report_progress()
    new_pose = pose_trans(tuft_coords, p[0.4204, 0.3647, 0.1500, 0, 0, 0])
    movel(p[new_pose[0], new_pose[1], new_pose[2], current_pose[3], current_pose[4], current_pose[5]], a=1.2, v=0.2000)
    report_progress()
    new_pose = pose_trans(tuft_coords, p[0.4204, 0.3647, -0.0020, 0, 0, 0])
    movel(p[new_pose[0], new_pose[1], new_pose[2], current_pose[3], current_pose[4], current_pose[5]], a=0.8, v=0.2000)
    report_progress()
    set_digital_out(0, True)
    report_progress()
    new_pose = pose_trans(tuft_coords, p[0.4204, 0.6853, -0.0020, 0, 0, 0])
    movel(p[new_pose[0], new_pose[1], new_pose[2], current_pose[3], current_pose[4], current_pose[5]], a=1.2, v=0.0600)
    report_progress()
    set_digital_out(0, False)
    report_progress()
    new_pose = pose_trans(tuft_coords, p[0.4204, 0.6853, 0.1500, 0, 0, 0])
    movel(p[new_pose[0], new_pose[1], new_pose[2], current_pose[3], current_pose[4], current_pose[5]], a=0.8, v=0.2000)
    report_progress()
    new_pose = pose_trans(tuft_coords, p[0.4224, 0.3607, 0.1500, 0, 0, 0])
    movel(p[new_pose[0], new_pose[1], new_pose[2], current_pose[3], current_pose[4], current_pose[5]], a=1.2, v=0.2000)
    report_progress()
    new_pose = pose_trans(tuft_coords, p[0.4224, 0.3607, -0.0020, 0, 0, 0])
    movel(p[new_pose[0], new_pose[1], new_pose[2], current_pose[3], current_pose[4], current_pose[5]], a=0.8, v=0.2000)
    report_progress()
    set_digital_out(0, True)
    report_progress()
    new_pose = pose_trans(tuft_coords, p[0.4224, 0.6893, -0.0020, 0, 0, 0])
    movel(p[new_pose[0], new_pose[1], new_pose[2], current_pose[3], current_pose[4], current_pose[5]], a=1.2, v=0.0600)
    report_progress()
    set_digital_out(0, False)
    report_progress()
    new_pose = pose_trans(tuft_coords, p[0.4224, 0.6893, 0.1500, 0, 0, 0])
    movel(p[new_pose[0], new_pose[1], new_pose[2], current_pose[3], current_pose[4], current_pose[5]], a=0.8, v=0.2000)
    report_progress()
    new_pose = pose_trans(tuft_coords, p[0.4243, 0.3568, 0.1500, 0, 0, 0])
    movel(p[new_pose[0], new_pose[1], new_pose[2], current_pose[3], current_pose[4], current_pose[5]], a=1.2, v=0.2000)
    report_progress()
    new_pose = pose_trans(tuft_coords, p[0.4243, 0.3568, -0.0020, 0, 0, 0])
    movel(p[new_pose[0], new_pose[1], new_pose[2], current_pose[3], current_pose[4], current_pose[5]], a=0.8, v=0.2000)
    report_progress()
    set_digital_out(0, True)
    report_progress()
    new_pose = pose_trans(tuft_coords, p[0.4243, 0.6932, -0.0020, 0, 0, 0])
    movel(p[new_pose[0], new_pose[1], new_pose[2], current_pose[3], current_pose[4], current_pose[5]], a=1.2, v=0.0600)
    report_progress()
    set_digital_out(0, False)
    report_progress()
    new_pose = pose_trans(tuft_coords, p[0.4243, 0.6932, 0.1500, 0, 0, 0])
    movel(p[new_pose[0], new_pose[1], new_pose[2], current_pose[3], current_pose[4], current_pose[5]], a=0.8, v=0.2000)
    report_progress()
    new_pose = pose_trans(tuft_coords, p[0.4263, 0.3528, 0.1500, 0, 0, 0])
    movel(p[new_pose[0], new_pose[1], new_pose[2], current_pose[3], current_pose[4], current_pose[5]], a=1.2, v=0.2000)
    report_progress()
    new_pose = pose_trans(tuft_coords, p[0.4263, 0.3528, -0.0020, 0, 0, 0])
    movel(p[new_pose[0], new_pose[1], new_pose[2], current_pose[3], current_pose[4], current_pose[5]], a=0.8, v=0.2000)
    report_progress()
    set_digital_out(0, True)
    report_progress()
    new_pose = pose_trans(tuft_coords, p[0.4263, 0.6972, -0.0020, 0, 0, 0])
    movel(p[new_pose[0], new_pose[1], new_pose[2], current_pose[3], current_pose[4], current_pose[5]], a=1.2, v=0.0600)
    report_progress()
    set_digital_out(0, False)
    report_progress()
    new_pose = pose_trans(tuft_coords, p[0.4263, 0.6972, 0.1500, 0, 0, 0])
    movel(p[new_pose[0], new_pose[1], new_pose[2], current_pose[3], current_pose[4], current_pose[5]], a=0.8, v=0.2000)
    report_progress()
    new_pose = pose_trans(tuft_coords, p[0.4282, 0.3489, 0.1500, 0, 0, 0])
    movel(p[new_pose[0], new_pose[1], new_pose[2], current_pose[3], current_pose[4], current_pose[5]], a=1.2, v=0.2000)
    report_progress()
    new_pose = pose_trans(tuft_coords, p[0.4282, 0.3489, -0.0020, 0, 0, 0])
    movel(p[new_pose[0], new_pose[1], new_pose[2], current_pose[3], current_pose[4], current_pose[5]], a=0.8, v=0.2000)
    report_progress()
    set_digital_out(0, True)
    report_progress()
    new_pose = pose_trans(tuft_coords, p[0.4282, 0.7011, -0.0020, 0, 0, 0])
    movel(p[new_pose[0], new_pose[1], new_pose[2], current_pose[3], current_pose[4], current_pose[5]], a=1.2, v=0.0600)
    report_progress()
    set_digital_out(0, False)
    report_progress()
    new_pose = pose_trans(tuft_coords, p[0.4282, 0.7011, 0.1500, 0, 0, 0])
    movel(p[new_pose[0], new_pose[1], new_pose[2], current_pose[3], current_pose[4], current_pose[5]], a=0.8, v=0.2000)
    report_progress()
    new_pose = pose_trans(tuft_coords, p[0.4301, 0.3449, 0.1500, 0, 0, 0])
    movel(p[new_pose[0], new_pose[1], new_pose[2], current_pose[3], current_pose[4], current_pose[5]], a=1.2, v=0.2000)
    report_progress()
    new_pose = pose_trans(tuft_coords, p[0.4301, 0.3449, -0.0020, 0, 0, 0])
    movel(p[new_pose[0], new_pose[1], new_pose[2], current_pose[3], current_pose[4], current_pose[5]], a=0.8, v=0.2000)
    report_progress()
    set_digital_out(0, True)
    report_progress()
    new_pose = pose_trans(tuft_coords, p[0.4301, 0.7051, -0.0020, 0, 0, 0])
    movel(p[new_pose[0], new_pose[1], new_pose[2], current_pose[3], current_pose[4], current_pose[5]], a=1.2, v=0.0600)
    report_progress()
    set_digital_out(0, False)
    report_progress()
    new_pose = pose_trans(tuft_coords, p[0.4301, 0.7051, 0.1500, 0, 0, 0])
    movel(p[new_pose[0], new_pose[1], new_pose[2], current_pose[3], current_pose[4], current_pose[5]], a=0.8, v=0.2000)
    report_progress()
    new_pose = pose_trans(tuft_coords, p[0.4321, 0.3429, 0.1500, 0, 0, 0])
    movel(p[new_pose[0], new_pose[1], new_pose[2], current_pose[3], current_pose[4], current_pose[5]], a=1.2, v=0.2000)
    report_progress()
    new_pose = pose_trans(tuft_coords, p[0.4321, 0.3429, -0.0020, 0, 0, 0])
    movel(p[new_pose[0], new_pose[1], new_pose[2], current_pose[3], current_pose[4], current_pose[5]], a=0.8, v=0.2000)
    report_progress()
    set_digital_out(0, True)
    report_progress()
    new_pose = pose_trans(tuft_coords, p[0.4321, 0.7071, -0.0020, 0, 0, 0])
    movel(p[new_pose[0], new_pose[1], new_pose[2], current_pose[3], current_pose[4], current_pose[5]], a=1.2, v=0.0600)
    report_progress()
    set_digital_out(0, False)
    report_progress()
    new_pose = pose_trans(tuft_coords, p[0.4321, 0.7071, 0.1500, 0, 0, 0])
    movel(p[new_pose[0], new_pose[1], new_pose[2], current_pose[3], current_pose[4], current_pose[5]], a=0.8, v=0.2000)
    report_progress()
    new_pose = pose_trans(tuft_coords, p[0.4340, 0.3390, 0.1500, 0, 0, 0])
    movel(p[new_pose[0], new_pose[1], new_pose[2], current_pose[3], current_pose[4], current_pose[5]], a=1.2, v=0.2000)
    report_progress()
    new_pose = pose_trans(tuft_coords, p[0.4340, 0.3390, -0.0020, 0, 0, 0])
    movel(p[new_pose[0], new_pose[1], new_pose[2], current_pose[3], current_pose[4], current_pose[5]], a=0.8, v=0.2000)
    report_progress()
    set_digital_out(0, True)
    report_progress()
    new_pose = pose_trans(tuft_coords, p[0.4340, 0.7110, -0.0020, 0, 0, 0])
    movel(p[new_pose[0], new_pose[1], new_pose[2], current_pose[3], current_pose[4], current_pose[5]], a=1.2, v=0.0600)
    report_progress()
    set_digital_out(0, False)
    report_progress()
    new_pose = pose_trans(tuft_coords, p[0.4340, 0.7110, 0.1500, 0, 0, 0])
    movel(p[new_pose[0], new_pose[1], new_pose[2], current_pose[3], current_pose[4], current_pose[5]], a=0.8, v=0.2000)
    report_progress()
    new_pose = pose_trans(tuft_coords, p[0.4360, 0.3350, 0.1500, 0, 0, 0])
    movel(p[new_pose[0], new_pose[1], new_pose[2], current_pose[3], current_pose[4], current_pose[5]], a=1.2, v=0.2000)
    report_progress()
    new_pose = pose_trans(tuft_coords, p[0.4360, 0.3350, -0.0020, 0, 0, 0])
    movel(p[new_pose[0], new_pose[1], new_pose[2], current_pose[3], current_pose[4], current_pose[5]], a=0.8, v=0.2000)
    report_progress()
    set_digital_out(0, True)
    report_progress()
    new_pose = pose_trans(tuft_coords, p[0.4360, 0.7150, -0.0020, 0, 0, 0])
    movel(p[new_pose[0], new_pose[1], new_pose[2], current_pose[3], current_pose[4], current_pose[5]], a=1.2, v=0.0600)
    report_progress()
    set_digital_out(0, False)
    report_progress()
    new_pose = pose_trans(tuft_coords, p[0.4360, 0.7150, 0.1500, 0, 0, 0])
    movel(p[new_pose[0], new_pose[1], new_pose[2], current_pose[3], current_pose[4], current_pose[5]], a=0.8, v=0.2000)
    report_progress()
    new_pose = pose_trans(tuft_coords, p[0.4379, 0.3330, 0.1500, 0, 0, 0])
    movel(p[new_pose[0], new_pose[1], new_pose[2], current_pose[3], current_pose[4], current_pose[5]], a=1.2, v=0.2000)
    report_progress()
    new_pose = pose_trans(tuft_coords, p[0.4379, 0.3330, -0.0020, 0, 0, 0])
    movel(p[new_pose[0], new_pose[1], new_pose[2], current_pose[3], current_pose[4], current_pose[5]], a=0.8, v=0.2000)
    report_progress()
    set_digital_out(0, True)
    report_progress()
    new_pose = pose_trans(tuft_coords, p[0.4379, 0.7170, -0.0020, 0, 0, 0])
    movel(p[new_pose[0], new_pose[1], new_pose[2], current_pose[3], current_pose[4], current_pose[5]], a=1.2, v=0.0600)
    report_progress()
    set_digital_out(0, False)
    report_progress()
    new_pose = pose_trans(tuft_coords, p[0.4379, 0.7170, 0.1500, 0, 0, 0])
    movel(p[new_pose[0], new_pose[1], new_pose[2], current_pose[3], current_pose[4], current_pose[5]], a=0.8, v=0.2000)
    report_progress()
    new_pose = pose_trans(tuft_coords, p[0.4399, 0.3291, 0.1500, 0, 0, 0])
    movel(p[new_pose[0], new_pose[1], new_pose[2], current_pose[3], current_pose[4], current_pose[5]], a=1.2, v=0.2000)
    report_progress()
    new_pose = pose_trans(tuft_coords, p[0.4399, 0.3291, -0.0020, 0, 0, 0])
    movel(p[new_pose[0], new_pose[1], new_pose[2], current_pose[3], current_pose[4], current_pose[5]], a=0.8, v=0.2000)
    report_progress()
    set_digital_out(0, True)
    report_progress()
    new_pose = pose_trans(tuft_coords, p[0.4399, 0.7209, -0.0020, 0, 0, 0])
    movel(p[new_pose[0], new_pose[1], new_pose[2], current_pose[3], current_pose[4], current_pose[5]], a=1.2, v=0.0600)
    report_progress()
    set_digital_out(0, False)
    report_progress()
    new_pose = pose_trans(tuft_coords, p[0.4399, 0.7209, 0.1500, 0, 0, 0])
    movel(p[new_pose[0], new_pose[1], new_pose[2], current_pose[3], current_pose[4], current_pose[5]], a=0.8, v=0.2000)
    report_progress()
    new_pose = pose_trans(tuft_coords, p[0.4418, 0.3251, 0.1500, 0, 0, 0])
    movel(p[new_pose[0], new_pose[1], new_pose[2], current_pose[3], current_pose[4], current_pose[5]], a=1.2, v=0.2000)
    report_progress()
    new_pose = pose_trans(tuft_coords, p[0.4418, 0.3251, -0.0020, 0, 0, 0])
    movel(p[new_pose[0], new_pose[1], new_pose[2], current_pose[3], current_pose[4], current_pose[5]], a=0.8, v=0.2000)
    report_progress()
    set_digital_out(0, True)
    report_progress()
    new_pose = pose_trans(tuft_coords, p[0.4418, 0.7249, -0.0020, 0, 0, 0])
    movel(p[new_pose[0], new_pose[1], new_pose[2], current_pose[3], current_pose[4], current_pose[5]], a=1.2, v=0.0600)
    report_progress()
    set_digital_out(0, False)
    report_progress()
    new_pose = pose_trans(tuft_coords, p[0.4418, 0.7249, 0.1500, 0, 0, 0])
    movel(p[new_pose[0], new_pose[1], new_pose[2], current_pose[3], current_pose[4], current_pose[5]], a=0.8, v=0.2000)
    report_progress()
    new_pose = pose_trans(tuft_coords, p[0.4437, 0.3231, 0.1500, 0, 0, 0])
    movel(p[new_pose[0], new_pose[1], new_pose[2], current_pose[3], current_pose[4], current_pose[5]], a=1.2, v=0.2000)
    report_progress()
    new_pose = pose_trans(tuft_coords, p[0.4437, 0.3231, -0.0020, 0, 0, 0])
    movel(p[new_pose[0], new_pose[1], new_pose[2], current_pose[3], current_pose[4], current_pose[5]], a=0.8, v=0.2000)
    report_progress()
    set_digital_out(0, True)
    report_progress()
    new_pose = pose_trans(tuft_coords, p[0.4437, 0.7269, -0.0020, 0, 0, 0])
    movel(p[new_pose[0], new_pose[1], new_pose[2], current_pose[3], current_pose[4], current_pose[5]], a=1.2, v=0.0600)
    report_progress()
    set_digital_out(0, False)
    report_progress()
    new_pose = pose_trans(tuft_coords, p[0.4437, 0.7269, 0.1500, 0, 0, 0])
    movel(p[new_pose[0], new_pose[1], new_pose[2], current_pose[3], current_pose[4], current_pose[5]], a=0.8, v=0.2000)
    report_progress()
    new_pose = pose_trans(tuft_coords, p[0.4457, 0.3192, 0.1500, 0, 0, 0])
    movel(p[new_pose[0], new_pose[1], new_pose[2], current_pose[3], current_pose[4], current_pose[5]], a=1.2, v=0.2000)
    report_progress()
    new_pose = pose_trans(tuft_coords, p[0.4457, 0.3192, -0.0020, 0, 0, 0])
    movel(p[new_pose[0], new_pose[1], new_pose[2], current_pose[3], current_pose[4], current_pose[5]], a=0.8, v=0.2000)
    report_progress()
    set_digital_out(0, True)
    report_progress()
    new_pose = pose_trans(tuft_coords, p[0.4457, 0.7308, -0.0020, 0, 0, 0])
    movel(p[new_pose[0], new_pose[1], new_pose[2], current_pose[3], current_pose[4], current_pose[5]], a=1.2, v=0.0600)
    report_progress()
    set_digital_out(0, False)
    report_progress()
    new_pose = pose_trans(tuft_coords, p[0.4457, 0.7308, 0.1500, 0, 0, 0])
    movel(p[new_pose[0], new_pose[1], new_pose[2], current_pose[3], current_pose[4], current_pose[5]], a=0.8, v=0.2000)
    report_progress()
    new_pose = pose_trans(tuft_coords, p[0.4476, 0.3172, 0.1500, 0, 0, 0])
    movel(p[new_pose[0], new_pose[1], new_pose[2], current_pose[3], current_pose[4], current_pose[5]], a=1.2, v=0.2000)
    report_progress()
    new_pose = pose_trans(tuft_coords, p[0.4476, 0.3172, -0.0020, 0, 0, 0])
    movel(p[new_pose[0], new_pose[1], new_pose[2], current_pose[3], current_pose[4], current_pose[5]], a=0.8, v=0.2000)
    report_progress()
    set_digital_out(0, True)
    report_progress()
    new_pose = pose_trans(tuft_coords, p[0.4476, 0.7328, -0.0020, 0, 0, 0])
    movel(p[new_pose[0], new_pose[1], new_pose[2], current_pose[3], current_pose[4], current_pose[5]], a=1.2, v=0.0600)
    report_progress()
    set_digital_out(0, False)
    report_progress()
    new_pose = pose_trans(tuft_coords, p[0.4476, 0.7328, 0.1500, 0, 0, 0])
    movel(p[new_pose[0], new_pose[1], new_pose[2], current_pose[3], current_pose[4], current_pose[5]], a=0.8, v=0.2000)
    report_progress()
    new_pose = pose_trans(tuft_coords, p[0.4496, 0.3132, 0.1500, 0, 0, 0])
    movel(p[new_pose[0], new_pose[1], new_pose[2], current_pose[3], current_pose[4], current_pose[5]], a=1.2, v=0.2000)
    report_progress()
    new_pose = pose_trans(tuft_coords, p[0.4496, 0.3132, -0.0020, 0, 0, 0])
    movel(p[new_pose[0], new_pose[1], new_pose[2], current_pose[3], current_pose[4], current_pose[5]], a=0.8, v=0.2000)
    report_progress()
    set_digital_out(0, True)
    report_progress()
    new_pose = pose_trans(tuft_coords, p[0.4496, 0.7368, -0.0020, 0, 0, 0])
    movel(p[new_pose[0], new_pose[1], new_pose[2], current_pose[3], current_pose[4], current_pose[5]], a=1.2, v=0.0600)
    report_progress()
    set_digital_out(0, False)
    report_progress()
    new_pose = pose_trans(tuft_coords, p[0.4496, 0.7368, 0.1500, 0, 0, 0])
    movel(p[new_pose[0], new_pose[1], new_pose[2], current_pose[3], current_pose[4], current_pose[5]], a=0.8, v=0.2000)
    report_progress()
    new_pose = pose_trans(tuft_coords, p[0.4515, 0.3113, 0.1500, 0, 0, 0])
    movel(p[new_pose[0], new_pose[1], new_pose[2], current_pose[3], current_pose[4], current_pose[5]], a=1.2, v=0.2000)
    report_progress()
    new_pose = pose_trans(tuft_coords, p[0.4515, 0.3113, -0.0020, 0, 0, 0])
    movel(p[new_pose[0], new_pose[1], new_pose[2], current_pose[3], current_pose[4], current_pose[5]], a=0.8, v=0.2000)
    report_progress()
    set_digital_out(0, True)
    report_progress()
    new_pose = pose_trans(tuft_coords, p[0.4515, 0.7388, -0.0020, 0, 0, 0])
    movel(p[new_pose[0], new_pose[1], new_pose[2], current_pose[3], current_pose[4], current_pose[5]], a=1.2, v=0.0600)
    report_progress()
    set_digital_out(0, False)
    report_progress()
    new_pose = pose_trans(tuft_coords, p[0.4515, 0.7388, 0.1500, 0, 0, 0])
    movel(p[new_pose[0], new_pose[1], new_pose[2], current_pose[3], current_pose[4], current_pose[5]], a=0.8, v=0.2000)
    report_progress()
    new_pose = pose_trans(tuft_coords, p[0.4535, 0.3073, 0.1500, 0, 0, 0])
    movel(p[new_pose[0], new_pose[1], new_pose[2], current_pose[3], current_pose[4], current_pose[5]], a=1.2, v=0.2000)
    report_progress()
    new_pose = pose_trans(tuft_coords, p[0.4535, 0.3073, -0.0020, 0, 0, 0])
    movel(p[new_pose[0], new_pose[1], new_pose[2], current_pose[3], current_pose[4], current_pose[5]], a=0.8, v=0.2000)
    report_progress()
    set_digital_out(0, True)
    report_progress()
    new_pose = pose_trans(tuft_coords, p[0.4535, 0.7427, -0.0020, 0, 0, 0])
    movel(p[new_pose[0], new_pose[1], new_pose[2], current_pose[3], current_pose[4], current_pose[5]], a=1.2, v=0.0600)
    report_progress()
    set_digital_out(0, False)
    report_progress()
    new_pose = pose_trans(tuft_coords, p[0.4535, 0.7427, 0.1500, 0, 0, 0])
    movel(p[new_pose[0], new_pose[1], new_pose[2], current_pose[3], current_pose[4], current_pose[5]], a=0.8, v=0.2000)
    report_progress()
    new_pose = pose_trans(tuft_coords, p[0.4554, 0.3053, 0.1500, 0, 0, 0])
    movel(p[new_pose[0], new_pose[1], new_pose[2], current_pose[3], current_pose[4], current_pose[5]], a=1.2, v=0.2000)
    report_progress()
    new_pose = pose_trans(tuft_coords, p[0.4554, 0.3053, -0.0020, 0, 0, 0])
    movel(p[new_pose[0], new_pose[1], new_pose[2], current_pose[3], current_pose[4], current_pose[5]], a=0.8, v=0.2000)
    report_progress()
    set_digital_out(0, True)
    report_progress()
    new_pose = pose_trans(tuft_coords, p[0.4554, 0.7447, -0.0020, 0, 0, 0])
    movel(p[new_pose[0], new_pose[1], new_pose[2], current_pose[3], current_pose[4], current_pose[5]], a=1.2, v=0.0600)
    report_progress()
    set_digital_out(0, False)
    report_progress()
    new_pose = pose_trans(tuft_coords, p[0.4554, 0.7447, 0.1500, 0, 0, 0])
    movel(p[new_pose[0], new_pose[1], new_pose[2], current_pose[3], current_pose[4], current_pose[5]], a=0.8, v=0.2000)
    report_progress()
    new_pose = pose_trans(tuft_coords, p[0.4574, 0.3033, 0.1500, 0, 0, 0])
    movel(p[new_pose[0], new_pose[1], new_pose[2], current_pose[3], current_pose[4], current_pose[5]], a=1.2, v=0.2000)
    report_progress()
    new_pose = pose_trans(tuft_coords, p[0.4574, 0.3033, -0.0020, 0, 0, 0])
    movel(p[new_pose[0], new_pose[1], new_pose[2], current_pose[3], current_pose[4], current_pose[5]], a=0.8, v=0.2000)
    report_progress()
    set_digital_out(0, True)
    report_progress()
    new_pose = pose_trans(tuft_coords, p[0.4574, 0.7467, -0.0020, 0, 0, 0])
    movel(p[new_pose[0], new_pose[1], new_pose[2], current_pose[3], current_pose[4], current_pose[5]], a=1.2, v=0.0600)
    report_progress()
    set_digital_out(0, False)
    report_progress()
    new_pose = pose_trans(tuft_coords, p[0.4574, 0.7467, 0.1500, 0, 0, 0])
    movel(p[new_pose[0], new_pose[1], new_pose[2], current_pose[3], current_pose[4], current_pose[5]], a=0.8, v=0.2000)
    report_progress()
    new_pose = pose_trans(tuft_coords, p[0.4593, 0.2994, 0.1500, 0, 0, 0])
    movel(p[new_pose[0], new_pose[1], new_pose[2], current_pose[3], current_pose[4], current_pose[5]], a=1.2, v=0.2000)
    report_progress()
    new_pose = pose_trans(tuft_coords, p[0.4593, 0.2994, -0.0020, 0, 0, 0])
    movel(p[new_pose[0], new_pose[1], new_pose[2], current_pose[3], current_pose[4], current_pose[5]], a=0.8, v=0.2000)
    report_progress()
    set_digital_out(0, True)
    report_progress()
    new_pose = pose_trans(tuft_coords, p[0.4593, 0.7506, -0.0020, 0, 0, 0])
    movel(p[new_pose[0], new_pose[1], new_pose[2], current_pose[3], current_pose[4], current_pose[5]], a=1.2, v=0.0600)
    report_progress()
    set_digital_out(0, False)
    report_progress()
    new_pose = pose_trans(tuft_coords, p[0.4593, 0.7506, 0.1500, 0, 0, 0])
    movel(p[new_pose[0], new_pose[1], new_pose[2], current_pose[3], current_pose[4], current_pose[5]], a=0.8, v=0.2000)
    report_progress()
    new_pose = pose_trans(tuft_coords, p[0.4612, 0.2974, 0.1500, 0, 0, 0])
    movel(p[new_pose[0], new_pose[1], new_pose[2], current_pose[3], current_pose[4], current_pose[5]], a=1.2, v=0.2000)
    report_progress()
    new_pose = pose_trans(tuft_coords, p[0.4612, 0.2974, -0.0020, 0, 0, 0])
    movel(p[new_pose[0], new_pose[1], new_pose[2], current_pose[3], current_pose[4], current_pose[5]], a=0.8, v=0.2000)
    report_progress()
    set_digital_out(0, True)
    report_progress()
    new_pose = pose_trans(tuft_coords, p[0.4612, 0.7526, -0.0020, 0, 0, 0])
    movel(p[new_pose[0], new_pose[1], new_pose[2], current_pose[3], current_pose[4], current_pose[5]], a=1.2, v=0.0600)
    report_progress()
    set_digital_out(0, False)
    report_progress()
    new_pose = pose_trans(tuft_coords, p[0.4612, 0.7526, 0.1500, 0, 0, 0])
    movel(p[new_pose[0], new_pose[1], new_pose[2], current_pose[3], current_pose[4], current_pose[5]], a=0.8, v=0.2000)
    report_progress()
    new_pose = pose_trans(tuft_coords, p[0.4632, 0.2954, 0.1500, 0, 0, 0])
    movel(p[new_pose[0], new_pose[1], new_pose[2], current_pose[3], current_pose[4], current_pose[5]], a=1.2, v=0.2000)
    report_progress()
    new_pose = pose_trans(tuft_coords, p[0.4632, 0.2954, -0.0020, 0, 0, 0])
    movel(p[new_pose[0], new_pose[1], new_pose[2], current_pose[3], current_pose[4], current_pose[5]], a=0.8, v=0.2000)
    report_progress()
    set_digital_out(0, True)
    report_progress()
    new_pose = pose_trans(tuft_coords, p[0.4632, 0.7546, -0.0020, 0, 0, 0])
    movel(p[new_pose[0], new_pose[1], new_pose[2], current_pose[3], current_pose[4], current_pose[5]], a=1.2, v=0.0600)
    report_progress()
    set_digital_out(0, False)
    report_progress()
    new_pose = pose_trans(tuft_coords, p[0.4632, 0.7546, 0.1500, 0, 0, 0])
    movel(p[new_pose[0], new_pose[1], new_pose[2], current_pose[3], current_pose[4], current_pose[5]], a=0.8, v=0.2000)
    report_progress()
    new_pose = pose_trans(tuft_coords, p[0.4651, 0.2934, 0.1500, 0, 0, 0])
    movel(p[new_pose[0], new_pose[1], new_pose[2], current_pose[3], current_pose[4], current_pose[5]], a=1.2, v=0.2000)
    report_progress()
    new_pose = pose_trans(tuft_coords, p[0.4651, 0.2934, -0.0020, 0, 0, 0])
    movel(p[new_pose[0], new_pose[1], new_pose[2], current_pose[3], current_pose[4], current_pose[5]], a=0.8, v=0.2000)
    report_progress()
    set_digital_out(0, True)
    report_progress()
    new_pose = pose_trans(tuft_coords, p[0.4651, 0.7566, -0.0020, 0, 0, 0])
    movel(p[new_pose[0], new_pose[1], new_pose[2], current_pose[3], current_pose[4], current_pose[5]], a=1.2, v=0.0600)
    report_progress()
    set_digital_out(0, False)
    report_progress()
    new_pose = pose_trans(tuft_coords, p[0.4651, 0.7566, 0.1500, 0, 0, 0])
    movel(p[new_pose[0], new_pose[1], new_pose[2], current_pose[3], current_pose[4], current_pose[5]], a=0.8, v=0.2000)
    report_progress()
    new_pose = pose_trans(tuft_coords, p[0.4671, 0.2895, 0.1500, 0, 0, 0])
    movel(p[new_pose[0], new_pose[1], new_pose[2], current_pose[3], current_pose[4], current_pose[5]], a=1.2, v=0.2000)
    report_progress()
    new_pose = pose_trans(tuft_coords, p[0.4671, 0.2895, -0.0020, 0, 0, 0])
    movel(p[new_pose[0], new_pose[1], new_pose[2], current_pose[3], current_pose[4], current_pose[5]], a=0.8, v=0.2000)
    report_progress()
    set_digital_out(0, True)
    report_progress()
    new_pose = pose_trans(tuft_coords, p[0.4671, 0.7605, -0.0020, 0, 0, 0])
    movel(p[new_pose[0], new_pose[1], new_pose[2], current_pose[3], current_pose[4], current_pose[5]], a=1.2, v=0.0600)
    report_progress()
    set_digital_out(0, False)
    report_progress()
    new_pose = pose_trans(tuft_coords, p[0.4671, 0.7605, 0.1500, 0, 0, 0])
    movel(p[new_pose[0], new_pose[1], new_pose[2], current_pose[3], current_pose[4], current_pose[5]], a=0.8, v=0.2000)
    report_progress()
    new_pose = pose_trans(tuft_coords, p[0.4690, 0.2875, 0.1500, 0, 0, 0])
    movel(p[new_pose[0], new_pose[1], new_pose[2], current_pose[3], current_pose[4], current_pose[5]], a=1.2, v=0.2000)
    report_progress()
    new_pose = pose_trans(tuft_coords, p[0.4690, 0.2875, -0.0020, 0, 0, 0])
    movel(p[new_pose[0], new_pose[1], new_pose[2], current_pose[3], current_pose[4], current_pose[5]], a=0.8, v=0.2000)
    report_progress()
    set_digital_out(0, True)
    report_progress()
    new_pose = pose_trans(tuft_coords, p[0.4690, 0.7625, -0.0020, 0, 0, 0])
    movel(p[new_pose[0], new_pose[1], new_pose[2], current_pose[3], current_pose[4], current_pose[5]], a=1.2, v=0.0600)
    report_progress()
    set_digital_out(0, False)
    report_progress()
    new_pose = pose_trans(tuft_coords, p[0.4690, 0.7625, 0.1500, 0, 0, 0])
    movel(p[new_pose[0], new_pose[1], new_pose[2], current_pose[3], current_pose[4], current_pose[5]], a=0.8, v=0.2000)
    report_progress()
    new_pose = pose_trans(tuft_coords, p[0.4710, 0.2855, 0.1500, 0, 0, 0])
    movel(p[new_pose[0], new_pose[1], new_pose[2], current_pose[3], current_pose[4], current_pose[5]], a=1.2, v=0.2000)
    report_progress()
    new_pose = pose_trans(tuft_coords, p[0.4710, 0.2855, -0.0020, 0, 0, 0])
    movel(p[new_pose[0], new_pose[1], new_pose[2], current_pose[3], current_pose[4], current_pose[5]], a=0.8, v=0.2000)
    report_progress()
    set_digital_out(0, True)
    report_progress()
    new_pose = pose_trans(tuft_coords, p[0.4710, 0.7645, -0.0020, 0, 0, 0])
    movel(p[new_pose[0], new_pose[1], new_pose[2], current_pose[3], current_pose[4], current_pose[5]], a=1.2, v=0.0600)
    report_progress()
    set_digital_out(0, False)
    report_progress()
    new_pose = pose_trans(tuft_coords, p[0.4710, 0.7645, 0.1500, 0, 0, 0])
    movel(p[new_pose[0], new_pose[1], new_pose[2], current_pose[3], current_pose[4], current_pose[5]], a=0.8, v=0.2000)
    report_progress()
    new_pose = pose_trans(tuft_coords, p[0.4729, 0.2835, 0.1500, 0, 0, 0])
    movel(p[new_pose[0], new_pose[1], new_pose[2], current_pose[3], current_pose[4], current_pose[5]], a=1.2, v=0.2000)
    report_progress()
    new_pose = pose_trans(tuft_coords, p[0.4729, 0.2835, -0.0020, 0, 0, 0])
    movel(p[new_pose[0], new_pose[1], new_pose[2], current_pose[3], current_pose[4], current_pose[5]], a=0.8, v=0.2000)
    report_progress()
    set_digital_out(0, True)
    report_progress()
    new_pose = pose_trans(tuft_coords, p[0.4729, 0.7665, -0.0020, 0, 0, 0])
    movel(p[new_pose[0], new_pose[1], new_pose[2], current_pose[3], current_pose[4], current_pose[5]], a=1.2, v=0.0600)
    report_progress()
    set_digital_out(0, False)
    report_progress()
    new_pose = pose_trans(tuft_coords, p[0.4729, 0.7665, 0.1500, 0, 0, 0])
    movel(p[new_pose[0], new_pose[1], new_pose[2], current_pose[3], current_pose[4], current_pose[5]], a=0.8, v=0.2000)
    report_progress()
    new_pose = pose_trans(tuft_coords, p[0.4749, 0.2816, 0.1500, 0, 0, 0])
    movel(p[new_pose[0], new_pose[1], new_pose[2], current_pose[3], current_pose[4], current_pose[5]], a=1.2, v=0.2000)
    report_progress()
    new_pose = pose_trans(tuft_coords, p[0.4749, 0.2816, -0.0020, 0, 0, 0])
    movel(p[new_pose[0], new_pose[1], new_pose[2], current_pose[3], current_pose[4], current_pose[5]], a=0.8, v=0.2000)
    report_progress()
    set_digital_out(0, True)
    report_progress()
    new_pose = pose_trans(tuft_coords, p[0.4749, 0.7684, -0.0020, 0, 0, 0])
    movel(p[new_pose[0], new_pose[1], new_pose[2], current_pose[3], current_pose[4], current_pose[5]], a=1.2, v=0.0600)
    report_progress()
    set_digital_out(0, False)
    report_progress()
    new_pose = pose_trans(tuft_coords, p[0.4749, 0.7684, 0.1500, 0, 0, 0])
    movel(p[new_pose[0], new_pose[1], new_pose[2], current_pose[3], current_pose[4], current_pose[5]], a=0.8, v=0.2000)
    report_progress()
    new_pose = pose_trans(tuft_coords, p[0.4768, 0.2776, 0.1500, 0, 0, 0])
    movel(p[new_pose[0], new_pose[1], new_pose[2], current_pose[3], current_pose[4], current_pose[5]], a=1.2, v=0.2000)
    report_progress()
    new_pose = pose_trans(tuft_coords, p[0.4768, 0.2776, -0.0020, 0, 0, 0])
    movel(p[new_pose[0], new_pose[1], new_pose[2], current_pose[3], current_pose[4], current_pose[5]], a=0.8, v=0.2000)
    report_progress()
    set_digital_out(0, True)
    report_progress()
    new_pose = pose_trans(tuft_coords, p[0.4768, 0.7724, -0.0020, 0, 0, 0])
    movel(p[new_pose[0], new_pose[1], new_pose[2], current_pose[3], current_pose[4], current_pose[5]], a=1.2, v=0.0600)
    report_progress()
    set_digital_out(0, False)
    report_progress()
    new_pose = pose_trans(tuft_coords, p[0.4768, 0.7724, 0.1500, 0, 0, 0])
    movel(p[new_pose[0], new_pose[1], new_pose[2], current_pose[3], current_pose[4], current_pose[5]], a=0.8, v=0.2000)
    report_progress()
    new_pose = pose_trans(tuft_coords, p[0.4788, 0.2756, 0.1500, 0, 0, 0])
    movel(p[new_pose[0], new_pose[1], new_pose[2], current_pose[3], current_pose[4], current_pose[5]], a=1.2, v=0.2000)
    report_progress()
    new_pose = pose_trans(tuft_coords, p[0.4788, 0.2756, -0.0020, 0, 0, 0])
    movel(p[new_pose[0], new_pose[1], new_pose[2], current_pose[3], current_pose[4], current_pose[5]], a=0.8, v=0.2000)
    report_progress()
    set_digital_out(0, True)
    report_progress()
    new_pose = pose_trans(tuft_coords, p[0.4788, 0.7744, -0.0020, 0, 0, 0])
    movel(p[new_pose[0], new_pose[1], new_pose[2], current_pose[3], current_pose[4], current_pose[5]], a=1.2, v=0.0600)
    report_progress()
    set_digital_out(0, False)
    report_progress()
    new_pose = pose_trans(tuft_coords, p[0.4788, 0.7744, 0.1500, 0, 0, 0])
    movel(p[new_pose[0], new_pose[1], new_pose[2], current_pose[3], current_pose[4], current_pose[5]], a=0.8, v=0.2000)
    report_progress()
    new_pose = pose_trans(tuft_coords, p[0.4807, 0.2736, 0.1500, 0, 0, 0])
    movel(p[new_pose[0], new_pose[1], new_pose[2], current_pose[3], current_pose[4], current_pose[5]], a=1.2, v=0.2000)
    report_progress()
    new_pose = pose_trans(tuft_coords, p[0.4807, 0.2736, -0.0020, 0, 0, 0])
    movel(p[new_pose[0], new_pose[1], new_pose[2], current_pose[3], current_pose[4], current_pose[5]], a=0.8, v=0.2000)
    report_progress()
    set_digital_out(0, True)
    report_progress()
    new_pose = pose_trans(tuft_coords, p[0.4807, 0.7764, -0.0020, 0, 0, 0])
    movel(p[new_pose[0], new_pose[1], new_pose[2], current_pose[3], current_pose[4], current_pose[5]], a=1.2, v=0.0600)
    report_progress()
    set_digital_out(0, False)
    report_progress()
    new_pose = pose_trans(tuft_coords, p[0.4807, 0.7764, 0.1500, 0, 0, 0])
    movel(p[new_pose[0], new_pose[1], new_pose[2], current_pose[3], current_pose[4], current_pose[5]], a=0.8, v=0.2000)
    report_progress()
    new_pose = pose_trans(tuft_coords, p[0.4826, 0.2717, 0.1500, 0, 0, 0])
    movel(p[new_pose[0], new_pose[1], new_pose[2], current_pose[3], current_pose[4], current_pose[5]], a=1.2, v=0.2000)
    report_progress()
    new_pose = pose_trans(tuft_coords, p[0.4826, 0.2717, -0.0020, 0, 0, 0])
    movel(p[new_pose[0], new_pose[1], new_pose[2], current_pose[3], current_pose[4], current_pose[5]], a=0.8, v=0.2000)
    report_progress()
    set_digital_out(0, True)
    report_progress()
    new_pose = pose_trans(tuft_coords, p[0.4826, 0.7783, -0.0020, 0, 0, 0])
    movel(p[new_pose[0], new_pose[1], new_pose[2], current_pose[3], current_pose[4], current_pose[5]], a=1.2, v=0.0600)
    report_progress()
    set_digital_out(0, False)
    report_progress()
    new_pose = pose_trans(tuft_coords, p[0.4826, 0.7783, 0.1500, 0, 0, 0])
    movel(p[new_pose[0], new_pose[1], new_pose[2], current_pose[3], current_pose[4], current_pose[5]], a=0.8, v=0.2000)
    report_progress()
    new_pose = pose_trans(tuft_coords, p[0.4846, 0.2697, 0.1500, 0, 0, 0])
    movel(p[new_pose[0], new_pose[1], new_pose[2], current_pose[3], current_pose[4], current_pose[5]], a=1.2, v=0.2000)
    report_progress()
    new_pose = pose_trans(tuft_coords, p[0.4846, 0.2697, -0.0020, 0, 0, 0])
    movel(p[new_pose[0], new_pose[1], new_pose[2], current_pose[3], current_pose[4], current_pose[5]], a=0.8, v=0.2000)
    report_progress()
    set_digital_out(0, True)
    report_progress()
    new_pose = pose_trans(tuft_coords, p[0.4846, 0.7803, -0.0020, 0, 0, 0])
    movel(p[new_pose[0], new_pose[1], new_pose[2], current_pose[3], current_pose[4], current_pose[5]], a=1.2, v=0.0600)
    report_progress()
    set_digital_out(0, False)
    report_progress()
    new_pose = pose_trans(tuft_coords, p[0.4846, 0.7803, 0.1500, 0, 0, 0])
    movel(p[new_pose[0], new_pose[1], new_pose[2], current_pose[3], current_pose[4], current_pose[5]], a=0.8, v=0.2000)
    report_progress()
    new_pose = pose_trans(tuft_coords, p[0.4865, 0.2677, 0.1500, 0, 0, 0])
    movel(p[new_pose[0], new_pose[1], new_pose[2], current_pose[3], current_pose[4], current_pose[5]], a=1.2, v=0.2000)
    report_progress()
    new_pose = pose_trans(tuft_coords, p[0.4865, 0.2677, -0.0020, 0, 0, 0])
    movel(p[new_pose[0], new_pose[1], new_pose[2], current_pose[3], current_pose[4], current_pose[5]], a=0.8, v=0.2000)
    report_progress()
    set_digital_out(0, True)
    report_progress()
    new_pose = pose_trans(tuft_coords, p[0.4865, 0.7823, -0.0020, 0, 0, 0])
    movel(p[new_pose[0], new_pose[1], new_pose[2], current_pose[3], current_pose[4], current_pose[5]], a=1.2, v=0.0600)
    report_progress()
    set_digital_out(0, False)
    report_progress()
    new_pose = pose_trans(tuft_coords, p[0.4865, 0.7823, 0.1500, 0, 0, 0])
    movel(p[new_pose[0], new_pose[1], new_pose[2], current_pose[3], current_pose[4], current_pose[5]], a=0.8, v=0.2000)
    report_progress()
    new_pose = pose_trans(tuft_coords, p[0.4885, 0.2657, 0.1500, 0, 0, 0])
    movel(p[new_pose[0], new_pose[1], new_pose[2], current_pose[3], current_pose[4], current_pose[5]], a=1.2, v=0.2000)
    report_progress()
    new_pose = pose_trans(tuft_coords, p[0.4885, 0.2657, -0.0020, 0, 0, 0])
    movel(p[new_pose[0], new_pose[1], new_pose[2], current_pose[3], current_pose[4], current_pose[5]], a=0.8, v=0.2000)
    report_progress()
    set_digital_out(0, True)
    report_progress()
    new_pose = pose_trans(tuft_coords, p[0.4885, 0.7843, -0.0020, 0, 0, 0])
    movel(p[new_pose[0], new_pose[1], new_pose[2], current_pose[3], current_pose[4], current_pose[5]], a=1.2, v=0.0600)
    report_progress()
    set_digital_out(0, False)
    report_progress()
    new_pose = pose_trans(tuft_coords, p[0.4885, 0.7843, 0.1500, 0, 0, 0])
    movel(p[new_pose[0], new_pose[1], new_pose[2], current_pose[3], current_pose[4], current_pose[5]], a=0.8, v=0.2000)
    report_progress()
    new_pose = pose_trans(tuft_coords, p[0.4904, 0.2637, 0.1500, 0, 0, 0])
    movel(p[new_pose[0], new_pose[1], new_pose[2], current_pose[3], current_pose[4], current_pose[5]], a=1.2, v=0.2000)
    report_progress()
    new_pose = pose_trans(tuft_coords, p[0.4904, 0.2637, -0.0020, 0, 0, 0])
    movel(p[new_pose[0], new_pose[1], new_pose[2], current_pose[3], current_pose[4], current_pose[5]], a=0.8, v=0.2000)
    report_progress()
    set_digital_out(0, True)
    report_progress()
    new_pose = pose_trans(tuft_coords, p[0.4904, 0.7863, -0.0020, 0, 0, 0])
    movel(p[new_pose[0], new_pose[1], new_pose[2], current_pose[3], current_pose[4], current_pose[5]], a=1.2, v=0.0600)
    report_progress()
    set_digital_out(0, False)
    report_progress()
    new_pose = pose_trans(tuft_coords, p[0.4904, 0.7863, 0.1500, 0, 0, 0])
    movel(p[new_pose[0], new_pose[1], new_pose[2], current_pose[3], current_pose[4], current_pose[5]], a=0.8, v=0.2000)
    report_progress()
    new_pose = pose_trans(tuft_coords, p[0.4924, 0.2618, 0.1500, 0, 0, 0])
    movel(p[new_pose[0], new_pose[1], new_pose[2], current_pose[3], current_pose[4], current_pose[5]], a=1.2, v=0.2000)
    report_progress()
    new_pose = pose_trans(tuft_coords, p[0.4924, 0.2618, -0.0020, 0, 0, 0])
    movel(p[new_pose[0], new_pose[1], new_pose[2], current_pose[3], current_pose[4], current_pose[5]], a=0.8, v=0.2000)
    report_progress()
    set_digital_out(0, True)
    report_progress()
    new_pose = pose_trans(tuft_coords, p[0.4924, 0.7882, -0.0020, 0, 0, 0])
    movel(p[new_pose[0], new_pose[1], new_pose[2], current_pose[3], current_pose[4], current_pose[5]], a=1.2, v=0.0600)
    report_progress()
    set_digital_out(0, False)
    report_progress()
    new_pose = pose_trans(tuft_coords, p[0.4924, 0.7882, 0.1500, 0, 0, 0])
    movel(p[new_pose[0], new_pose[1], new_pose[2], current_pose[3], current_pose[4], current_pose[5]], a=0.8, v=0.2000)
    report_progress()
    new_pose = pose_trans(tuft_coords, p[0.4943, 0.2598, 0.1500, 0, 0, 0])
    movel(p[new_pose[0], new_pose[1], new_pose[2], current_pose[3], current_pose[4], current_pose[5]], a=1.2, v=0.2000)
    report_progress()
    new_pose = pose_trans(tuft_coords, p[0.4943, 0.2598, -0.0020, 0, 0, 0])
    movel(p[new_pose[0], new_pose[1], new_pose[2], current_pose[3], current_pose[4], current_pose[5]], a=0.8, v=0.2000)
    report_progress()
    set_digital_out(0, True)
    report_progress()
    new_pose = pose_trans(tuft_coords, p[0.4943, 0.7902, -0.0020, 0, 0, 0])
    movel(p[new_pose[0], new_pose[1], new_pose[2], current_pose[3], current_pose[4], current_pose[5]], a=1.2, v=0.0600)
    report_progress()
    set_digital_out(0, False)
    report_progress()
    new_pose = pose_trans(tuft_coords, p[0.4943, 0.7902, 0.1500, 0, 0, 0])
    movel(p[new_pose[0], new_pose[1], new_pose[2], current_pose[3], current_pose[4], current_pose[5]], a=0.8, v=0.2000)
    report_progress()
    new_pose = pose_trans(tuft_coords, p[0.4963, 0.2578, 0.1500, 0, 0, 0])
    movel(p[new_pose[0], new_pose[1], new_pose[2], current_pose[3], current_pose[4], current_pose[5]], a=1.2, v=0.2000)
    report_progress()
    new_pose = pose_trans(tuft_coords, p[0.4963, 0.2578, -0.0020, 0, 0, 0])
    movel(p[new_pose[0], new_pose[1], new_pose[2], current_pose[3], current_pose[4], current_pose[5]], a=0.8, v=0.2000)
    report_progress()
    set_digital_out(0, True)
    report_progress()
    new_pose = pose_trans(tuft_coords, p[0.4963, 0.7922, -0.0020, 0, 0, 0])
    movel(p[new_pose[0], new_pose[1], new_pose[2], current_pose[3], current_pose[4], current_pose[5]], a=1.2, v=0.0600)
    report_progress()
    set_digital_out(0, False)
    report_progress()
    new_pose = pose_trans(tuft_coords, p[0.4963, 0.7922, 0.1500, 0, 0, 0])
    movel(p[new_pose[0], new_pose[1], new_pose[2], current_pose[3], current_pose[4], current_pose[5]], a=0.8, v=0.2000)
    report_progress()
    new_pose = pose_trans(tuft_coords, p[0.4982, 0.2558, 0.1500, 0, 0, 0])
    movel(p[new_pose[0], new_pose[1], new_pose[2], current_pose[3], current_pose[4], current_pose[5]], a=1.2, v=0.2000)
    report_progress()
    new_pose = pose_trans(tuft_coords, p[0.4982, 0.2558, -0.0020, 0, 0, 0])
    movel(p[new_pose[0], new_pose[1], new_pose[2], current_pose[3], current_pose[4], current_pose[5]], a=0.8, v=0.2000)
    report_progress()
    set_digital_out(0, True)
    report_progress()
    new_pose = pose_trans(tuft_coords, p[0.4982, 0.7942, -0.0020, 0, 0, 0])
    movel(p[new_pose[0], new_pose[1], new_pose[2], current_pose[3], current_pose[4], current_pose[5]], a=1.2, v=0.0600)
    report_progress()
    set_digital_out(0, False)
    report_progress()
    new_pose = pose_trans(tuft_coords, p[0.4982, 0.7942, 0.1500, 0, 0, 0])
    movel(p[new_pose[0], new_pose[1], new_pose[2], current_pose[3], current_pose[4], current_pose[5]], a=0.8, v=0.2000)
    report_progress()
    new_pose = pose_trans(tuft_coords, p[0.5001, 0.2539, 0.1500, 0, 0, 0])
    movel(p[new_pose[0], new_pose[1], new_pose[2], current_pose[3], current_pose[4], current_pose[5]], a=1.2, v=0.2000)
    report_progress()
    new_pose = pose_trans(tuft_coords, p[0.5001, 0.2539, -0.0020, 0, 0, 0])
    movel(p[new_pose[0], new_pose[1], new_pose[2], current_pose[3], current_pose[4], current_pose[5]], a=0.8, v=0.2000)
    report_progress()
    set_digital_out(0, True)
    report_progress()
    new_pose = pose_trans(tuft_coords, p[0.5001, 0.7961, -0.0020, 0, 0, 0])
    movel(p[new_pose[0], new_pose[1], new_pose[2], current_pose[3], current_pose[4], current_pose[5]], a=1.2, v=0.0600)
    report_progress()
    set_digital_out(0, False)
    report_progress()
    new_pose = pose_trans(tuft_coords, p[0.5001, 0.7961, 0.1500, 0, 0, 0])
    movel(p[new_pose[0], new_pose[1], new_pose[2], current_pose[3], current_pose[4], current_pose[5]], a=0.8, v=0.2000)
    report_progress()
    new_pose = pose_trans(tuft_coords, p[0.5021, 0.2519, 0.1500, 0, 0, 0])
    movel(p[new_pose[0], new_pose[1], new_pose[2], current_pose[3], current_pose[4], current_pose[5]], a=1.2, v=0.2000)
    report_progress()
    new_pose = pose_trans(tuft_coords, p[0.5021, 0.2519, -0.0020, 0, 0, 0])
    movel(p[new_pose[0], new_pose[1], new_pose[2], current_pose[3], current_pose[4], current_pose[5]], a=0.8, v=0.2000)
    report_progress()
    set_digital_out(0, True)
    report_progress()
    new_pose = pose_trans(tuft_coords, p[0.5021, 0.7981, -0.0020, 0, 0, 0])
    movel(p[new_pose[0], new_pose[1], new_pose[2], current_pose[3], current_pose[4], current_pose[5]], a=1.2, v=0.0600)
    report_progress()
    set_digital_out(0, False)
    report_progress()
    new_pose = pose_trans(tuft_coords, p[0.5021, 0.7981, 0.1500, 0, 0, 0])
    movel(p[new_pose[0], new_pose[1], new_pose[2], current_pose[3], current_pose[4], current_pose[5]], a=0.8, v=0.2000)
    report_progress()
    new_pose = pose_trans(tuft_coords, p[0.5040, 0.2499, 0.1500, 0, 0, 0])
    movel(p[new_pose[0], new_pose[1], new_pose[2], current_pose[3], current_pose[4], current_pose[5]], a=1.2, v=0.2000)
    report_progress()
    new_pose = pose_trans(tuft_coords, p[0.5040, 0.2499, -0.0020, 0, 0, 0])
    movel(p[new_pose[0], new_pose[1], new_pose[2], current_pose[3], current_pose[4], current_pose[5]], a=0.8, v=0.2000)
    report_progress()
    set_digital_out(0, True)
    report_progress()
    new_pose = pose_trans(tuft_coords, p[0.5040, 0.8001, -0.0020, 0, 0, 0])
    movel(p[new_pose[0], new_pose[1], new_pose[2], current_pose[3], current_pose[4], current_pose[5]], a=1.2, v=0.0600)
    report_progress()
    set_digital_out(0, False)
    report_progress()
    new_pose = pose_trans(tuft_coords, p[0.5040, 0.8001, 0.1500, 0, 0, 0])
    movel(p[new_pose[0], new_pose[1], new_pose[2], current_pose[3], current_pose[4], current_pose[5]], a=0.8, v=0.2000)
    report_progress()
    new_pose = pose_trans(tuft_coords, p[0.5060, 0.2479, 0.1500, 0, 0, 0])
    movel(p[new_pose[0], new_pose[1], new_pose[2], current_pose[3], current_pose[4], current_pose[5]], a=1.2, v=0.2000)
    report_progress()
    new_pose = pose_trans(tuft_coords, p[0.5060, 0.2479, -0.0020, 0, 0, 0])
    movel(p[new_pose[0], new_pose[1], new_pose[2], current_pose[3], current_pose[4], current_pose[5]], a=0.8, v=0.2000)
    report_progress()
    set_digital_out(0, True)
    report_progress()
    new_pose = pose_trans(tuft_coords, p[0.5060, 0.8021, -0.0020, 0, 0, 0])
    movel(p[new_pose[0], new_pose[1], new_pose[2], current_pose[3], current_pose[4], current_pose[5]], a=1.2, v=0.0600)
    report_progress()
    set_digital_out(0, False)
    report_progress()
    new_pose = pose_trans(tuft_coords, p[0.5060, 0.8021, 0.1500, 0, 0, 0])
    movel(p[new_pose[0], new_pose[1], new_pose[2], current_pose[3], current_pose[4], current_pose[5]], a=0.8, v=0.2000)
    report_progress()
    new_pose = pose_trans(tuft_coords, p[0.5079, 0.2459, 0.1500, 0, 0, 0])
    movel(p[new_pose[0], new_pose[1], new_pose[2], current_pose[3], current_pose[4], current_pose[5]], a=1.2, v=0.2000)
    report_progress()
    new_pose = pose_trans(tuft_coords, p[0.5079, 0.2459, -0.0020, 0, 0, 0])
    movel(p[new_pose[0], new_pose[1], new_pose[2], current_pose[3], current_pose[4], current_pose[5]], a=0.8, v=0.2000)
    report_progress()
    set_digital_out(0, True)
    report_progress()
    new_pose = pose_trans(tuft_coords, p[0.5079, 0.8041, -0.0020, 0, 0, 0])
    movel(p[new_pose[0], new_pose[1], new_pose[2], current_pose[3], current_pose[4], current_pose[5]], a=1.2, v=0.0600)
    report_progress()
    set_digital_out(0, False)
    report_progress()
    new_pose = pose_trans(tuft_coords, p[0.5079, 0.8041, 0.1500, 0, 0, 0])
    movel(p[new_pose[0], new_pose[1], new_pose[2], current_pose[3], current_pose[4], current_pose[5]], a=0.8, v=0.2000)
    report_progress()
    new_pose = pose_trans(tuft_coords, p[0.5099, 0.2459, 0.1500, 0, 0, 0])
    movel(p[new_pose[0], new_pose[1], new_pose[2], current_pose[3], current_pose[4], current_pose[5]], a=1.2, v=0.2000)
    report_progress()
    new_pose = pose_trans(tuft_coords, p[0.5099, 0.2459, -0.0020, 0, 0, 0])
    movel(p[new_pose[0], new_pose[1], new_pose[2], current_pose[3], current_pose[4], current_pose[5]], a=0.8, v=0.2000)
    report_progress()
    set_digital_out(0, True)
    report_progress()
    new_pose = pose_trans(tuft_coords, p[0.5099, 0.8041, -0.0020, 0, 0, 0])
    movel(p[new_pose[0], new_pose[1], new_pose[2], current_pose[3], current_pose[4], current_pose[5]], a=1.2, v=0.0600)
    report_progress()
    set_digital_out(0, False)
    report_progress()
    new_pose = pose_trans(tuft_coords, p[0.5099, 0.8041, 0.1500, 0, 0, 0])
    movel(p[new_pose[0], new_pose[1], new_pose[2], current_pose[3], current_pose[4], current_pose[5]], a=0.8, v=0.2000)
    report_progress()
    new_pose = pose_trans(tuft_coords, p[0.5118, 0.2440, 0.1500, 0, 0, 0])
    movel(p[new_pose[0], new_pose[1], new_pose[2], current_pose[3], current_pose[4], current_pose[5]], a=1.2, v=0.2000)
    report_progress()
    new_pose = pose_trans(tuft_coords, p[0.5118, 0.2440, -0.0020, 0, 0, 0])
    movel(p[new_pose[0], new_pose[1], new_pose[2], current_pose[3], current_pose[4], current_pose[5]], a=0.8, v=0.2000)
    report_progress()
    set_digital_out(0, True)
    report_progress()
    new_pose = pose_trans(tuft_coords, p[0.5118, 0.8060, -0.0020, 0, 0, 0])
    movel(p[new_pose[0], new_pose[1], new_pose[2], current_pose[3], current_pose[4], current_pose[5]], a=1.2, v=0.0600)
    report_progress()
    set_digital_out(0, False)
    report_progress()
    new_pose = pose_trans(tuft_coords, p[0.5118, 0.8060, 0.1500, 0, 0, 0])
    movel(p[new_pose[0], new_pose[1], new_pose[2], current_pose[3], current_pose[4], current_pose[5]], a=0.8, v=0.2000)
    report_progress()
    new_pose = pose_trans(tuft_coords, p[0.5138, 0.2420, 0.1500, 0, 0, 0])
    movel(p[new_pose[0], new_pose[1], new_pose[2], current_pose[3], current_pose[4], current_pose[5]], a=1.2, v=0.2000)
    report_progress()
    new_pose = pose_trans(tuft_coords, p[0.5138, 0.2420, -0.0020, 0, 0, 0])
    movel(p[new_pose[0], new_pose[1], new_pose[2], current_pose[3], current_pose[4], current_pose[5]], a=0.8, v=0.2000)
    report_progress()
    set_digital_out(0, True)
    report_progress()
    new_pose = pose_trans(tuft_coords, p[0.5138, 0.8080, -0.0020, 0, 0, 0])
    movel(p[new_pose[0], new_pose[1], new_pose[2], current_pose[3], current_pose[4], current_pose[5]], a=1.2, v=0.0600)
    report_progress()
    set_digital_out(0, False)
    report_progress()
    new_pose = pose_trans(tuft_coords, p[0.5138, 0.8080, 0.1500, 0, 0, 0])
    movel(p[new_pose[0], new_pose[1], new_pose[2], current_pose[3], current_pose[4], current_pose[5]], a=0.8, v=0.2000)
    report_progress()
    new_pose = pose_trans(tuft_coords, p[0.5157, 0.2400, 0.1500, 0, 0, 0])
    movel(p[new_pose[0], new_pose[1], new_pose[2], current_pose[3], current_pose[4], current_pose[5]], a=1.2, v=0.2000)
    report_progress()
    new_pose = pose_trans(tuft_coords, p[0.5157, 0.2400, -0.0020, 0, 0, 0])
    movel(p[new_pose[0], new_pose[1], new_pose[2], current_pose[3], current_pose[4], current_pose[5]], a=0.8, v=0.2000)
    report_progress()
    set_digital_out(0, True)
    report_progress()
    new_pose = pose_trans(tuft_coords, p[0.5157, 0.8100, -0.0020, 0, 0, 0])
    movel(p[new_pose[0], new_pose[1], new_pose[2], current_pose[3], current_pose[4], current_pose[5]], a=1.2, v=0.0600)
    report_progress()
    set_digital_out(0, False)
    report_progress()
    new_pose = pose_trans(tuft_coords, p[0.5157, 0.8100, 0.1500, 0, 0, 0])
    movel(p[new_pose[0], new_pose[1], new_pose[2], current_pose[3], current_pose[4], current_pose[5]], a=0.8, v=0.2000)
    report_progress()
    new_pose = pose_trans(tuft_coords, p[0.5176, 0.2380, 0.1500, 0, 0, 0])
    movel(p[new_pose[0], new_pose[1], new_pose[2], current_pose[3], current_pose[4], current_pose[5]], a=1.2, v=0.2000)
    report_progress()
    new_pose = pose_trans(tuft_coords, p[0.5176, 0.2380, -0.0020, 0, 0, 0])
    movel(p[new_pose[0], new_pose[1], new_pose[2], current_pose[3], current_pose[4], current_pose[5]], a=0.8, v=0.2000)
    report_progress()
    set_digital_out(0, True)
    report_progress()
    new_pose = pose_trans(tuft_coords, p[0.5176, 0.8120, -0.0020, 0, 0, 0])
    movel(p[new_pose[0], new_pose[1], new_pose[2], current_pose[3], current_pose[4], current_pose[5]], a=1.2, v=0.0600)
    report_progress()
    set_digital_out(0, False)
    report_progress()
    new_pose = pose_trans(tuft_coords, p[0.5176, 0.8120, 0.1500, 0, 0, 0])
    movel(p[new_pose[0], new_pose[1], new_pose[2], current_pose[3], current_pose[4], current_pose[5]], a=0.8, v=0.2000)
    report_progress()
    new_pose = pose_trans(tuft_coords, p[0.5196, 0.2360, 0.1500, 0, 0, 0])
    movel(p[new_pose[0], new_pose[1], new_pose[2], current_pose[3], current_pose[4], current_pose[5]], a=1.2, v=0.2000)
    report_progress()
    new_pose = pose_trans(tuft_coords, p[0.5196, 0.2360, -0.0020, 0, 0, 0])
    movel(p[new_pose[0], new_pose[1], new_pose[2], current_pose[3], current_pose[4], current_pose[5]], a=0.8, v=0.2000)
    report_progress()
    set_digital_out(0, True)
    report_progress()
    new_pose = pose_trans(tuft_coords, p[0.5196, 0.8140, -0.0020, 0, 0, 0])
    movel(p[new_pose[0], new_pose[1], new_pose[2], current_pose[3], current_pose[4], current_pose[5]], a=1.2, v=0.0600)
    report_progress()
    set_digital_out(0, False)
    report_progress()
    new_pose = pose_trans(tuft_coords, p[0.5196, 0.8140, 0.1500, 0, 0, 0])
    movel(p[new_pose[0], new_pose[1], new_pose[2], current_pose[3], current_pose[4], current_pose[5]], a=0.8, v=0.2000)
    report_progress()
    new_pose = pose_trans(tuft_coords, p[0.5215, 0.2341, 0.1500, 0, 0, 0])
    movel(p[new_pose[0], new_pose[1], new_pose[2], current_pose[3], current_pose[4], current_pose[5]], a=1.2, v=0.2000)
    report_progress()
    new_pose = pose_trans(tuft_coords, p[0.5215, 0.2341, -0.0020, 0, 0, 0])
    movel(p[new_pose[0], new_pose[1], new_pose[2], current_pose[3], current_pose[4], current_pose[5]], a=0.8, v=0.2000)
    report_progress()
    set_digital_out(0, True)
    report_progress()
    new_pose = pose_trans(tuft_coords, p[0.5215, 0.8159, -0.0020, 0, 0, 0])
    movel(p[new_pose[0], new_pose[1], new_pose[2], current_pose[3], current_pose[4], current_pose[5]], a=1.2, v=0.0600)
    report_progress()
    set_digital_out(0, False)
    report_progress()
    new_pose = pose_trans(tuft_coords, p[0.5215, 0.8159, 0.1500, 0, 0, 0])
    movel(p[new_pose[0], new_pose[1], new_pose[2], current_pose[3], current_pose[4], current_pose[5]], a=0.8, v=0.2000)
    report_progress()
    new_pose = pose_trans(tuft_coords, p[0.5235, 0.2341, 0.1500, 0, 0, 0])
    movel(p[new_pose[0], new_pose[1], new_pose[2], current_pose[3], current_pose[4], current_pose[5]], a=1.2, v=0.2000)
    report_progress()
    new_pose = pose_trans(tuft_coords, p[0.5235, 0.2341, -0.0020, 0, 0, 0])
    movel(p[new_pose[0], new_pose[1], new_pose[2], current_pose[3], current_pose[4], current_pose[5]], a=0.8, v=0.2000)
    report_progress()
    set_digital_out(0, True)
    report_progress()
    new_pose = pose_trans(tuft_coords, p[0.5235, 0.8159, -0.0020, 0, 0, 0])
    movel(p[new_pose[0], new_pose[1], new_pose[2], current_pose[3], current_pose[4], current_pose[5]], a=1.2, v=0.0600)
    report_progress()
    set_digital_out(0, False)
    report_progress()
    new_pose = pose_trans(tuft_coords, p[0.5235, 0.8159, 0.1500, 0, 0, 0])
    movel(p[new_pose[0], new_pose[1], new_pose[2], current_pose[3], current_pose[4], current_pose[5]], a=0.8, v=0.2000)
    report_progress()
    new_pose = pose_trans(tuft_coords, p[0.5254, 0.2321, 0.1500, 0, 0, 0])
    movel(p[new_pose[0], new_pose[1], new_pose[2], current_pose[3], current_pose[4], current_pose[5]], a=1.2, v=0.2000)
    report_progress()
    new_pose = pose_trans(tuft_coords, p[0.5254, 0.2321, -0.0020, 0, 0, 0])
    movel(p[new_pose[0], new_pose[1], new_pose[2], current_pose[3], current_pose[4], current_pose[5]], a=0.8, v=0.2000)
    report_progress()
    set_digital_out(0, True)
    report_progress()
    new_pose = pose_trans(tuft_coords, p[0.5254, 0.8179, -0.0020, 0, 0, 0])
    movel(p[new_pose[0], new_pose[1], new_pose[2], current_pose[3], current_pose[4], current_pose[5]], a=1.2, v=0.0600)
    report_progress()
    set_digital_out(0, False)
    report_progress()
    new_pose = pose_trans(tuft_coords, p[0.5254, 0.8179, 0.1500, 0, 0, 0])
    movel(p[new_pose[0], new_pose[1], new_pose[2], current_pose[3], current_pose[4], current_pose[5]], a=0.8, v=0.2000)
    report_progress()
    new_pose = pose_trans(tuft_coords, p[0.5274, 0.2301, 0.1500, 0, 0, 0])
    movel(p[new_pose[0], new_pose[1], new_pose[2], current_pose[3], current_pose[4], current_pose[5]], a=1.2, v=0.2000)
    report_progress()
    new_pose = pose_trans(tuft_coords, p[0.5274, 0.2301, -0.0020, 0, 0, 0])
    movel(p[new_pose[0], new_pose[1], new_pose[2], current_pose[3], current_pose[4], current_pose[5]], a=0.8, v=0.2000)
    report_progress()
    set_digital_out(0, True)
    report_progress()
    new_pose = pose_trans(tuft_coords, p[0.5274, 0.8199, -0.0020, 0, 0, 0])
    movel(p[new_pose[0], new_pose[1], new_pose[2], current_pose[3], current_pose[4], current_pose[5]], a=1.2, v=0.0600)
    report_progress()
    set_digital_out(0, False)
    report_progress()
    new_pose = pose_trans(tuft_coords, p[0.5274, 0.8199, 0.1500, 0, 0, 0])
    movel(p[new_pose[0], new_pose[1], new_pose[2], current_pose[3], current_pose[4], current_pose[5]], a=0.8, v=0.2000)
    report_progress()
    new_pose = pose_trans(tuft_coords, p[0.5293, 0.2281, 0.1500, 0, 0, 0])
    movel(p[new_pose[0], new_pose[1], new_pose[2], current_pose[3], current_pose[4], current_pose[5]], a=1.2, v=0.2000)
    report_progress()
    new_pose = pose_trans(tuft_coords, p[0.5293, 0.2281, -0.0020, 0, 0, 0])
    movel(p[new_pose[0], new_pose[1], new_pose[2], current_pose[3], current_pose[4], current_pose[5]], a=0.8, v=0.2000)
    report_progress()
    set_digital_out(0, True)
    report_progress()
    new_pose = pose_trans(tuft_coords, p[0.5293, 0.8219, -0.0020, 0, 0, 0])
    movel(p[new_pose[0], new_pose[1], new_pose[2], current_pose[3], current_pose[4], current_pose[5]], a=1.2, v=0.0600)
    report_progress()
    set_digital_out(0, False)
    report_progress()
    new_pose = pose_trans(tuft_coords, p[0.5293, 0.8219, 0.1500, 0, 0, 0])
    movel(p[new_pose[0], new_pose[1], new_pose[2], current_pose[3], current_pose[4], current_pose[5]], a=0.8, v=0.2000)
    report_progress()
    new_pose = pose_trans(tuft_coords, p[0.5313, 0.2281, 0.1500, 0, 0, 0])
    movel(p[new_pose[0], new_pose[1], new_pose[2], current_pose[3], current_pose[4], current_pose[5]], a=1.2, v=0.2000)
    report_progress()
    new_pose = pose_trans(tuft_coords, p[0.5313, 0.2281, -0.0020, 0, 0, 0])
    movel(p[new_pose[0], new_pose[1], new_pose[2], current_pose[3], current_pose[4], current_pose[5]], a=0.8, v=0.2000)
    report_progress()
    set_digital_out(0, True)
    report_progress()
    new_pose = pose_trans(tuft_coords, p[0.5313, 0.8219, -0.0020, 0, 0, 0])
    movel(p[new_pose[0], new_pose[1], new_pose[2], current_pose[3], current_pose[4], current_pose[5]], a=1.2, v=0.0600)
    report_progress()
    set_digital_out(0, False)
    report_progress()
    new_pose = pose_trans(tuft_coords, p[0.5313, 0.8219, 0.1500, 0, 0, 0])
    movel(p[new_pose[0], new_pose[1], new_pose[2], current_pose[3], current_pose[4], current_pose[5]], a=0.8, v=0.2000)
    report_progress()
    new_pose = pose_trans(tuft_coords, p[0.5332, 0.2261, 0.1500, 0, 0, 0])
    movel(p[new_pose[0], new_pose[1], new_pose[2], current_pose[3], current_pose[4], current_pose[5]], a=1.2, v=0.2000)
    report_progress()
    new_pose = pose_trans(tuft_coords, p[0.5332, 0.2261, -0.0020, 0, 0, 0])
    movel(p[new_pose[0], new_pose[1], new_pose[2], current_pose[3], current_pose[4], current_pose[5]], a=0.8, v=0.2000)
    report_progress()
    set_digital_out(0, True)
    report_progress()
    new_pose = pose_trans(tuft_coords, p[0.5332, 0.8239, -0.0020, 0, 0, 0])
    movel(p[new_pose[0], new_pose[1], new_pose[2], current_pose[3], current_pose[4], current_pose[5]], a=1.2, v=0.0600)
    report_progress()
    set_digital_out(0, False)
    report_progress()
    new_pose = pose_trans(tuft_coords, p[0.5332, 0.8239, 0.1500, 0, 0, 0])
    movel(p[new_pose[0], new_pose[1], new_pose[2], current_pose[3], current_pose[4], current_pose[5]], a=0.8, v=0.2000)
    report_progress()
    new_pose = pose_trans(tuft_coords, p[0.5351, 0.2242, 0.1500, 0, 0, 0])
    movel(p[new_pose[0], new_pose[1], new_pose[2], current_pose[3], current_pose[4], current_pose[5]], a=1.2, v=0.2000)
    report_progress()
    new_pose = pose_trans(tuft_coords, p[0.5351, 0.2242, -0.0020, 0, 0, 0])
    movel(p[new_pose[0], new_pose[1], new_pose[2], current_pose[3], current_pose[4], current_pose[5]], a=0.8, v=0.2000)
    report_progress()
    set_digital_out(0, True)
    report_progress()
    new_pose = pose_trans(tuft_coords, p[0.5351, 0.8258, -0.0020, 0, 0, 0])
    movel(p[new_pose[0], new_pose[1], new_pose[2], current_pose[3], current_pose[4], current_pose[5]], a=1.2, v=0.0600)
    report_progress()
    set_digital_out(0, False)
    report_progress()
    new_pose = pose_trans(tuft_coords, p[0.5351, 0.8258, 0.1500, 0, 0, 0])
    movel(p[new_pose[0], new_pose[1], new_pose[2], current_pose[3], current_pose[4], current_pose[5]], a=0.8, v=0.2000)
    report_progress()
    new_pose = pose_trans(tuft_coords, p[0.5371, 0.2222, 0.1500, 0, 0, 0])
    movel(p[new_pose[0], new_pose[1], new_pose[2], current_pose[3], current_pose[4], current_pose[5]], a=1.2, v=0.2000)
    report_progress()
    new_pose = pose_trans(tuft_coords, p[0.5371, 0.2222, -0.0020, 0, 0, 0])
    movel(p[new_pose[0], new_pose[1], new_pose[2], current_pose[3], current_pose[4], current_pose[5]], a=0.8, v=0.2000)
    report_progress()
    set_digital_out(0, True)
    report_progress()
    new_pose = pose_trans(tuft_coords, p[0.5371, 0.8278, -0.0020, 0, 0, 0])
    movel(p[new_pose[0], new_pose[1], new_pose[2], current_pose[3], current_pose[4], current_pose[5]], a=1.2, v=0.0600)
    report_progress()
    set_digital_out(0, False)
    report_progress()
    new_pose = pose_trans(tuft_coords, p[0.5371, 0.8278, 0.1500, 0, 0, 0])
    movel(p[new_pose[0], new_pose[1], new_pose[2], current_pose[3], current_pose[4], current_pose[5]], a=0.8, v=0.2000)
    report_progress()
    new_pose = pose_trans(tuft_coords, p[0.5390, 0.2222, 0.1500, 0, 0, 0])
    movel(p[new_pose[0], new_pose[1], new_pose[2], current_pose[3], current_pose[4], current_pose[5]], a=1.2, v=0.2000)
    report_progress()
    new_pose = pose_trans(tuft_coords, p[0.5390, 0.2222, -0.0020, 0, 0, 0])
    movel(p[new_pose[0], new_pose[1], new_pose[2], current_pose[3], current_pose[4], current_pose[5]], a=0.8, v=0.2000)
    report_progress()
    set_digital_out(0, True)
    report_progress()
    new_pose = pose_trans(tuft_coords, p[0.5390, 0.8278, -0.0020, 0, 0, 0])
    movel(p[new_pose[0], new_pose[1], new_pose[2], current_pose[3], current_pose[4], current_pose[5]], a=1.2, v=0.0600)
    report_progress()
    set_digital_out(0, False)
    report_progress()
    new_pose = pose_trans(tuft_coords, p[0.5390, 0.8278, 0.1500, 0, 0, 0])
    movel(p[new_pose[0], new_pose[1], new_pose[2], current_pose[3], current_pose[4], current_pose[5]], a=0.8, v=0.2000)
    report_progress()
    new_pose = pose_trans(tuft_coords, p[0.5410, 0.2202, 0.1500, 0, 0, 0])
    movel(p[new_pose[0], new_pose[1], new_pose[2], current_pose[3], current_pose[4], current_pose[5]], a=1.2, v=0.2000)
    report_progress()
    new_pose = pose_trans(tuft_coords, p[0.5410, 0.2202, -0.0020, 0, 0, 0])
    movel(p[new_pose[0], new_pose[1], new_pose[2], current_pose[3], current_pose[4], current_pose[5]], a=0.8, v=0.2000)
    report_progress()
    set_digital_out(0, True)
    report_progress()
    new_pose = pose_trans(tuft_coords, p[0.5410, 0.8298, -0.0020, 0, 0, 0])
    movel(p[new_pose[0], new_pose[1], new_pose[2], current_pose[3], current_pose[4], current_pose[5]], a=1.2, v=0.0600)
    report_progress()
    set_digital_out(0, False)
    report_progress()
    new_pose = pose_trans(tuft_coords, p[0.5410, 0.8298, 0.1500, 0, 0, 0])
    movel(p[new_pose[0], new_pose[1], new_pose[2], current_pose[3], current_pose[4], current_pose[5]], a=0.8, v=0.2000)
    report_progress()
    new_pose = pose_trans(tuft_coords, p[0.5429, 0.2182, 0.1500, 0, 0, 0])
    movel(p[new_pose[0], new_pose[1], new_pose[2], current_pose[3], current_pose[4], current_pose[5]], a=1.2, v=0.2000)
    report_progress()
    new_pose = pose_trans(tuft_coords, p[0.5429, 0.2182, -0.0020, 0, 0, 0])
    movel(p[new_pose[0], new_pose[1], new_pose[2], current_pose[3], current_pose[4], current_pose[5]], a=0.8, v=0.2000)
    report_progress()
    set_digital_out(0, True)
    report_progress()
    new_pose = pose_trans(tuft_coords, p[0.5429, 0.8318, -0.0020, 0, 0, 0])
    movel(p[new_pose[0], new_pose[1], new_pose[2], current_pose[3], current_pose[4], current_pose[5]], a=1.2, v=0.0600)
    report_progress()
    set_digital_out(0, False)
    report_progress()
    new_pose = pose_trans(tuft_coords, p[0.5429, 0.8318, 0.1500, 0, 0, 0])
    movel(p[new_pose[0], new_pose[1], new_pose[2], current_pose[3], current_pose[4], current_pose[5]], a=0.8, v=0.2000)
    report_progress()
    new_pose = pose_trans(tuft_coords, p[0.5449, 0.2182, 0.1500, 0, 0, 0])
    movel(p[new_pose[0], new_pose[1], new_pose[2], current_pose[3], current_pose[4], current_pose[5]], a=1.2, v=0.2000)
    report_progress()
    new_pose = pose_trans(tuft_coords, p[0.5449, 0.2182, -0.0020, 0, 0, 0])
    movel(p[new_pose[0], new_pose[1], new_pose[2], current_pose[3], current_pose[4], current_pose[5]], a=0.8, v=0.2000)
    report_progress()
    set_digital_out(0, True)
    report_progress()
    new_pose = pose_trans(tuft_coords, p[0.5449, 0.8318, -0.0020, 0, 0, 0])
    movel(p[new_pose[0], new_pose[1], new_pose[2], current_pose[3], current_pose[4], current_pose[5]], a=1.2, v=0.0600)
    report_progress()
    set_digital_out(0, False)
    report_progress()
    new_pose = pose_trans(tuft_coords, p[0.5449, 0.8318, 0.1500, 0, 0, 0])
    movel(p[new_pose[0], new_pose[1], new_pose[2], current_pose[3], current_pose[4], current_pose[5]], a=0.8, v=0.2000)
    report_progress()
    new_pose = pose_trans(tuft_coords, p[0.5468, 0.2162, 0.1500, 0, 0, 0])
    movel(p[new_pose[0], new_pose[1], new_pose[2], current_pose[3], current_pose[4], current_pose[5]], a=1.2, v=0.2000)
    report_progress()
    new_pose = pose_trans(tuft_coords, p[0.5468, 0.2162, -0.0020, 0, 0, 0])
    movel(p[new_pose[0], new_pose[1], new_pose[2], current_pose[3], current_pose[4], current_pose[5]], a=0.8, v=0.2000)
    report_progress()
    set_digital_out(0, True)
    report_progress()
    new_pose = pose_trans(tuft_coords, p[0.5468, 0.8337, -0.0020, 0, 0, 0])
    movel(p[new_pose[0], new_pose[1], new_pose[2], current_pose[3], current_pose[4], current_pose[5]], a=1.2, v=0.0600)
    report_progress()
    set_digital_out(0, False)
    report_progress()
    new_pose = pose_trans(tuft_coords, p[0.5468, 0.8337, 0.1500, 0, 0, 0])
    movel(p[new_pose[0], new_pose[1], new_pose[2], current_pose[3], current_pose[4], current_pose[5]], a=0.8, v=0.2000)
    report_progress()
    new_pose = pose_trans(tuft_coords, p[0.5487, 0.2143, 0.1500, 0, 0, 0])
    movel(p[new_pose[0], new_pose[1], new_pose[2], current_pose[3], current_pose[4], current_pose[5]], a=1.2, v=0.2000)
    report_progress()
    new_pose = pose_trans(tuft_coords, p[0.5487, 0.2143, -0.0020, 0, 0, 0])
    movel(p[new_pose[0], new_pose[1], new_pose[2], current_pose[3], current_pose[4], current_pose[5]], a=0.8, v=0.2000)
    report_progress()
    set_digital_out(0, True)
    report_progress()
    new_pose = pose_trans(tuft_coords, p[0.5487, 0.8357, -0.0020, 0, 0, 0])
    movel(p[new_pose[0], new_pose[1], new_pose[2], current_pose[3], current_pose[4], current_pose[5]], a=1.2, v=0.0600)
    report_progress()
    set_digital_out(0, False)
    report_progress()
    new_pose = pose_trans(tuft_coords, p[0.5487, 0.8357, 0.1500, 0, 0, 0])
    movel(p[new_pose[0], new_pose[1], new_pose[2], current_pose[3], current_pose[4], current_pose[5]], a=0.8, v=0.2000)
    report_progress()
    new_pose = pose_trans(tuft_coords, p[0.5507, 0.2143, 0.1500, 0, 0, 0])
    movel(p[new_pose[0], new_pose[1], new_pose[2], current_pose[3], current_pose[4], current_pose[5]], a=1.2, v=0.2000)
    report_progress()
    new_pose = pose_trans(tuft_coords, p[0.5507, 0.2143, -0.0020, 0, 0, 0])
    movel(p[new_pose[0], new_pose[1], new_pose[2], current_pose[3], current_pose[4], current_pose[5]], a=0.8, v=0.2000)
    report_progress()
    set_digital_out(0, True)
    report_progress()
    new_pose = pose_trans(tuft_coords, p[0.5507, 0.8357, -0.0020, 0, 0, 0])
    movel(p[new_pose[0], new_pose[1], new_pose[2], current_pose[3], current_pose[4], current_pose[5]], a=1.2, v=0.0600)
    report_progress()
    set_digital_out(0, False)
    report_progress()
    new_pose = pose_trans(tuft_coords, p[0.5507, 0.8357, 0.1500, 0, 0, 0])
    movel(p[new_pose[0], new_pose[1], new_pose[2], current_pose[3], current_pose[4], current_pose[5]], a=0.8, v=0.2000)
    report_progress()
    new_pose = pose_trans(tuft_coords, p[0.5526, 0.2123, 0.1500, 0, 0, 0])
    movel(p[new_pose[0], new_pose[1], new_pose[2], current_pose[3], current_pose[4], current_pose[5]], a=1.2, v=0.2000)
    report_progress()
    new_pose = pose_trans(tuft_coords, p[0.5526, 0.2123, -0.0020, 0, 0, 0])
    movel(p[new_pose[0], new_pose[1], new_pose[2], current_pose[3], current_pose[4], current_pose[5]], a=0.8, v=0.2000)
    report_progress()
    set_digital_out(0, True)
    report_progress()
    new_pose = pose_trans(tuft_coords, p[0.5526, 0.8377, -0.0020, 0, 0, 0])
    movel(p[new_pose[0], new_pose[1], new_pose[2], current_pose[3], current_pose[4], current_pose[5]], a=1.2, v=0.0600)
    report_progress()
    set_digital_out(0, False)
    report_progress()
    new_pose = pose_trans(tuft_coords, p[0.5526, 0.8377, 0.1500, 0, 0, 0])
    movel(p[new_pose[0], new_pose[1], new_pose[2], current_pose[3], current_pose[4], current_pose[5]], a=0.8, v=0.2000)
    report_progress()
    new_pose = pose_trans(tuft_coords, p[0.5546, 0.2103, 0.1500, 0, 0, 0])
    movel(p[new_pose[0], new_pose[1], new_pose[2], current_pose[3], current_pose[4], current_pose[5]], a=1.2, v=0.2000)
    report_progress()
    new_pose = pose_trans(tuft_coords, p[0.5546, 0.2103, -0.0020, 0, 0, 0])
    movel(p[new_pose[0], new_pose[1], new_pose[2], current_pose[3], current_pose[4], current_pose[5]], a=0.8, v=0.2000)
    report_progress()
    set_digital_out(0, True)
    report_progress()
    new_pose = pose_trans(tuft_coords, p[0.5546, 0.8397, -0.0020, 0, 0, 0])
    movel(p[new_pose[0], new_pose[1], new_pose[2], current_pose[3], current_pose[4], current_pose[5]], a=1.2, v=0.0600)
    report_progress()
    set_digital_out(0, False)
    report_progress()
    new_pose = pose_trans(tuft_coords, p[0.5546, 0.8397, 0.1500, 0, 0, 0])
    movel(p[new_pose[0], new_pose[1], new_pose[2], current_pose[3], current_pose[4], current_pose[5]], a=0.8, v=0.2000)
    report_progress()
    new_pose = pose_trans(tuft_coords, p[0.5565, 0.2103, 0.1500, 0, 0, 0])
    movel(p[new_pose[0], new_pose[1], new_pose[2], current_pose[3], current_pose[4], current_pose[5]], a=1.2, v=0.2000)
    report_progress()
    new_pose = pose_trans(tuft_coords, p[0.5565, 0.2103, -0.0020, 0, 0, 0])
    movel(p[new_pose[0], new_pose[1], new_pose[2], current_pose[3], current_pose[4], current_pose[5]], a=0.8, v=0.2000)
    report_progress()
    set_digital_out(0, True)
    report_progress()
    new_pose = pose_trans(tuft_coords, p[0.5565, 0.8397, -0.0020, 0, 0, 0])
    movel(p[new_pose[0], new_pose[1], new_pose[2], current_pose[3], current_pose[4], current_pose[5]], a=1.2, v=0.0600)
    report_progress()
    set_digital_out(0, False)
    report_progress()
    new_pose = pose_trans(tuft_coords, p[0.5565, 0.8397, 0.1500, 0, 0, 0])
    movel(p[new_pose[0], new_pose[1], new_pose[2], current_pose[3], current_pose[4], current_pose[5]], a=0.8, v=0.2000)
    report_progress()
    new_pose = pose_trans(tuft_coords, p[0.5585, 0.2083, 0.1500, 0, 0, 0])
    movel(p[new_pose[0], new_pose[1], new_pose[2], current_pose[3], current_pose[4], current_pose[5]], a=1.2, v=0.2000)
    report_progress()
    new_pose = pose_trans(tuft_coords, p[0.5585, 0.2083, -0.0020, 0, 0, 0])
    movel(p[new_pose[0], new_pose[1], new_pose[2], current_pose[3], current_pose[4], current_pose[5]], a=0.8, v=0.2000)
    report_progress()
    set_digital_out(0, True)
    report_progress()
    new_pose = pose_trans(tuft_coords, p[0.5585, 0.8417, -0.0020, 0, 0, 0])
    movel(p[new_pose[0], new_pose[1], new_pose[2], current_pose[3], current_pose[4], current_pose[5]], a=1.2, v=0.0600)
    report_progress()
    set_digital_out(0, False)
    report_progress()
    new_pose = pose_trans(tuft_coords, p[0.5585, 0.8417, 0.1500, 0, 0, 0])
    movel(p[new_pose[0], new_pose[1], new_pose[2], current_pose[3], current_pose[4], current_pose[5]], a=0.8, v=0.2000)
    report_progress()
    new_pose = pose_trans(tuft_coords, p[0.5604, 0.2083, 0.1500, 0, 0, 0])
    movel(p[new_pose[0], new_pose[1], new_pose[2], current_pose[3], current_pose[4], current_pose[5]], a=1.2, v=0.2000)
    report_progress()
    new_pose = pose_trans(tuft_coords, p[0.5604, 0.2083, -0.0020, 0, 0, 0])
    movel(p[new_pose[0], new_pose[1], new_pose[2], current_pose[3], current_pose[4], current_pose[5]], a=0.8, v=0.2000)
    report_progress()
    set_digital_out(0, True)
    report_progress()
    new_pose = pose_trans(tuft_coords, p[0.5604, 0.8417, -0.0020, 0, 0, 0])
    movel(p[new_pose[0], new_pose[1], new_pose[2], current_pose[3], current_pose[4], current_pose[5]], a=1.2, v=0.0600)
    report_progress()
    set_digital_out(0, False)
    report_progress()
    new_pose = pose_trans(tuft_coords, p[0.5604, 0.8417, 0.1500, 0, 0, 0])
    movel(p[new_pose[0], new_pose[1], new_pose[2], current_pose[3], current_pose[4], current_pose[5]], a=0.8, v=0.2000)
    report_progress()
    new_pose = pose_trans(tuft_coords, p[0.5624, 0.2064, 0.1500, 0, 0, 0])
    movel(p[new_pose[0], new_pose[1], new_pose[2], current_pose[3], current_pose[4], current_pose[5]], a=1.2, v=0.2000)
    report_progress()
    new_pose = pose_trans(tuft_coords, p[0.5624, 0.2064, -0.0020, 0, 0, 0])
    movel(p[new_pose[0], new_pose[1], new_pose[2], current_pose[3], current_pose[4], current_pose[5]], a=0.8, v=0.2000)
    report_progress()
    set_digital_out(0, True)
    report_progress()
    new_pose = pose_trans(tuft_coords, p[0.5624, 0.8436, -0.0020, 0, 0, 0])
    movel(p[new_pose[0], new_pose[1], new_pose[2], current_pose[3], current_pose[4], current_pose[5]], a=1.2, v=0.0600)
    report_progress()
    set_digital_out(0, False)
    report_progress()
    new_pose = pose_trans(tuft_coords, p[0.5624, 0.8436, 0.1500, 0, 0, 0])
    movel(p[new_pose[0], new_pose[1], new_pose[2], current_pose[3], current_pose[4], current_pose[5]], a=0.8, v=0.2000)
    report_progress()
    new_pose = pose_trans(tuft_coords, p[0.5643, 0.2044, 0.1500, 0, 0, 0])
    movel(p[new_pose[0], new_pose[1], new_pose[2], current_pose[3], current_pose[4], current_pose[5]], a=1.2, v=0.2000)
    report_progress()
    new_pose = pose_trans(tuft_coords, p[0.5643, 0.2044, -0.0020, 0, 0, 0])
    movel(p[new_pose[0], new_pose[1], new_pose[2], current_pose[3], current_pose[4], current_pose[5]], a=0.8, v=0.2000)
    report_progress()
    set_digital_out(0, True)
    report_progress()
    new_pose = pose_trans(tuft_coords, p[0.5643, 0.8456, -0.0020, 0, 0, 0])
    movel(p[new_pose[0], new_pose[1], new_pose[2], current_pose[3], current_pose[4], current_pose[5]], a=1.2, v=0.0600)
    report_progress()
    set_digital_out(0, False)
    report_progress()
    new_pose = pose_trans(tuft_coords, p[0.5643, 0.8456, 0.1500, 0, 0, 0])
    movel(p[new_pose[0], new_pose[1], new_pose[2], current_pose[3], current_pose[4], current_pose[5]], a=0.8, v=0.2000)
    report_progress()
    new_pose = pose_trans(tuft_coords, p[0.5663, 0.2044, 0.1500, 0, 0, 0])
    movel(p[new_pose[0], new_pose[1], new_pose[2], current_pose[3], current_pose[4], current_pose[5]], a=1.2, v=0.2000)
    report_progress()
    new_pose = pose_trans(tuft_coords, p[0.5663, 0.2044, -0.0020, 0, 0, 0])
    movel(p[new_pose[0], new_pose[1], new_pose[2], current_pose[3], current_pose[4], current_pose[5]], a=0.8, v=0.2000)
    report_progress()
    set_digital_out(0, True)
    report_progress()
    new_pose = pose_trans(tuft_coords, p[0.5663, 0.8456, -0.0020, 0, 0, 0])
    movel(p[new_pose[0], new_pose[1], new_pose[2], current_pose[3], current_pose[4], current_pose[5]], a=1.2, v=0.0600)
    report_progress()
    set_digital_out(0, False)
    report_progress()
    new_pose = pose_trans(tuft_coords, p[0.5663, 0.8456, 0.1500, 0, 0, 0])
    movel(p[new_pose[0], new_pose[1], new_pose[2], current_pose[3], current_pose[4], current_pose[5]], a=0.8, v=0.2000)
    report_progress()
    new_pose = pose_trans(tuft_coords, p[0.5682, 0.2024, 0.1500, 0, 0, 0])
    movel(p[new_pose[0], new_pose[1], new_pose[2], current_pose[3], current_pose[4], current_pose[5]], a=1.2, v=0.2000)
    report_progress()
    new_pose = pose_trans(tuft_coords, p[0.5682, 0.2024, -0.0020, 0, 0, 0])
    movel(p[new_pose[0], new_pose[1], new_pose[2], current_pose[3], current_pose[4], current_pose[5]], a=0.8, v=0.2000)
    report_progress()
    set_digital_out(0, True)
    report_progress()
    new_pose = pose_trans(tuft_coords, p[0.5682, 0.8476, -0.0020, 0, 0, 0])
    movel(p[new_pose[0], new_pose[1], new_pose[2], current_pose[3], current_pose[4], current_pose[5]], a=1.2, v=0.0600)
    report_progress()
    set_digital_out(0, False)
    report_progress()
    new_pose = pose_trans(tuft_coords, p[0.5682, 0.8476, 0.1500, 0, 0, 0])
    movel(p[new_pose[0], new_pose[1], new_pose[2], current_pose[3], current_pose[4], current_pose[5]], a=0.8, v=0.2000)
    report_progress()
    new_pose = pose_trans(tuft_coords, p[0.5701, 0.2024, 0.1500, 0, 0, 0])
    movel(p[new_pose[0], new_pose[1], new_pose[2], current_pose[3], current_pose[4], current_pose[5]], a=1.2, v=0.2000)
    report_progress()
    new_pose = pose_trans(tuft_coords, p[0.5701, 0.2024, -0.0020, 0, 0, 0])
    movel(p[new_pose[0], new_pose[1], new_pose[2], current_pose[3], current_pose[4], current_pose[5]], a=0.8, v=0.2000)
    report_progress()
    set_digital_out(0, True)
    report_progress()
    new_pose = pose_trans(tuft_coords, p[0.5701, 0.8476, -0.0020, 0, 0, 0])
    movel(p[new_pose[0], new_pose[1], new_pose[2], current_pose[3], current_pose[4], current_pose[5]], a=1.2, v=0.0600)
    report_progress()
    set_digital_out(0, False)
    report_progress()
    new_pose = pose_trans(tuft_coords, p[0.5701, 0.8476, 0.1500, 0, 0, 0])
    movel(p[new_pose[0], new_pose[1], new_pose[2], current_pose[3], current_pose[4], current_pose[5]], a=0.8, v=0.2000)
    report_progress()
    new_pose = pose_trans(tuft_coords, p[0.5721, 0.2004, 0.1500, 0, 0, 0])
    movel(p[new_pose[0], new_pose[1], new_pose[2], current_pose[3], current_pose[4], current_pose[5]], a=1.2, v=0.2000)
    report_progress()
    new_pose = pose_trans(tuft_coords, p[0.5721, 0.2004, -0.0020, 0, 0, 0])
    movel(p[new_pose[0], new_pose[1], new_pose[2], current_pose[3], current_pose[4], current_pose[5]], a=0.8, v=0.2000)
    report_progress()
    set_digital_out(0, True)
    report_progress()
    new_pose = pose_trans(tuft_coords, p[0.5721, 0.8496, -0.0020, 0, 0, 0])
    movel(p[new_pose[0], new_pose[1], new_pose[2], current_pose[3], current_pose[4], current_pose[5]], a=1.2, v=0.0600)
    report_progress()
    set_digital_out(0, False)
    report_progress()
    new_pose = pose_trans(tuft_coords, p[0.5721, 0.8496, 0.1500, 0, 0, 0])
    movel(p[new_pose[0], new_pose[1], new_pose[2], current_pose[3], current_pose[4], current_pose[5]], a=0.8, v=0.2000)
    report_progress()
    new_pose = pose_trans(tuft_coords, p[0.5740, 0.1984, 0.1500, 0, 0, 0])
    movel(p[new_pose[0], new_pose[1], new_pose[2], current_pose[3], current_pose[4], current_pose[5]], a=1.2, v=0.2000)
    report_progress()
    new_pose = pose_trans(tuft_coords, p[0.5740, 0.1984, -0.0020, 0, 0, 0])
    movel(p[new_pose[0], new_pose[1], new_pose[2], current_pose[3], current_pose[4], current_pose[5]], a=0.8, v=0.2000)
    report_progress()
    set_digital_out(0, True)
    report_progress()
    new_pose = pose_trans(tuft_coords, p[0.5740, 0.8516, -0.0020, 0, 0, 0])
    movel(p[new_pose[0], new_pose[1], new_pose[2], current_pose[3], current_pose[4], current_pose[5]], a=1.2, v=0.0600)
    report_progress()
    set_digital_out(0, False)
    report_progress()
    new_pose = pose_trans(tuft_coords, p[0.5740, 0.8516, 0.1500, 0, 0, 0])
    movel(p[new_pose[0], new_pose[1], new_pose[2], current_pose[3], current_pose[4], current_pose[5]], a=0.8, v=0.2000)
    report_progress()
    new_pose = pose_trans(tuft_coords, p[0.5760, 0.1984, 0.1500, 0, 0, 0])
    movel(p[new_pose[0], new_pose[1], new_pose[2], current_pose[3], current_pose[4], current_pose[5]], a=1.2, v=0.2000)
    report_progress()
    new_pose = pose_trans(tuft_coords, p[0.5760, 0.1984, -0.0020, 0, 0, 0])
    movel(p[new_pose[0], new_pose[1], new_pose[2], current_pose[3], current_pose[4], current_pose[5]], a=0.8, v=0.2000)
    report_progress()
    set_digital_out(0, True)
    report_progress()
    new_pose = pose_trans(tuft_coords, p[0.5760, 0.8516, -0.0020, 0, 0, 0])
    movel(p[new_pose[0], new_pose[1], new_pose[2], current_pose[3], current_pose[4], current_pose[5]], a=1.2, v=0.0600)
    report_progress()
    set_digital_out(0, False)
    report_progress()
    new_pose = pose_trans(tuft_coords, p[0.5760, 0.8516, 0.1500, 0, 0, 0])
    movel(p[new_pose[0], new_pose[1], new_pose[2], current_pose[3], current_pose[4], current_pose[5]], a=0.8, v=0.2000)
    report_progress()
    new_pose = pose_trans(tuft_coords, p[0.5779, 0.1965, 0.1500, 0, 0, 0])
    movel(p[new_pose[0], new_pose[1], new_pose[2], current_pose[3], current_pose[4], current_pose[5]], a=1.2, v=0.2000)
    report_progress()
    new_pose = pose_trans(tuft_coords, p[0.5779, 0.1965, -0.0020, 0, 0, 0])
    movel(p[new_pose[0], new_pose[1], new_pose[2], current_pose[3], current_pose[4], current_pose[5]], a=0.8, v=0.2000)
    report_progress()
    set_digital_out(0, True)
    report_progress()
    new_pose = pose_trans(tuft_coords, p[0.5779, 0.8535, -0.0020, 0, 0, 0])
    movel(p[new_pose[0], new_pose[1], new_pose[2], current_pose[3], current_pose[4], current_pose[5]], a=1.2, v=0.0600)
    report_progress()
    set_digital_out(0, False)
    report_progress()
    new_pose = pose_trans(tuft_coords, p[0.5779, 0.8535, 0.1500, 0, 0, 0])
    movel(p[new_pose[0], new_pose[1], new_pose[2], current_pose[3], current_pose[4], current_pose[5]], a=0.8, v=0.2000)
    report_progress()
    new_pose = pose_trans(tuft_coords, p[0.5799, 0.1965, 0.1500, 0, 0, 0])
    movel(p[new_pose[0], new_pose[1], new_pose[2], current_pose[3], current_pose[4], current_pose[5]], a=1.2, v=0.2000)
    report_progress()
    new_pose = pose_trans(tuft_coords, p[0.5799, 0.1965, -0.0020, 0, 0, 0])
    movel(p[new_pose[0], new_pose[1], new_pose[2], current_pose[3], current_pose[4], current_pose[5]], a=0.8, v=0.2000)
    report_progress()
    set_digital_out(0, True)
    report_progress()
    new_pose = pose_trans(tuft_coords, p[0.5799, 0.8535, -0.0020, 0, 0, 0])
    movel(p[new_pose[0], new_pose[1], new_pose[2], current_pose[3], current_pose[4], current_pose[5]], a=1.2, v=0.0600)
    report_progress()
    set_digital_out(0, False)
    report_progress()
    new_pose = pose_trans(tuft_coords, p[0.5799, 0.8535, 0.1500, 0, 0, 0])
    movel(p[new_pose[0], new_pose[1], new_pose[2], current_pose[3], current_pose[4], current_pose[5]], a=0.8, v=0.2000)
    report_progress()
    new_pose = pose_trans(tuft_coords, p[0.5818, 0.1945, 0.1500, 0, 0, 0])
    movel(p[new_pose[0], new_pose[1], new_pose[2], current_pose[3], current_pose[4], current_pose[5]], a=1.2, v=0.2000)
    report_progress()
    new_pose = pose_trans(tuft_coords, p[0.5818, 0.1945, -0.0020, 0, 0, 0])
    movel(p[new_pose[0], new_pose[1], new_pose[2], current_pose[3], current_pose[4], current_pose[5]], a=0.8, v=0.2000)
    report_progress()
    set_digital_out(0, True)
    report_progress()
    new_pose = pose_trans(tuft_coords, p[0.5818, 0.8555, -0.0020, 0, 0, 0])
