def tuft_program():
    global tuft_coords = p[-0.743799, 1.270828, -0.183331, 1.574839, 0.004352, -0.002073]
    global current_pose = p[0,0,0,-1.19353,1.19941,1.24224]
    textmsg("Starting tufting job test-1.jpg")
    current_pose = get_actual_tcp_pose()
    textmsg("current_pose: ", current_pose)
    textmsg("Using coordinate frame tuft_coords")
    set_digital_out(0, False)
    global travel_speed = 0.2000
    global tuft_speed = 0.0600
    global contact_force_threshold = 15.00
    global contact_probe_step = 0.0010
    new_pose = pose_trans(tuft_coords, p[0.1198, 0.2401, 0.1500, 0, 0, 0])
    movel(p[new_pose[0], new_pose[1], new_pose[2], current_pose[3], current_pose[4], current_pose[5]], a=1.2, v=0.2000)
    local contact_pose = get_actual_tcp_pose()
    while norm(get_tcp_force()) < contact_force_threshold and contact_pose[2] > 0.1450:
        contact_pose := pose_trans(contact_pose, p[0, 0, -contact_probe_step, 0, 0, 0])
        movel(contact_pose, a=0.8, v=0.2000)
    end
    if contact_pose[2] > 0.1450:
        new_pose = pose_trans(tuft_coords, p[0.1198, 0.2401, 0.1450, 0, 0, 0])
        movel(p[new_pose[0], new_pose[1], new_pose[2], current_pose[3], current_pose[4], current_pose[5]], a=0.8, v=0.2000)
    end
    set_digital_out(0, True)
    new_pose = pose_trans(tuft_coords, p[0.1198, 0.2599, 0.1450, 0, 0, 0])
    movel(p[new_pose[0], new_pose[1], new_pose[2], current_pose[3], current_pose[4], current_pose[5]], a=1.2, v=0.0600)
    set_digital_out(0, False)
    new_pose = pose_trans(tuft_coords, p[0.1198, 0.2599, 0.1500, 0, 0, 0])
    movel(p[new_pose[0], new_pose[1], new_pose[2], current_pose[3], current_pose[4], current_pose[5]], a=0.8, v=0.2000)
    new_pose = pose_trans(tuft_coords, p[0.1205, 0.2276, 0.1500, 0, 0, 0])
    movel(p[new_pose[0], new_pose[1], new_pose[2], current_pose[3], current_pose[4], current_pose[5]], a=1.2, v=0.2000)
    local contact_pose = get_actual_tcp_pose()
    while norm(get_tcp_force()) < contact_force_threshold and contact_pose[2] > 0.1450:
        contact_pose := pose_trans(contact_pose, p[0, 0, -contact_probe_step, 0, 0, 0])
        movel(contact_pose, a=0.8, v=0.2000)
    end
    if contact_pose[2] > 0.1450:
        new_pose = pose_trans(tuft_coords, p[0.1205, 0.2276, 0.1450, 0, 0, 0])
        movel(p[new_pose[0], new_pose[1], new_pose[2], current_pose[3], current_pose[4], current_pose[5]], a=0.8, v=0.2000)
    end
    set_digital_out(0, True)
    new_pose = pose_trans(tuft_coords, p[0.1205, 0.2724, 0.1450, 0, 0, 0])
    movel(p[new_pose[0], new_pose[1], new_pose[2], current_pose[3], current_pose[4], current_pose[5]], a=1.2, v=0.0600)
    set_digital_out(0, False)
    new_pose = pose_trans(tuft_coords, p[0.1205, 0.2724, 0.1500, 0, 0, 0])
    movel(p[new_pose[0], new_pose[1], new_pose[2], current_pose[3], current_pose[4], current_pose[5]], a=0.8, v=0.2000)
    new_pose = pose_trans(tuft_coords, p[0.1212, 0.2203, 0.1500, 0, 0, 0])
    movel(p[new_pose[0], new_pose[1], new_pose[2], current_pose[3], current_pose[4], current_pose[5]], a=1.2, v=0.2000)
    local contact_pose = get_actual_tcp_pose()
    while norm(get_tcp_force()) < contact_force_threshold and contact_pose[2] > 0.1450:
        contact_pose := pose_trans(contact_pose, p[0, 0, -contact_probe_step, 0, 0, 0])
        movel(contact_pose, a=0.8, v=0.2000)
    end
    if contact_pose[2] > 0.1450:
        new_pose = pose_trans(tuft_coords, p[0.1212, 0.2203, 0.1450, 0, 0, 0])
        movel(p[new_pose[0], new_pose[1], new_pose[2], current_pose[3], current_pose[4], current_pose[5]], a=0.8, v=0.2000)
    end
    set_digital_out(0, True)
    new_pose = pose_trans(tuft_coords, p[0.1212, 0.2797, 0.1450, 0, 0, 0])
    movel(p[new_pose[0], new_pose[1], new_pose[2], current_pose[3], current_pose[4], current_pose[5]], a=1.2, v=0.0600)
    set_digital_out(0, False)
    new_pose = pose_trans(tuft_coords, p[0.1212, 0.2797, 0.1500, 0, 0, 0])
    movel(p[new_pose[0], new_pose[1], new_pose[2], current_pose[3], current_pose[4], current_pose[5]], a=0.8, v=0.2000)
    new_pose = pose_trans(tuft_coords, p[0.1219, 0.2141, 0.1500, 0, 0, 0])
    movel(p[new_pose[0], new_pose[1], new_pose[2], current_pose[3], current_pose[4], current_pose[5]], a=1.2, v=0.2000)
    local contact_pose = get_actual_tcp_pose()
    while norm(get_tcp_force()) < contact_force_threshold and contact_pose[2] > 0.1450:
        contact_pose := pose_trans(contact_pose, p[0, 0, -contact_probe_step, 0, 0, 0])
        movel(contact_pose, a=0.8, v=0.2000)
    end
    if contact_pose[2] > 0.1450:
        new_pose = pose_trans(tuft_coords, p[0.1219, 0.2141, 0.1450, 0, 0, 0])
        movel(p[new_pose[0], new_pose[1], new_pose[2], current_pose[3], current_pose[4], current_pose[5]], a=0.8, v=0.2000)
    end
    set_digital_out(0, True)
    new_pose = pose_trans(tuft_coords, p[0.1219, 0.2859, 0.1450, 0, 0, 0])
    movel(p[new_pose[0], new_pose[1], new_pose[2], current_pose[3], current_pose[4], current_pose[5]], a=1.2, v=0.0600)
    set_digital_out(0, False)
    new_pose = pose_trans(tuft_coords, p[0.1219, 0.2859, 0.1500, 0, 0, 0])
    movel(p[new_pose[0], new_pose[1], new_pose[2], current_pose[3], current_pose[4], current_pose[5]], a=0.8, v=0.2000)
    new_pose = pose_trans(tuft_coords, p[0.1226, 0.2089, 0.1500, 0, 0, 0])
    movel(p[new_pose[0], new_pose[1], new_pose[2], current_pose[3], current_pose[4], current_pose[5]], a=1.2, v=0.2000)
    local contact_pose = get_actual_tcp_pose()
    while norm(get_tcp_force()) < contact_force_threshold and contact_pose[2] > 0.1450:
        contact_pose := pose_trans(contact_pose, p[0, 0, -contact_probe_step, 0, 0, 0])
        movel(contact_pose, a=0.8, v=0.2000)
    end
    if contact_pose[2] > 0.1450:
        new_pose = pose_trans(tuft_coords, p[0.1226, 0.2089, 0.1450, 0, 0, 0])
        movel(p[new_pose[0], new_pose[1], new_pose[2], current_pose[3], current_pose[4], current_pose[5]], a=0.8, v=0.2000)
    end
    set_digital_out(0, True)
    new_pose = pose_trans(tuft_coords, p[0.1226, 0.2911, 0.1450, 0, 0, 0])
    movel(p[new_pose[0], new_pose[1], new_pose[2], current_pose[3], current_pose[4], current_pose[5]], a=1.2, v=0.0600)
    set_digital_out(0, False)
    new_pose = pose_trans(tuft_coords, p[0.1226, 0.2911, 0.1500, 0, 0, 0])
    movel(p[new_pose[0], new_pose[1], new_pose[2], current_pose[3], current_pose[4], current_pose[5]], a=0.8, v=0.2000)
    new_pose = pose_trans(tuft_coords, p[0.1233, 0.2047, 0.1500, 0, 0, 0])
    movel(p[new_pose[0], new_pose[1], new_pose[2], current_pose[3], current_pose[4], current_pose[5]], a=1.2, v=0.2000)
    local contact_pose = get_actual_tcp_pose()
    while norm(get_tcp_force()) < contact_force_threshold and contact_pose[2] > 0.1450:
        contact_pose := pose_trans(contact_pose, p[0, 0, -contact_probe_step, 0, 0, 0])
        movel(contact_pose, a=0.8, v=0.2000)
    end
    if contact_pose[2] > 0.1450:
        new_pose = pose_trans(tuft_coords, p[0.1233, 0.2047, 0.1450, 0, 0, 0])
        movel(p[new_pose[0], new_pose[1], new_pose[2], current_pose[3], current_pose[4], current_pose[5]], a=0.8, v=0.2000)
    end
    set_digital_out(0, True)
    new_pose = pose_trans(tuft_coords, p[0.1233, 0.2953, 0.1450, 0, 0, 0])
    movel(p[new_pose[0], new_pose[1], new_pose[2], current_pose[3], current_pose[4], current_pose[5]], a=1.2, v=0.0600)
    set_digital_out(0, False)
    new_pose = pose_trans(tuft_coords, p[0.1233, 0.2953, 0.1500, 0, 0, 0])
    movel(p[new_pose[0], new_pose[1], new_pose[2], current_pose[3], current_pose[4], current_pose[5]], a=0.8, v=0.2000)
    new_pose = pose_trans(tuft_coords, p[0.1240, 0.2005, 0.1500, 0, 0, 0])
    movel(p[new_pose[0], new_pose[1], new_pose[2], current_pose[3], current_pose[4], current_pose[5]], a=1.2, v=0.2000)
    local contact_pose = get_actual_tcp_pose()
    while norm(get_tcp_force()) < contact_force_threshold and contact_pose[2] > 0.1450:
        contact_pose := pose_trans(contact_pose, p[0, 0, -contact_probe_step, 0, 0, 0])
        movel(contact_pose, a=0.8, v=0.2000)
    end
    if contact_pose[2] > 0.1450:
        new_pose = pose_trans(tuft_coords, p[0.1240, 0.2005, 0.1450, 0, 0, 0])
        movel(p[new_pose[0], new_pose[1], new_pose[2], current_pose[3], current_pose[4], current_pose[5]], a=0.8, v=0.2000)
    end
    set_digital_out(0, True)
    new_pose = pose_trans(tuft_coords, p[0.1240, 0.2995, 0.1450, 0, 0, 0])
    movel(p[new_pose[0], new_pose[1], new_pose[2], current_pose[3], current_pose[4], current_pose[5]], a=1.2, v=0.0600)
    set_digital_out(0, False)
    new_pose = pose_trans(tuft_coords, p[0.1240, 0.2995, 0.1500, 0, 0, 0])
    movel(p[new_pose[0], new_pose[1], new_pose[2], current_pose[3], current_pose[4], current_pose[5]], a=0.8, v=0.2000)
    new_pose = pose_trans(tuft_coords, p[0.1247, 0.1964, 0.1500, 0, 0, 0])
    movel(p[new_pose[0], new_pose[1], new_pose[2], current_pose[3], current_pose[4], current_pose[5]], a=1.2, v=0.2000)
    local contact_pose = get_actual_tcp_pose()
    while norm(get_tcp_force()) < contact_force_threshold and contact_pose[2] > 0.1450:
        contact_pose := pose_trans(contact_pose, p[0, 0, -contact_probe_step, 0, 0, 0])
        movel(contact_pose, a=0.8, v=0.2000)
    end
    if contact_pose[2] > 0.1450:
        new_pose = pose_trans(tuft_coords, p[0.1247, 0.1964, 0.1450, 0, 0, 0])
        movel(p[new_pose[0], new_pose[1], new_pose[2], current_pose[3], current_pose[4], current_pose[5]], a=0.8, v=0.2000)
    end
    set_digital_out(0, True)
    new_pose = pose_trans(tuft_coords, p[0.1247, 0.3036, 0.1450, 0, 0, 0])
    movel(p[new_pose[0], new_pose[1], new_pose[2], current_pose[3], current_pose[4], current_pose[5]], a=1.2, v=0.0600)
    set_digital_out(0, False)
    new_pose = pose_trans(tuft_coords, p[0.1247, 0.3036, 0.1500, 0, 0, 0])
    movel(p[new_pose[0], new_pose[1], new_pose[2], current_pose[3], current_pose[4], current_pose[5]], a=0.8, v=0.2000)
    new_pose = pose_trans(tuft_coords, p[0.1253, 0.1932, 0.1500, 0, 0, 0])
    movel(p[new_pose[0], new_pose[1], new_pose[2], current_pose[3], current_pose[4], current_pose[5]], a=1.2, v=0.2000)
    local contact_pose = get_actual_tcp_pose()
    while norm(get_tcp_force()) < contact_force_threshold and contact_pose[2] > 0.1450:
        contact_pose := pose_trans(contact_pose, p[0, 0, -contact_probe_step, 0, 0, 0])
        movel(contact_pose, a=0.8, v=0.2000)
    end
    if contact_pose[2] > 0.1450:
        new_pose = pose_trans(tuft_coords, p[0.1253, 0.1932, 0.1450, 0, 0, 0])
        movel(p[new_pose[0], new_pose[1], new_pose[2], current_pose[3], current_pose[4], current_pose[5]], a=0.8, v=0.2000)
    end
    set_digital_out(0, True)
    new_pose = pose_trans(tuft_coords, p[0.1253, 0.3068, 0.1450, 0, 0, 0])
    movel(p[new_pose[0], new_pose[1], new_pose[2], current_pose[3], current_pose[4], current_pose[5]], a=1.2, v=0.0600)
    set_digital_out(0, False)
    new_pose = pose_trans(tuft_coords, p[0.1253, 0.3068, 0.1500, 0, 0, 0])
    movel(p[new_pose[0], new_pose[1], new_pose[2], current_pose[3], current_pose[4], current_pose[5]], a=0.8, v=0.2000)
    new_pose = pose_trans(tuft_coords, p[0.1260, 0.1901, 0.1500, 0, 0, 0])
    movel(p[new_pose[0], new_pose[1], new_pose[2], current_pose[3], current_pose[4], current_pose[5]], a=1.2, v=0.2000)
    local contact_pose = get_actual_tcp_pose()
    while norm(get_tcp_force()) < contact_force_threshold and contact_pose[2] > 0.1450:
        contact_pose := pose_trans(contact_pose, p[0, 0, -contact_probe_step, 0, 0, 0])
        movel(contact_pose, a=0.8, v=0.2000)
    end
    if contact_pose[2] > 0.1450:
        new_pose = pose_trans(tuft_coords, p[0.1260, 0.1901, 0.1450, 0, 0, 0])
        movel(p[new_pose[0], new_pose[1], new_pose[2], current_pose[3], current_pose[4], current_pose[5]], a=0.8, v=0.2000)
    end
    set_digital_out(0, True)
    new_pose = pose_trans(tuft_coords, p[0.1260, 0.3099, 0.1450, 0, 0, 0])
    movel(p[new_pose[0], new_pose[1], new_pose[2], current_pose[3], current_pose[4], current_pose[5]], a=1.2, v=0.0600)
    set_digital_out(0, False)
    new_pose = pose_trans(tuft_coords, p[0.1260, 0.3099, 0.1500, 0, 0, 0])
    movel(p[new_pose[0], new_pose[1], new_pose[2], current_pose[3], current_pose[4], current_pose[5]], a=0.8, v=0.2000)
    new_pose = pose_trans(tuft_coords, p[0.1267, 0.1870, 0.1500, 0, 0, 0])
    movel(p[new_pose[0], new_pose[1], new_pose[2], current_pose[3], current_pose[4], current_pose[5]], a=1.2, v=0.2000)
    local contact_pose = get_actual_tcp_pose()
    while norm(get_tcp_force()) < contact_force_threshold and contact_pose[2] > 0.1450:
        contact_pose := pose_trans(contact_pose, p[0, 0, -contact_probe_step, 0, 0, 0])
        movel(contact_pose, a=0.8, v=0.2000)
    end
    if contact_pose[2] > 0.1450:
        new_pose = pose_trans(tuft_coords, p[0.1267, 0.1870, 0.1450, 0, 0, 0])
        movel(p[new_pose[0], new_pose[1], new_pose[2], current_pose[3], current_pose[4], current_pose[5]], a=0.8, v=0.2000)
    end
    set_digital_out(0, True)
    new_pose = pose_trans(tuft_coords, p[0.1267, 0.3130, 0.1450, 0, 0, 0])
    movel(p[new_pose[0], new_pose[1], new_pose[2], current_pose[3], current_pose[4], current_pose[5]], a=1.2, v=0.0600)
    set_digital_out(0, False)
    new_pose = pose_trans(tuft_coords, p[0.1267, 0.3130, 0.1500, 0, 0, 0])
    movel(p[new_pose[0], new_pose[1], new_pose[2], current_pose[3], current_pose[4], current_pose[5]], a=0.8, v=0.2000)
    new_pose = pose_trans(tuft_coords, p[0.1274, 0.1839, 0.1500, 0, 0, 0])
    movel(p[new_pose[0], new_pose[1], new_pose[2], current_pose[3], current_pose[4], current_pose[5]], a=1.2, v=0.2000)
    local contact_pose = get_actual_tcp_pose()
    while norm(get_tcp_force()) < contact_force_threshold and contact_pose[2] > 0.1450:
        contact_pose := pose_trans(contact_pose, p[0, 0, -contact_probe_step, 0, 0, 0])
        movel(contact_pose, a=0.8, v=0.2000)
    end
    if contact_pose[2] > 0.1450:
        new_pose = pose_trans(tuft_coords, p[0.1274, 0.1839, 0.1450, 0, 0, 0])
        movel(p[new_pose[0], new_pose[1], new_pose[2], current_pose[3], current_pose[4], current_pose[5]], a=0.8, v=0.2000)
    end
    set_digital_out(0, True)
    new_pose = pose_trans(tuft_coords, p[0.1274, 0.3161, 0.1450, 0, 0, 0])
    movel(p[new_pose[0], new_pose[1], new_pose[2], current_pose[3], current_pose[4], current_pose[5]], a=1.2, v=0.0600)
    set_digital_out(0, False)
    new_pose = pose_trans(tuft_coords, p[0.1274, 0.3161, 0.1500, 0, 0, 0])
    movel(p[new_pose[0], new_pose[1], new_pose[2], current_pose[3], current_pose[4], current_pose[5]], a=0.8, v=0.2000)
    new_pose = pose_trans(tuft_coords, p[0.1281, 0.1807, 0.1500, 0, 0, 0])
    movel(p[new_pose[0], new_pose[1], new_pose[2], current_pose[3], current_pose[4], current_pose[5]], a=1.2, v=0.2000)
    local contact_pose = get_actual_tcp_pose()
    while norm(get_tcp_force()) < contact_force_threshold and contact_pose[2] > 0.1450:
        contact_pose := pose_trans(contact_pose, p[0, 0, -contact_probe_step, 0, 0, 0])
        movel(contact_pose, a=0.8, v=0.2000)
    end
    if contact_pose[2] > 0.1450:
        new_pose = pose_trans(tuft_coords, p[0.1281, 0.1807, 0.1450, 0, 0, 0])
        movel(p[new_pose[0], new_pose[1], new_pose[2], current_pose[3], current_pose[4], current_pose[5]], a=0.8, v=0.2000)
    end
    set_digital_out(0, True)
    new_pose = pose_trans(tuft_coords, p[0.1281, 0.3193, 0.1450, 0, 0, 0])
    movel(p[new_pose[0], new_pose[1], new_pose[2], current_pose[3], current_pose[4], current_pose[5]], a=1.2, v=0.0600)
    set_digital_out(0, False)
    new_pose = pose_trans(tuft_coords, p[0.1281, 0.3193, 0.1500, 0, 0, 0])
    movel(p[new_pose[0], new_pose[1], new_pose[2], current_pose[3], current_pose[4], current_pose[5]], a=0.8, v=0.2000)
    new_pose = pose_trans(tuft_coords, p[0.1288, 0.1786, 0.1500, 0, 0, 0])
    movel(p[new_pose[0], new_pose[1], new_pose[2], current_pose[3], current_pose[4], current_pose[5]], a=1.2, v=0.2000)
    local contact_pose = get_actual_tcp_pose()
    while norm(get_tcp_force()) < contact_force_threshold and contact_pose[2] > 0.1450:
        contact_pose := pose_trans(contact_pose, p[0, 0, -contact_probe_step, 0, 0, 0])
        movel(contact_pose, a=0.8, v=0.2000)
    end
    if contact_pose[2] > 0.1450:
        new_pose = pose_trans(tuft_coords, p[0.1288, 0.1786, 0.1450, 0, 0, 0])
        movel(p[new_pose[0], new_pose[1], new_pose[2], current_pose[3], current_pose[4], current_pose[5]], a=0.8, v=0.2000)
    end
    set_digital_out(0, True)
    new_pose = pose_trans(tuft_coords, p[0.1288, 0.3224, 0.1450, 0, 0, 0])
    movel(p[new_pose[0], new_pose[1], new_pose[2], current_pose[3], current_pose[4], current_pose[5]], a=1.2, v=0.0600)
    set_digital_out(0, False)
    new_pose = pose_trans(tuft_coords, p[0.1288, 0.3224, 0.1500, 0, 0, 0])
    movel(p[new_pose[0], new_pose[1], new_pose[2], current_pose[3], current_pose[4], current_pose[5]], a=0.8, v=0.2000)
    new_pose = pose_trans(tuft_coords, p[0.1295, 0.1755, 0.1500, 0, 0, 0])
    movel(p[new_pose[0], new_pose[1], new_pose[2], current_pose[3], current_pose[4], current_pose[5]], a=1.2, v=0.2000)
    local contact_pose = get_actual_tcp_pose()
    while norm(get_tcp_force()) < contact_force_threshold and contact_pose[2] > 0.1450:
        contact_pose := pose_trans(contact_pose, p[0, 0, -contact_probe_step, 0, 0, 0])
        movel(contact_pose, a=0.8, v=0.2000)
    end
    if contact_pose[2] > 0.1450:
        new_pose = pose_trans(tuft_coords, p[0.1295, 0.1755, 0.1450, 0, 0, 0])
        movel(p[new_pose[0], new_pose[1], new_pose[2], current_pose[3], current_pose[4], current_pose[5]], a=0.8, v=0.2000)
    end
    set_digital_out(0, True)
    new_pose = pose_trans(tuft_coords, p[0.1295, 0.3245, 0.1450, 0, 0, 0])
    movel(p[new_pose[0], new_pose[1], new_pose[2], current_pose[3], current_pose[4], current_pose[5]], a=1.2, v=0.0600)
    set_digital_out(0, False)
    new_pose = pose_trans(tuft_coords, p[0.1295, 0.3245, 0.1500, 0, 0, 0])
    movel(p[new_pose[0], new_pose[1], new_pose[2], current_pose[3], current_pose[4], current_pose[5]], a=0.8, v=0.2000)
    new_pose = pose_trans(tuft_coords, p[0.1302, 0.1734, 0.1500, 0, 0, 0])
    movel(p[new_pose[0], new_pose[1], new_pose[2], current_pose[3], current_pose[4], current_pose[5]], a=1.2, v=0.2000)
    local contact_pose = get_actual_tcp_pose()
    while norm(get_tcp_force()) < contact_force_threshold and contact_pose[2] > 0.1450:
        contact_pose := pose_trans(contact_pose, p[0, 0, -contact_probe_step, 0, 0, 0])
        movel(contact_pose, a=0.8, v=0.2000)
    end
    if contact_pose[2] > 0.1450:
        new_pose = pose_trans(tuft_coords, p[0.1302, 0.1734, 0.1450, 0, 0, 0])
        movel(p[new_pose[0], new_pose[1], new_pose[2], current_pose[3], current_pose[4], current_pose[5]], a=0.8, v=0.2000)
    end
    set_digital_out(0, True)
    new_pose = pose_trans(tuft_coords, p[0.1302, 0.3266, 0.1450, 0, 0, 0])
    movel(p[new_pose[0], new_pose[1], new_pose[2], current_pose[3], current_pose[4], current_pose[5]], a=1.2, v=0.0600)
    set_digital_out(0, False)
    new_pose = pose_trans(tuft_coords, p[0.1302, 0.3266, 0.1500, 0, 0, 0])
    movel(p[new_pose[0], new_pose[1], new_pose[2], current_pose[3], current_pose[4], current_pose[5]], a=0.8, v=0.2000)
    new_pose = pose_trans(tuft_coords, p[0.1309, 0.1703, 0.1500, 0, 0, 0])
    movel(p[new_pose[0], new_pose[1], new_pose[2], current_pose[3], current_pose[4], current_pose[5]], a=1.2, v=0.2000)
    local contact_pose = get_actual_tcp_pose()
    while norm(get_tcp_force()) < contact_force_threshold and contact_pose[2] > 0.1450:
        contact_pose := pose_trans(contact_pose, p[0, 0, -contact_probe_step, 0, 0, 0])
        movel(contact_pose, a=0.8, v=0.2000)
    end
    if contact_pose[2] > 0.1450:
        new_pose = pose_trans(tuft_coords, p[0.1309, 0.1703, 0.1450, 0, 0, 0])
        movel(p[new_pose[0], new_pose[1], new_pose[2], current_pose[3], current_pose[4], current_pose[5]], a=0.8, v=0.2000)
    end
    set_digital_out(0, True)
    new_pose = pose_trans(tuft_coords, p[0.1309, 0.3297, 0.1450, 0, 0, 0])
    movel(p[new_pose[0], new_pose[1], new_pose[2], current_pose[3], current_pose[4], current_pose[5]], a=1.2, v=0.0600)
    set_digital_out(0, False)
    new_pose = pose_trans(tuft_coords, p[0.1309, 0.3297, 0.1500, 0, 0, 0])
    movel(p[new_pose[0], new_pose[1], new_pose[2], current_pose[3], current_pose[4], current_pose[5]], a=0.8, v=0.2000)
    new_pose = pose_trans(tuft_coords, p[0.1316, 0.1682, 0.1500, 0, 0, 0])
    movel(p[new_pose[0], new_pose[1], new_pose[2], current_pose[3], current_pose[4], current_pose[5]], a=1.2, v=0.2000)
    local contact_pose = get_actual_tcp_pose()
    while norm(get_tcp_force()) < contact_force_threshold and contact_pose[2] > 0.1450:
        contact_pose := pose_trans(contact_pose, p[0, 0, -contact_probe_step, 0, 0, 0])
        movel(contact_pose, a=0.8, v=0.2000)
    end
    if contact_pose[2] > 0.1450:
        new_pose = pose_trans(tuft_coords, p[0.1316, 0.1682, 0.1450, 0, 0, 0])
        movel(p[new_pose[0], new_pose[1], new_pose[2], current_pose[3], current_pose[4], current_pose[5]], a=0.8, v=0.2000)
    end
    set_digital_out(0, True)
    new_pose = pose_trans(tuft_coords, p[0.1316, 0.3318, 0.1450, 0, 0, 0])
    movel(p[new_pose[0], new_pose[1], new_pose[2], current_pose[3], current_pose[4], current_pose[5]], a=1.2, v=0.0600)
    set_digital_out(0, False)
    new_pose = pose_trans(tuft_coords, p[0.1316, 0.3318, 0.1500, 0, 0, 0])
    movel(p[new_pose[0], new_pose[1], new_pose[2], current_pose[3], current_pose[4], current_pose[5]], a=0.8, v=0.2000)
    new_pose = pose_trans(tuft_coords, p[0.1323, 0.1661, 0.1500, 0, 0, 0])
    movel(p[new_pose[0], new_pose[1], new_pose[2], current_pose[3], current_pose[4], current_pose[5]], a=1.2, v=0.2000)
    local contact_pose = get_actual_tcp_pose()
    while norm(get_tcp_force()) < contact_force_threshold and contact_pose[2] > 0.1450:
        contact_pose := pose_trans(contact_pose, p[0, 0, -contact_probe_step, 0, 0, 0])
        movel(contact_pose, a=0.8, v=0.2000)
    end
    if contact_pose[2] > 0.1450:
        new_pose = pose_trans(tuft_coords, p[0.1323, 0.1661, 0.1450, 0, 0, 0])
        movel(p[new_pose[0], new_pose[1], new_pose[2], current_pose[3], current_pose[4], current_pose[5]], a=0.8, v=0.2000)
    end
    set_digital_out(0, True)
    new_pose = pose_trans(tuft_coords, p[0.1323, 0.3339, 0.1450, 0, 0, 0])
    movel(p[new_pose[0], new_pose[1], new_pose[2], current_pose[3], current_pose[4], current_pose[5]], a=1.2, v=0.0600)
    set_digital_out(0, False)
    new_pose = pose_trans(tuft_coords, p[0.1323, 0.3339, 0.1500, 0, 0, 0])
    movel(p[new_pose[0], new_pose[1], new_pose[2], current_pose[3], current_pose[4], current_pose[5]], a=0.8, v=0.2000)
    new_pose = pose_trans(tuft_coords, p[0.1330, 0.1641, 0.1500, 0, 0, 0])
    movel(p[new_pose[0], new_pose[1], new_pose[2], current_pose[3], current_pose[4], current_pose[5]], a=1.2, v=0.2000)
    local contact_pose = get_actual_tcp_pose()
    while norm(get_tcp_force()) < contact_force_threshold and contact_pose[2] > 0.1450:
        contact_pose := pose_trans(contact_pose, p[0, 0, -contact_probe_step, 0, 0, 0])
        movel(contact_pose, a=0.8, v=0.2000)
    end
    if contact_pose[2] > 0.1450:
        new_pose = pose_trans(tuft_coords, p[0.1330, 0.1641, 0.1450, 0, 0, 0])
        movel(p[new_pose[0], new_pose[1], new_pose[2], current_pose[3], current_pose[4], current_pose[5]], a=0.8, v=0.2000)
    end
    set_digital_out(0, True)
    new_pose = pose_trans(tuft_coords, p[0.1330, 0.3359, 0.1450, 0, 0, 0])
    movel(p[new_pose[0], new_pose[1], new_pose[2], current_pose[3], current_pose[4], current_pose[5]], a=1.2, v=0.0600)
    set_digital_out(0, False)
    new_pose = pose_trans(tuft_coords, p[0.1330, 0.3359, 0.1500, 0, 0, 0])
    movel(p[new_pose[0], new_pose[1], new_pose[2], current_pose[3], current_pose[4], current_pose[5]], a=0.8, v=0.2000)
    new_pose = pose_trans(tuft_coords, p[0.1337, 0.1620, 0.1500, 0, 0, 0])
    movel(p[new_pose[0], new_pose[1], new_pose[2], current_pose[3], current_pose[4], current_pose[5]], a=1.2, v=0.2000)
    local contact_pose = get_actual_tcp_pose()
    while norm(get_tcp_force()) < contact_force_threshold and contact_pose[2] > 0.1450:
        contact_pose := pose_trans(contact_pose, p[0, 0, -contact_probe_step, 0, 0, 0])
        movel(contact_pose, a=0.8, v=0.2000)
    end
    if contact_pose[2] > 0.1450:
        new_pose = pose_trans(tuft_coords, p[0.1337, 0.1620, 0.1450, 0, 0, 0])
        movel(p[new_pose[0], new_pose[1], new_pose[2], current_pose[3], current_pose[4], current_pose[5]], a=0.8, v=0.2000)
    end
    set_digital_out(0, True)
    new_pose = pose_trans(tuft_coords, p[0.1337, 0.3380, 0.1450, 0, 0, 0])
    movel(p[new_pose[0], new_pose[1], new_pose[2], current_pose[3], current_pose[4], current_pose[5]], a=1.2, v=0.0600)
    set_digital_out(0, False)
    new_pose = pose_trans(tuft_coords, p[0.1337, 0.3380, 0.1500, 0, 0, 0])
    movel(p[new_pose[0], new_pose[1], new_pose[2], current_pose[3], current_pose[4], current_pose[5]], a=0.8, v=0.2000)
    new_pose = pose_trans(tuft_coords, p[0.1344, 0.1599, 0.1500, 0, 0, 0])
    movel(p[new_pose[0], new_pose[1], new_pose[2], current_pose[3], current_pose[4], current_pose[5]], a=1.2, v=0.2000)
    local contact_pose = get_actual_tcp_pose()
    while norm(get_tcp_force()) < contact_force_threshold and contact_pose[2] > 0.1450:
        contact_pose := pose_trans(contact_pose, p[0, 0, -contact_probe_step, 0, 0, 0])
        movel(contact_pose, a=0.8, v=0.2000)
    end
    if contact_pose[2] > 0.1450:
        new_pose = pose_trans(tuft_coords, p[0.1344, 0.1599, 0.1450, 0, 0, 0])
        movel(p[new_pose[0], new_pose[1], new_pose[2], current_pose[3], current_pose[4], current_pose[5]], a=0.8, v=0.2000)
    end
    set_digital_out(0, True)
    new_pose = pose_trans(tuft_coords, p[0.1344, 0.3401, 0.1450, 0, 0, 0])
    movel(p[new_pose[0], new_pose[1], new_pose[2], current_pose[3], current_pose[4], current_pose[5]], a=1.2, v=0.0600)
    set_digital_out(0, False)
    new_pose = pose_trans(tuft_coords, p[0.1344, 0.3401, 0.1500, 0, 0, 0])
    movel(p[new_pose[0], new_pose[1], new_pose[2], current_pose[3], current_pose[4], current_pose[5]], a=0.8, v=0.2000)
    new_pose = pose_trans(tuft_coords, p[0.1351, 0.1578, 0.1500, 0, 0, 0])
    movel(p[new_pose[0], new_pose[1], new_pose[2], current_pose[3], current_pose[4], current_pose[5]], a=1.2, v=0.2000)
    local contact_pose = get_actual_tcp_pose()
    while norm(get_tcp_force()) < contact_force_threshold and contact_pose[2] > 0.1450:
        contact_pose := pose_trans(contact_pose, p[0, 0, -contact_probe_step, 0, 0, 0])
        movel(contact_pose, a=0.8, v=0.2000)
    end
    if contact_pose[2] > 0.1450:
        new_pose = pose_trans(tuft_coords, p[0.1351, 0.1578, 0.1450, 0, 0, 0])
        movel(p[new_pose[0], new_pose[1], new_pose[2], current_pose[3], current_pose[4], current_pose[5]], a=0.8, v=0.2000)
    end
    set_digital_out(0, True)
    new_pose = pose_trans(tuft_coords, p[0.1351, 0.3422, 0.1450, 0, 0, 0])
    movel(p[new_pose[0], new_pose[1], new_pose[2], current_pose[3], current_pose[4], current_pose[5]], a=1.2, v=0.0600)
    set_digital_out(0, False)
    new_pose = pose_trans(tuft_coords, p[0.1351, 0.3422, 0.1500, 0, 0, 0])
    movel(p[new_pose[0], new_pose[1], new_pose[2], current_pose[3], current_pose[4], current_pose[5]], a=0.8, v=0.2000)
    new_pose = pose_trans(tuft_coords, p[0.1358, 0.1557, 0.1500, 0, 0, 0])
    movel(p[new_pose[0], new_pose[1], new_pose[2], current_pose[3], current_pose[4], current_pose[5]], a=1.2, v=0.2000)
    local contact_pose = get_actual_tcp_pose()
    while norm(get_tcp_force()) < contact_force_threshold and contact_pose[2] > 0.1450:
        contact_pose := pose_trans(contact_pose, p[0, 0, -contact_probe_step, 0, 0, 0])
        movel(contact_pose, a=0.8, v=0.2000)
    end
    if contact_pose[2] > 0.1450:
        new_pose = pose_trans(tuft_coords, p[0.1358, 0.1557, 0.1450, 0, 0, 0])
        movel(p[new_pose[0], new_pose[1], new_pose[2], current_pose[3], current_pose[4], current_pose[5]], a=0.8, v=0.2000)
    end
    set_digital_out(0, True)
    new_pose = pose_trans(tuft_coords, p[0.1358, 0.3443, 0.1450, 0, 0, 0])
    movel(p[new_pose[0], new_pose[1], new_pose[2], current_pose[3], current_pose[4], current_pose[5]], a=1.2, v=0.0600)
    set_digital_out(0, False)
    new_pose = pose_trans(tuft_coords, p[0.1358, 0.3443, 0.1500, 0, 0, 0])
    movel(p[new_pose[0], new_pose[1], new_pose[2], current_pose[3], current_pose[4], current_pose[5]], a=0.8, v=0.2000)
    new_pose = pose_trans(tuft_coords, p[0.1365, 0.1547, 0.1500, 0, 0, 0])
    movel(p[new_pose[0], new_pose[1], new_pose[2], current_pose[3], current_pose[4], current_pose[5]], a=1.2, v=0.2000)
    local contact_pose = get_actual_tcp_pose()
    while norm(get_tcp_force()) < contact_force_threshold and contact_pose[2] > 0.1450:
        contact_pose := pose_trans(contact_pose, p[0, 0, -contact_probe_step, 0, 0, 0])
        movel(contact_pose, a=0.8, v=0.2000)
    end
    if contact_pose[2] > 0.1450:
        new_pose = pose_trans(tuft_coords, p[0.1365, 0.1547, 0.1450, 0, 0, 0])
        movel(p[new_pose[0], new_pose[1], new_pose[2], current_pose[3], current_pose[4], current_pose[5]], a=0.8, v=0.2000)
    end
    set_digital_out(0, True)
    new_pose = pose_trans(tuft_coords, p[0.1365, 0.3453, 0.1450, 0, 0, 0])
    movel(p[new_pose[0], new_pose[1], new_pose[2], current_pose[3], current_pose[4], current_pose[5]], a=1.2, v=0.0600)
    set_digital_out(0, False)
    new_pose = pose_trans(tuft_coords, p[0.1365, 0.3453, 0.1500, 0, 0, 0])
    movel(p[new_pose[0], new_pose[1], new_pose[2], current_pose[3], current_pose[4], current_pose[5]], a=0.8, v=0.2000)
    new_pose = pose_trans(tuft_coords, p[0.1372, 0.1526, 0.1500, 0, 0, 0])
    movel(p[new_pose[0], new_pose[1], new_pose[2], current_pose[3], current_pose[4], current_pose[5]], a=1.2, v=0.2000)
    local contact_pose = get_actual_tcp_pose()
    while norm(get_tcp_force()) < contact_force_threshold and contact_pose[2] > 0.1450:
        contact_pose := pose_trans(contact_pose, p[0, 0, -contact_probe_step, 0, 0, 0])
        movel(contact_pose, a=0.8, v=0.2000)
    end
    if contact_pose[2] > 0.1450:
        new_pose = pose_trans(tuft_coords, p[0.1372, 0.1526, 0.1450, 0, 0, 0])
        movel(p[new_pose[0], new_pose[1], new_pose[2], current_pose[3], current_pose[4], current_pose[5]], a=0.8, v=0.2000)
    end
    set_digital_out(0, True)
    new_pose = pose_trans(tuft_coords, p[0.1372, 0.3474, 0.1450, 0, 0, 0])
    movel(p[new_pose[0], new_pose[1], new_pose[2], current_pose[3], current_pose[4], current_pose[5]], a=1.2, v=0.0600)
    set_digital_out(0, False)
    new_pose = pose_trans(tuft_coords, p[0.1372, 0.3474, 0.1500, 0, 0, 0])
    movel(p[new_pose[0], new_pose[1], new_pose[2], current_pose[3], current_pose[4], current_pose[5]], a=0.8, v=0.2000)
    new_pose = pose_trans(tuft_coords, p[0.1378, 0.1505, 0.1500, 0, 0, 0])
    movel(p[new_pose[0], new_pose[1], new_pose[2], current_pose[3], current_pose[4], current_pose[5]], a=1.2, v=0.2000)
    local contact_pose = get_actual_tcp_pose()
    while norm(get_tcp_force()) < contact_force_threshold and contact_pose[2] > 0.1450:
        contact_pose := pose_trans(contact_pose, p[0, 0, -contact_probe_step, 0, 0, 0])
        movel(contact_pose, a=0.8, v=0.2000)
    end
    if contact_pose[2] > 0.1450:
        new_pose = pose_trans(tuft_coords, p[0.1378, 0.1505, 0.1450, 0, 0, 0])
        movel(p[new_pose[0], new_pose[1], new_pose[2], current_pose[3], current_pose[4], current_pose[5]], a=0.8, v=0.2000)
    end
    set_digital_out(0, True)
    new_pose = pose_trans(tuft_coords, p[0.1378, 0.3495, 0.1450, 0, 0, 0])
    movel(p[new_pose[0], new_pose[1], new_pose[2], current_pose[3], current_pose[4], current_pose[5]], a=1.2, v=0.0600)
    set_digital_out(0, False)
    new_pose = pose_trans(tuft_coords, p[0.1378, 0.3495, 0.1500, 0, 0, 0])
    movel(p[new_pose[0], new_pose[1], new_pose[2], current_pose[3], current_pose[4], current_pose[5]], a=0.8, v=0.2000)
    new_pose = pose_trans(tuft_coords, p[0.1385, 0.1495, 0.1500, 0, 0, 0])
    movel(p[new_pose[0], new_pose[1], new_pose[2], current_pose[3], current_pose[4], current_pose[5]], a=1.2, v=0.2000)
    local contact_pose = get_actual_tcp_pose()
    while norm(get_tcp_force()) < contact_force_threshold and contact_pose[2] > 0.1450:
        contact_pose := pose_trans(contact_pose, p[0, 0, -contact_probe_step, 0, 0, 0])
        movel(contact_pose, a=0.8, v=0.2000)
    end
    if contact_pose[2] > 0.1450:
        new_pose = pose_trans(tuft_coords, p[0.1385, 0.1495, 0.1450, 0, 0, 0])
        movel(p[new_pose[0], new_pose[1], new_pose[2], current_pose[3], current_pose[4], current_pose[5]], a=0.8, v=0.2000)
    end
    set_digital_out(0, True)
    new_pose = pose_trans(tuft_coords, p[0.1385, 0.3505, 0.1450, 0, 0, 0])
    movel(p[new_pose[0], new_pose[1], new_pose[2], current_pose[3], current_pose[4], current_pose[5]], a=1.2, v=0.0600)
    set_digital_out(0, False)
    new_pose = pose_trans(tuft_coords, p[0.1385, 0.3505, 0.1500, 0, 0, 0])
    movel(p[new_pose[0], new_pose[1], new_pose[2], current_pose[3], current_pose[4], current_pose[5]], a=0.8, v=0.2000)
    new_pose = pose_trans(tuft_coords, p[0.1392, 0.1474, 0.1500, 0, 0, 0])
    movel(p[new_pose[0], new_pose[1], new_pose[2], current_pose[3], current_pose[4], current_pose[5]], a=1.2, v=0.2000)
    local contact_pose = get_actual_tcp_pose()
    while norm(get_tcp_force()) < contact_force_threshold and contact_pose[2] > 0.1450:
        contact_pose := pose_trans(contact_pose, p[0, 0, -contact_probe_step, 0, 0, 0])
        movel(contact_pose, a=0.8, v=0.2000)
    end
    if contact_pose[2] > 0.1450:
        new_pose = pose_trans(tuft_coords, p[0.1392, 0.1474, 0.1450, 0, 0, 0])
        movel(p[new_pose[0], new_pose[1], new_pose[2], current_pose[3], current_pose[4], current_pose[5]], a=0.8, v=0.2000)
    end
    set_digital_out(0, True)
    new_pose = pose_trans(tuft_coords, p[0.1392, 0.3526, 0.1450, 0, 0, 0])
    movel(p[new_pose[0], new_pose[1], new_pose[2], current_pose[3], current_pose[4], current_pose[5]], a=1.2, v=0.0600)
    set_digital_out(0, False)
    new_pose = pose_trans(tuft_coords, p[0.1392, 0.3526, 0.1500, 0, 0, 0])
    movel(p[new_pose[0], new_pose[1], new_pose[2], current_pose[3], current_pose[4], current_pose[5]], a=0.8, v=0.2000)
    new_pose = pose_trans(tuft_coords, p[0.1399, 0.1453, 0.1500, 0, 0, 0])
    movel(p[new_pose[0], new_pose[1], new_pose[2], current_pose[3], current_pose[4], current_pose[5]], a=1.2, v=0.2000)
    local contact_pose = get_actual_tcp_pose()
    while norm(get_tcp_force()) < contact_force_threshold and contact_pose[2] > 0.1450:
        contact_pose := pose_trans(contact_pose, p[0, 0, -contact_probe_step, 0, 0, 0])
        movel(contact_pose, a=0.8, v=0.2000)
    end
    if contact_pose[2] > 0.1450:
        new_pose = pose_trans(tuft_coords, p[0.1399, 0.1453, 0.1450, 0, 0, 0])
        movel(p[new_pose[0], new_pose[1], new_pose[2], current_pose[3], current_pose[4], current_pose[5]], a=0.8, v=0.2000)
    end
    set_digital_out(0, True)
    new_pose = pose_trans(tuft_coords, p[0.1399, 0.3547, 0.1450, 0, 0, 0])
    movel(p[new_pose[0], new_pose[1], new_pose[2], current_pose[3], current_pose[4], current_pose[5]], a=1.2, v=0.0600)
    set_digital_out(0, False)
    new_pose = pose_trans(tuft_coords, p[0.1399, 0.3547, 0.1500, 0, 0, 0])
    movel(p[new_pose[0], new_pose[1], new_pose[2], current_pose[3], current_pose[4], current_pose[5]], a=0.8, v=0.2000)
    new_pose = pose_trans(tuft_coords, p[0.1406, 0.1443, 0.1500, 0, 0, 0])
    movel(p[new_pose[0], new_pose[1], new_pose[2], current_pose[3], current_pose[4], current_pose[5]], a=1.2, v=0.2000)
    local contact_pose = get_actual_tcp_pose()
    while norm(get_tcp_force()) < contact_force_threshold and contact_pose[2] > 0.1450:
        contact_pose := pose_trans(contact_pose, p[0, 0, -contact_probe_step, 0, 0, 0])
        movel(contact_pose, a=0.8, v=0.2000)
    end
    if contact_pose[2] > 0.1450:
        new_pose = pose_trans(tuft_coords, p[0.1406, 0.1443, 0.1450, 0, 0, 0])
        movel(p[new_pose[0], new_pose[1], new_pose[2], current_pose[3], current_pose[4], current_pose[5]], a=0.8, v=0.2000)
    end
    set_digital_out(0, True)
    new_pose = pose_trans(tuft_coords, p[0.1406, 0.3557, 0.1450, 0, 0, 0])
    movel(p[new_pose[0], new_pose[1], new_pose[2], current_pose[3], current_pose[4], current_pose[5]], a=1.2, v=0.0600)
    set_digital_out(0, False)
    new_pose = pose_trans(tuft_coords, p[0.1406, 0.3557, 0.1500, 0, 0, 0])
    movel(p[new_pose[0], new_pose[1], new_pose[2], current_pose[3], current_pose[4], current_pose[5]], a=0.8, v=0.2000)
    new_pose = pose_trans(tuft_coords, p[0.1413, 0.1422, 0.1500, 0, 0, 0])
    movel(p[new_pose[0], new_pose[1], new_pose[2], current_pose[3], current_pose[4], current_pose[5]], a=1.2, v=0.2000)
    local contact_pose = get_actual_tcp_pose()
    while norm(get_tcp_force()) < contact_force_threshold and contact_pose[2] > 0.1450:
        contact_pose := pose_trans(contact_pose, p[0, 0, -contact_probe_step, 0, 0, 0])
        movel(contact_pose, a=0.8, v=0.2000)
    end
    if contact_pose[2] > 0.1450:
        new_pose = pose_trans(tuft_coords, p[0.1413, 0.1422, 0.1450, 0, 0, 0])
        movel(p[new_pose[0], new_pose[1], new_pose[2], current_pose[3], current_pose[4], current_pose[5]], a=0.8, v=0.2000)
    end
    set_digital_out(0, True)
    new_pose = pose_trans(tuft_coords, p[0.1413, 0.3578, 0.1450, 0, 0, 0])
    movel(p[new_pose[0], new_pose[1], new_pose[2], current_pose[3], current_pose[4], current_pose[5]], a=1.2, v=0.0600)
    set_digital_out(0, False)
    new_pose = pose_trans(tuft_coords, p[0.1413, 0.3578, 0.1500, 0, 0, 0])
    movel(p[new_pose[0], new_pose[1], new_pose[2], current_pose[3], current_pose[4], current_pose[5]], a=0.8, v=0.2000)
    new_pose = pose_trans(tuft_coords, p[0.1420, 0.1411, 0.1500, 0, 0, 0])
    movel(p[new_pose[0], new_pose[1], new_pose[2], current_pose[3], current_pose[4], current_pose[5]], a=1.2, v=0.2000)
    local contact_pose = get_actual_tcp_pose()
    while norm(get_tcp_force()) < contact_force_threshold and contact_pose[2] > 0.1450:
        contact_pose := pose_trans(contact_pose, p[0, 0, -contact_probe_step, 0, 0, 0])
        movel(contact_pose, a=0.8, v=0.2000)
    end
    if contact_pose[2] > 0.1450:
        new_pose = pose_trans(tuft_coords, p[0.1420, 0.1411, 0.1450, 0, 0, 0])
        movel(p[new_pose[0], new_pose[1], new_pose[2], current_pose[3], current_pose[4], current_pose[5]], a=0.8, v=0.2000)
    end
    set_digital_out(0, True)
    new_pose = pose_trans(tuft_coords, p[0.1420, 0.3589, 0.1450, 0, 0, 0])
    movel(p[new_pose[0], new_pose[1], new_pose[2], current_pose[3], current_pose[4], current_pose[5]], a=1.2, v=0.0600)
    set_digital_out(0, False)
    new_pose = pose_trans(tuft_coords, p[0.1420, 0.3589, 0.1500, 0, 0, 0])
    movel(p[new_pose[0], new_pose[1], new_pose[2], current_pose[3], current_pose[4], current_pose[5]], a=0.8, v=0.2000)
    new_pose = pose_trans(tuft_coords, p[0.1427, 0.1391, 0.1500, 0, 0, 0])
    movel(p[new_pose[0], new_pose[1], new_pose[2], current_pose[3], current_pose[4], current_pose[5]], a=1.2, v=0.2000)
    local contact_pose = get_actual_tcp_pose()
    while norm(get_tcp_force()) < contact_force_threshold and contact_pose[2] > 0.1450:
        contact_pose := pose_trans(contact_pose, p[0, 0, -contact_probe_step, 0, 0, 0])
        movel(contact_pose, a=0.8, v=0.2000)
    end
    if contact_pose[2] > 0.1450:
        new_pose = pose_trans(tuft_coords, p[0.1427, 0.1391, 0.1450, 0, 0, 0])
        movel(p[new_pose[0], new_pose[1], new_pose[2], current_pose[3], current_pose[4], current_pose[5]], a=0.8, v=0.2000)
    end
    set_digital_out(0, True)
    new_pose = pose_trans(tuft_coords, p[0.1427, 0.3609, 0.1450, 0, 0, 0])
    movel(p[new_pose[0], new_pose[1], new_pose[2], current_pose[3], current_pose[4], current_pose[5]], a=1.2, v=0.0600)
    set_digital_out(0, False)
    new_pose = pose_trans(tuft_coords, p[0.1427, 0.3609, 0.1500, 0, 0, 0])
    movel(p[new_pose[0], new_pose[1], new_pose[2], current_pose[3], current_pose[4], current_pose[5]], a=0.8, v=0.2000)
    new_pose = pose_trans(tuft_coords, p[0.1434, 0.1380, 0.1500, 0, 0, 0])
    movel(p[new_pose[0], new_pose[1], new_pose[2], current_pose[3], current_pose[4], current_pose[5]], a=1.2, v=0.2000)
    local contact_pose = get_actual_tcp_pose()
    while norm(get_tcp_force()) < contact_force_threshold and contact_pose[2] > 0.1450:
        contact_pose := pose_trans(contact_pose, p[0, 0, -contact_probe_step, 0, 0, 0])
        movel(contact_pose, a=0.8, v=0.2000)
    end
    if contact_pose[2] > 0.1450:
        new_pose = pose_trans(tuft_coords, p[0.1434, 0.1380, 0.1450, 0, 0, 0])
        movel(p[new_pose[0], new_pose[1], new_pose[2], current_pose[3], current_pose[4], current_pose[5]], a=0.8, v=0.2000)
    end
    set_digital_out(0, True)
    new_pose = pose_trans(tuft_coords, p[0.1434, 0.3620, 0.1450, 0, 0, 0])
    movel(p[new_pose[0], new_pose[1], new_pose[2], current_pose[3], current_pose[4], current_pose[5]], a=1.2, v=0.0600)
    set_digital_out(0, False)
    new_pose = pose_trans(tuft_coords, p[0.1434, 0.3620, 0.1500, 0, 0, 0])
    movel(p[new_pose[0], new_pose[1], new_pose[2], current_pose[3], current_pose[4], current_pose[5]], a=0.8, v=0.2000)
    new_pose = pose_trans(tuft_coords, p[0.1441, 0.1359, 0.1500, 0, 0, 0])
    movel(p[new_pose[0], new_pose[1], new_pose[2], current_pose[3], current_pose[4], current_pose[5]], a=1.2, v=0.2000)
    local contact_pose = get_actual_tcp_pose()
    while norm(get_tcp_force()) < contact_force_threshold and contact_pose[2] > 0.1450:
        contact_pose := pose_trans(contact_pose, p[0, 0, -contact_probe_step, 0, 0, 0])
        movel(contact_pose, a=0.8, v=0.2000)
    end
    if contact_pose[2] > 0.1450:
        new_pose = pose_trans(tuft_coords, p[0.1441, 0.1359, 0.1450, 0, 0, 0])
        movel(p[new_pose[0], new_pose[1], new_pose[2], current_pose[3], current_pose[4], current_pose[5]], a=0.8, v=0.2000)
    end
    set_digital_out(0, True)
    new_pose = pose_trans(tuft_coords, p[0.1441, 0.3641, 0.1450, 0, 0, 0])
    movel(p[new_pose[0], new_pose[1], new_pose[2], current_pose[3], current_pose[4], current_pose[5]], a=1.2, v=0.0600)
    set_digital_out(0, False)
    new_pose = pose_trans(tuft_coords, p[0.1441, 0.3641, 0.1500, 0, 0, 0])
    movel(p[new_pose[0], new_pose[1], new_pose[2], current_pose[3], current_pose[4], current_pose[5]], a=0.8, v=0.2000)
    new_pose = pose_trans(tuft_coords, p[0.1448, 0.1349, 0.1500, 0, 0, 0])
    movel(p[new_pose[0], new_pose[1], new_pose[2], current_pose[3], current_pose[4], current_pose[5]], a=1.2, v=0.2000)
    local contact_pose = get_actual_tcp_pose()
    while norm(get_tcp_force()) < contact_force_threshold and contact_pose[2] > 0.1450:
        contact_pose := pose_trans(contact_pose, p[0, 0, -contact_probe_step, 0, 0, 0])
        movel(contact_pose, a=0.8, v=0.2000)
    end
    if contact_pose[2] > 0.1450:
        new_pose = pose_trans(tuft_coords, p[0.1448, 0.1349, 0.1450, 0, 0, 0])
        movel(p[new_pose[0], new_pose[1], new_pose[2], current_pose[3], current_pose[4], current_pose[5]], a=0.8, v=0.2000)
    end
    set_digital_out(0, True)
    new_pose = pose_trans(tuft_coords, p[0.1448, 0.3651, 0.1450, 0, 0, 0])
    movel(p[new_pose[0], new_pose[1], new_pose[2], current_pose[3], current_pose[4], current_pose[5]], a=1.2, v=0.0600)
    set_digital_out(0, False)
    new_pose = pose_trans(tuft_coords, p[0.1448, 0.3651, 0.1500, 0, 0, 0])
    movel(p[new_pose[0], new_pose[1], new_pose[2], current_pose[3], current_pose[4], current_pose[5]], a=0.8, v=0.2000)
    new_pose = pose_trans(tuft_coords, p[0.1455, 0.1339, 0.1500, 0, 0, 0])
    movel(p[new_pose[0], new_pose[1], new_pose[2], current_pose[3], current_pose[4], current_pose[5]], a=1.2, v=0.2000)
    local contact_pose = get_actual_tcp_pose()
    while norm(get_tcp_force()) < contact_force_threshold and contact_pose[2] > 0.1450:
        contact_pose := pose_trans(contact_pose, p[0, 0, -contact_probe_step, 0, 0, 0])
        movel(contact_pose, a=0.8, v=0.2000)
    end
    if contact_pose[2] > 0.1450:
        new_pose = pose_trans(tuft_coords, p[0.1455, 0.1339, 0.1450, 0, 0, 0])
        movel(p[new_pose[0], new_pose[1], new_pose[2], current_pose[3], current_pose[4], current_pose[5]], a=0.8, v=0.2000)
    end
    set_digital_out(0, True)
    new_pose = pose_trans(tuft_coords, p[0.1455, 0.3661, 0.1450, 0, 0, 0])
    movel(p[new_pose[0], new_pose[1], new_pose[2], current_pose[3], current_pose[4], current_pose[5]], a=1.2, v=0.0600)
    set_digital_out(0, False)
    new_pose = pose_trans(tuft_coords, p[0.1455, 0.3661, 0.1500, 0, 0, 0])
    movel(p[new_pose[0], new_pose[1], new_pose[2], current_pose[3], current_pose[4], current_pose[5]], a=0.8, v=0.2000)
    new_pose = pose_trans(tuft_coords, p[0.1462, 0.1318, 0.1500, 0, 0, 0])
    movel(p[new_pose[0], new_pose[1], new_pose[2], current_pose[3], current_pose[4], current_pose[5]], a=1.2, v=0.2000)
    local contact_pose = get_actual_tcp_pose()
    while norm(get_tcp_force()) < contact_force_threshold and contact_pose[2] > 0.1450:
        contact_pose := pose_trans(contact_pose, p[0, 0, -contact_probe_step, 0, 0, 0])
        movel(contact_pose, a=0.8, v=0.2000)
    end
    if contact_pose[2] > 0.1450:
        new_pose = pose_trans(tuft_coords, p[0.1462, 0.1318, 0.1450, 0, 0, 0])
        movel(p[new_pose[0], new_pose[1], new_pose[2], current_pose[3], current_pose[4], current_pose[5]], a=0.8, v=0.2000)
    end
    set_digital_out(0, True)
    new_pose = pose_trans(tuft_coords, p[0.1462, 0.3682, 0.1450, 0, 0, 0])
    movel(p[new_pose[0], new_pose[1], new_pose[2], current_pose[3], current_pose[4], current_pose[5]], a=1.2, v=0.0600)
    set_digital_out(0, False)
    new_pose = pose_trans(tuft_coords, p[0.1462, 0.3682, 0.1500, 0, 0, 0])
    movel(p[new_pose[0], new_pose[1], new_pose[2], current_pose[3], current_pose[4], current_pose[5]], a=0.8, v=0.2000)
    new_pose = pose_trans(tuft_coords, p[0.1469, 0.1307, 0.1500, 0, 0, 0])
    movel(p[new_pose[0], new_pose[1], new_pose[2], current_pose[3], current_pose[4], current_pose[5]], a=1.2, v=0.2000)
    local contact_pose = get_actual_tcp_pose()
    while norm(get_tcp_force()) < contact_force_threshold and contact_pose[2] > 0.1450:
        contact_pose := pose_trans(contact_pose, p[0, 0, -contact_probe_step, 0, 0, 0])
        movel(contact_pose, a=0.8, v=0.2000)
    end
    if contact_pose[2] > 0.1450:
        new_pose = pose_trans(tuft_coords, p[0.1469, 0.1307, 0.1450, 0, 0, 0])
        movel(p[new_pose[0], new_pose[1], new_pose[2], current_pose[3], current_pose[4], current_pose[5]], a=0.8, v=0.2000)
    end
    set_digital_out(0, True)
    new_pose = pose_trans(tuft_coords, p[0.1469, 0.3693, 0.1450, 0, 0, 0])
    movel(p[new_pose[0], new_pose[1], new_pose[2], current_pose[3], current_pose[4], current_pose[5]], a=1.2, v=0.0600)
    set_digital_out(0, False)
    new_pose = pose_trans(tuft_coords, p[0.1469, 0.3693, 0.1500, 0, 0, 0])
    movel(p[new_pose[0], new_pose[1], new_pose[2], current_pose[3], current_pose[4], current_pose[5]], a=0.8, v=0.2000)
    new_pose = pose_trans(tuft_coords, p[0.1476, 0.1297, 0.1500, 0, 0, 0])
    movel(p[new_pose[0], new_pose[1], new_pose[2], current_pose[3], current_pose[4], current_pose[5]], a=1.2, v=0.2000)
    local contact_pose = get_actual_tcp_pose()
    while norm(get_tcp_force()) < contact_force_threshold and contact_pose[2] > 0.1450:
        contact_pose := pose_trans(contact_pose, p[0, 0, -contact_probe_step, 0, 0, 0])
        movel(contact_pose, a=0.8, v=0.2000)
    end
    if contact_pose[2] > 0.1450:
        new_pose = pose_trans(tuft_coords, p[0.1476, 0.1297, 0.1450, 0, 0, 0])
        movel(p[new_pose[0], new_pose[1], new_pose[2], current_pose[3], current_pose[4], current_pose[5]], a=0.8, v=0.2000)
    end
    set_digital_out(0, True)
    new_pose = pose_trans(tuft_coords, p[0.1476, 0.3703, 0.1450, 0, 0, 0])
    movel(p[new_pose[0], new_pose[1], new_pose[2], current_pose[3], current_pose[4], current_pose[5]], a=1.2, v=0.0600)
    set_digital_out(0, False)
    new_pose = pose_trans(tuft_coords, p[0.1476, 0.3703, 0.1500, 0, 0, 0])
    movel(p[new_pose[0], new_pose[1], new_pose[2], current_pose[3], current_pose[4], current_pose[5]], a=0.8, v=0.2000)
    new_pose = pose_trans(tuft_coords, p[0.1483, 0.1286, 0.1500, 0, 0, 0])
    movel(p[new_pose[0], new_pose[1], new_pose[2], current_pose[3], current_pose[4], current_pose[5]], a=1.2, v=0.2000)
    local contact_pose = get_actual_tcp_pose()
    while norm(get_tcp_force()) < contact_force_threshold and contact_pose[2] > 0.1450:
        contact_pose := pose_trans(contact_pose, p[0, 0, -contact_probe_step, 0, 0, 0])
        movel(contact_pose, a=0.8, v=0.2000)
    end
    if contact_pose[2] > 0.1450:
        new_pose = pose_trans(tuft_coords, p[0.1483, 0.1286, 0.1450, 0, 0, 0])
        movel(p[new_pose[0], new_pose[1], new_pose[2], current_pose[3], current_pose[4], current_pose[5]], a=0.8, v=0.2000)
    end
    set_digital_out(0, True)
    new_pose = pose_trans(tuft_coords, p[0.1483, 0.3714, 0.1450, 0, 0, 0])
    movel(p[new_pose[0], new_pose[1], new_pose[2], current_pose[3], current_pose[4], current_pose[5]], a=1.2, v=0.0600)
    set_digital_out(0, False)
    new_pose = pose_trans(tuft_coords, p[0.1483, 0.3714, 0.1500, 0, 0, 0])
    movel(p[new_pose[0], new_pose[1], new_pose[2], current_pose[3], current_pose[4], current_pose[5]], a=0.8, v=0.2000)
    new_pose = pose_trans(tuft_coords, p[0.1490, 0.1266, 0.1500, 0, 0, 0])
    movel(p[new_pose[0], new_pose[1], new_pose[2], current_pose[3], current_pose[4], current_pose[5]], a=1.2, v=0.2000)
    local contact_pose = get_actual_tcp_pose()
    while norm(get_tcp_force()) < contact_force_threshold and contact_pose[2] > 0.1450:
        contact_pose := pose_trans(contact_pose, p[0, 0, -contact_probe_step, 0, 0, 0])
        movel(contact_pose, a=0.8, v=0.2000)
    end
    if contact_pose[2] > 0.1450:
        new_pose = pose_trans(tuft_coords, p[0.1490, 0.1266, 0.1450, 0, 0, 0])
        movel(p[new_pose[0], new_pose[1], new_pose[2], current_pose[3], current_pose[4], current_pose[5]], a=0.8, v=0.2000)
    end
    set_digital_out(0, True)
    new_pose = pose_trans(tuft_coords, p[0.1490, 0.3734, 0.1450, 0, 0, 0])
    movel(p[new_pose[0], new_pose[1], new_pose[2], current_pose[3], current_pose[4], current_pose[5]], a=1.2, v=0.0600)
    set_digital_out(0, False)
    new_pose = pose_trans(tuft_coords, p[0.1490, 0.3734, 0.1500, 0, 0, 0])
    movel(p[new_pose[0], new_pose[1], new_pose[2], current_pose[3], current_pose[4], current_pose[5]], a=0.8, v=0.2000)
    new_pose = pose_trans(tuft_coords, p[0.1497, 0.1255, 0.1500, 0, 0, 0])
    movel(p[new_pose[0], new_pose[1], new_pose[2], current_pose[3], current_pose[4], current_pose[5]], a=1.2, v=0.2000)
    local contact_pose = get_actual_tcp_pose()
    while norm(get_tcp_force()) < contact_force_threshold and contact_pose[2] > 0.1450:
        contact_pose := pose_trans(contact_pose, p[0, 0, -contact_probe_step, 0, 0, 0])
        movel(contact_pose, a=0.8, v=0.2000)
    end
    if contact_pose[2] > 0.1450:
        new_pose = pose_trans(tuft_coords, p[0.1497, 0.1255, 0.1450, 0, 0, 0])
        movel(p[new_pose[0], new_pose[1], new_pose[2], current_pose[3], current_pose[4], current_pose[5]], a=0.8, v=0.2000)
    end
    set_digital_out(0, True)
    new_pose = pose_trans(tuft_coords, p[0.1497, 0.3745, 0.1450, 0, 0, 0])
    movel(p[new_pose[0], new_pose[1], new_pose[2], current_pose[3], current_pose[4], current_pose[5]], a=1.2, v=0.0600)
    set_digital_out(0, False)
    new_pose = pose_trans(tuft_coords, p[0.1497, 0.3745, 0.1500, 0, 0, 0])
    movel(p[new_pose[0], new_pose[1], new_pose[2], current_pose[3], current_pose[4], current_pose[5]], a=0.8, v=0.2000)
    new_pose = pose_trans(tuft_coords, p[0.1503, 0.1245, 0.1500, 0, 0, 0])
    movel(p[new_pose[0], new_pose[1], new_pose[2], current_pose[3], current_pose[4], current_pose[5]], a=1.2, v=0.2000)
    local contact_pose = get_actual_tcp_pose()
    while norm(get_tcp_force()) < contact_force_threshold and contact_pose[2] > 0.1450:
        contact_pose := pose_trans(contact_pose, p[0, 0, -contact_probe_step, 0, 0, 0])
        movel(contact_pose, a=0.8, v=0.2000)
    end
    if contact_pose[2] > 0.1450:
        new_pose = pose_trans(tuft_coords, p[0.1503, 0.1245, 0.1450, 0, 0, 0])
        movel(p[new_pose[0], new_pose[1], new_pose[2], current_pose[3], current_pose[4], current_pose[5]], a=0.8, v=0.2000)
    end
    set_digital_out(0, True)
    new_pose = pose_trans(tuft_coords, p[0.1503, 0.3755, 0.1450, 0, 0, 0])
    movel(p[new_pose[0], new_pose[1], new_pose[2], current_pose[3], current_pose[4], current_pose[5]], a=1.2, v=0.0600)
    set_digital_out(0, False)
    new_pose = pose_trans(tuft_coords, p[0.1503, 0.3755, 0.1500, 0, 0, 0])
    movel(p[new_pose[0], new_pose[1], new_pose[2], current_pose[3], current_pose[4], current_pose[5]], a=0.8, v=0.2000)
    new_pose = pose_trans(tuft_coords, p[0.1510, 0.1234, 0.1500, 0, 0, 0])
    movel(p[new_pose[0], new_pose[1], new_pose[2], current_pose[3], current_pose[4], current_pose[5]], a=1.2, v=0.2000)
    local contact_pose = get_actual_tcp_pose()
    while norm(get_tcp_force()) < contact_force_threshold and contact_pose[2] > 0.1450:
        contact_pose := pose_trans(contact_pose, p[0, 0, -contact_probe_step, 0, 0, 0])
        movel(contact_pose, a=0.8, v=0.2000)
    end
    if contact_pose[2] > 0.1450:
        new_pose = pose_trans(tuft_coords, p[0.1510, 0.1234, 0.1450, 0, 0, 0])
        movel(p[new_pose[0], new_pose[1], new_pose[2], current_pose[3], current_pose[4], current_pose[5]], a=0.8, v=0.2000)
    end
    set_digital_out(0, True)
    new_pose = pose_trans(tuft_coords, p[0.1510, 0.3766, 0.1450, 0, 0, 0])
    movel(p[new_pose[0], new_pose[1], new_pose[2], current_pose[3], current_pose[4], current_pose[5]], a=1.2, v=0.0600)
    set_digital_out(0, False)
    new_pose = pose_trans(tuft_coords, p[0.1510, 0.3766, 0.1500, 0, 0, 0])
    movel(p[new_pose[0], new_pose[1], new_pose[2], current_pose[3], current_pose[4], current_pose[5]], a=0.8, v=0.2000)
    new_pose = pose_trans(tuft_coords, p[0.1517, 0.1224, 0.1500, 0, 0, 0])
    movel(p[new_pose[0], new_pose[1], new_pose[2], current_pose[3], current_pose[4], current_pose[5]], a=1.2, v=0.2000)
    local contact_pose = get_actual_tcp_pose()
    while norm(get_tcp_force()) < contact_force_threshold and contact_pose[2] > 0.1450:
        contact_pose := pose_trans(contact_pose, p[0, 0, -contact_probe_step, 0, 0, 0])
        movel(contact_pose, a=0.8, v=0.2000)
    end
    if contact_pose[2] > 0.1450:
        new_pose = pose_trans(tuft_coords, p[0.1517, 0.1224, 0.1450, 0, 0, 0])
        movel(p[new_pose[0], new_pose[1], new_pose[2], current_pose[3], current_pose[4], current_pose[5]], a=0.8, v=0.2000)
    end
    set_digital_out(0, True)
    new_pose = pose_trans(tuft_coords, p[0.1517, 0.3776, 0.1450, 0, 0, 0])
    movel(p[new_pose[0], new_pose[1], new_pose[2], current_pose[3], current_pose[4], current_pose[5]], a=1.2, v=0.0600)
    set_digital_out(0, False)
    new_pose = pose_trans(tuft_coords, p[0.1517, 0.3776, 0.1500, 0, 0, 0])
    movel(p[new_pose[0], new_pose[1], new_pose[2], current_pose[3], current_pose[4], current_pose[5]], a=0.8, v=0.2000)
    new_pose = pose_trans(tuft_coords, p[0.1524, 0.1203, 0.1500, 0, 0, 0])
    movel(p[new_pose[0], new_pose[1], new_pose[2], current_pose[3], current_pose[4], current_pose[5]], a=1.2, v=0.2000)
    local contact_pose = get_actual_tcp_pose()
    while norm(get_tcp_force()) < contact_force_threshold and contact_pose[2] > 0.1450:
        contact_pose := pose_trans(contact_pose, p[0, 0, -contact_probe_step, 0, 0, 0])
        movel(contact_pose, a=0.8, v=0.2000)
    end
    if contact_pose[2] > 0.1450:
        new_pose = pose_trans(tuft_coords, p[0.1524, 0.1203, 0.1450, 0, 0, 0])
        movel(p[new_pose[0], new_pose[1], new_pose[2], current_pose[3], current_pose[4], current_pose[5]], a=0.8, v=0.2000)
    end
    set_digital_out(0, True)
    new_pose = pose_trans(tuft_coords, p[0.1524, 0.3797, 0.1450, 0, 0, 0])
    movel(p[new_pose[0], new_pose[1], new_pose[2], current_pose[3], current_pose[4], current_pose[5]], a=1.2, v=0.0600)
    set_digital_out(0, False)
    new_pose = pose_trans(tuft_coords, p[0.1524, 0.3797, 0.1500, 0, 0, 0])
    movel(p[new_pose[0], new_pose[1], new_pose[2], current_pose[3], current_pose[4], current_pose[5]], a=0.8, v=0.2000)
    new_pose = pose_trans(tuft_coords, p[0.1531, 0.1193, 0.1500, 0, 0, 0])
    movel(p[new_pose[0], new_pose[1], new_pose[2], current_pose[3], current_pose[4], current_pose[5]], a=1.2, v=0.2000)
    local contact_pose = get_actual_tcp_pose()
    while norm(get_tcp_force()) < contact_force_threshold and contact_pose[2] > 0.1450:
        contact_pose := pose_trans(contact_pose, p[0, 0, -contact_probe_step, 0, 0, 0])
        movel(contact_pose, a=0.8, v=0.2000)
    end
    if contact_pose[2] > 0.1450:
        new_pose = pose_trans(tuft_coords, p[0.1531, 0.1193, 0.1450, 0, 0, 0])
        movel(p[new_pose[0], new_pose[1], new_pose[2], current_pose[3], current_pose[4], current_pose[5]], a=0.8, v=0.2000)
    end
    set_digital_out(0, True)
    new_pose = pose_trans(tuft_coords, p[0.1531, 0.3807, 0.1450, 0, 0, 0])
    movel(p[new_pose[0], new_pose[1], new_pose[2], current_pose[3], current_pose[4], current_pose[5]], a=1.2, v=0.0600)
    set_digital_out(0, False)
    new_pose = pose_trans(tuft_coords, p[0.1531, 0.3807, 0.1500, 0, 0, 0])
    movel(p[new_pose[0], new_pose[1], new_pose[2], current_pose[3], current_pose[4], current_pose[5]], a=0.8, v=0.2000)
    new_pose = pose_trans(tuft_coords, p[0.1538, 0.1182, 0.1500, 0, 0, 0])
    movel(p[new_pose[0], new_pose[1], new_pose[2], current_pose[3], current_pose[4], current_pose[5]], a=1.2, v=0.2000)
    local contact_pose = get_actual_tcp_pose()
    while norm(get_tcp_force()) < contact_force_threshold and contact_pose[2] > 0.1450:
        contact_pose := pose_trans(contact_pose, p[0, 0, -contact_probe_step, 0, 0, 0])
        movel(contact_pose, a=0.8, v=0.2000)
    end
    if contact_pose[2] > 0.1450:
        new_pose = pose_trans(tuft_coords, p[0.1538, 0.1182, 0.1450, 0, 0, 0])
        movel(p[new_pose[0], new_pose[1], new_pose[2], current_pose[3], current_pose[4], current_pose[5]], a=0.8, v=0.2000)
    end
    set_digital_out(0, True)
    new_pose = pose_trans(tuft_coords, p[0.1538, 0.3818, 0.1450, 0, 0, 0])
    movel(p[new_pose[0], new_pose[1], new_pose[2], current_pose[3], current_pose[4], current_pose[5]], a=1.2, v=0.0600)
    set_digital_out(0, False)
    new_pose = pose_trans(tuft_coords, p[0.1538, 0.3818, 0.1500, 0, 0, 0])
    movel(p[new_pose[0], new_pose[1], new_pose[2], current_pose[3], current_pose[4], current_pose[5]], a=0.8, v=0.2000)
    new_pose = pose_trans(tuft_coords, p[0.1545, 0.1172, 0.1500, 0, 0, 0])
    movel(p[new_pose[0], new_pose[1], new_pose[2], current_pose[3], current_pose[4], current_pose[5]], a=1.2, v=0.2000)
    local contact_pose = get_actual_tcp_pose()
    while norm(get_tcp_force()) < contact_force_threshold and contact_pose[2] > 0.1450:
        contact_pose := pose_trans(contact_pose, p[0, 0, -contact_probe_step, 0, 0, 0])
        movel(contact_pose, a=0.8, v=0.2000)
    end
    if contact_pose[2] > 0.1450:
        new_pose = pose_trans(tuft_coords, p[0.1545, 0.1172, 0.1450, 0, 0, 0])
        movel(p[new_pose[0], new_pose[1], new_pose[2], current_pose[3], current_pose[4], current_pose[5]], a=0.8, v=0.2000)
    end
    set_digital_out(0, True)
    new_pose = pose_trans(tuft_coords, p[0.1545, 0.3828, 0.1450, 0, 0, 0])
    movel(p[new_pose[0], new_pose[1], new_pose[2], current_pose[3], current_pose[4], current_pose[5]], a=1.2, v=0.0600)
    set_digital_out(0, False)
    new_pose = pose_trans(tuft_coords, p[0.1545, 0.3828, 0.1500, 0, 0, 0])
    movel(p[new_pose[0], new_pose[1], new_pose[2], current_pose[3], current_pose[4], current_pose[5]], a=0.8, v=0.2000)
    new_pose = pose_trans(tuft_coords, p[0.1552, 0.1161, 0.1500, 0, 0, 0])
    movel(p[new_pose[0], new_pose[1], new_pose[2], current_pose[3], current_pose[4], current_pose[5]], a=1.2, v=0.2000)
    local contact_pose = get_actual_tcp_pose()
    while norm(get_tcp_force()) < contact_force_threshold and contact_pose[2] > 0.1450:
        contact_pose := pose_trans(contact_pose, p[0, 0, -contact_probe_step, 0, 0, 0])
        movel(contact_pose, a=0.8, v=0.2000)
    end
    if contact_pose[2] > 0.1450:
        new_pose = pose_trans(tuft_coords, p[0.1552, 0.1161, 0.1450, 0, 0, 0])
        movel(p[new_pose[0], new_pose[1], new_pose[2], current_pose[3], current_pose[4], current_pose[5]], a=0.8, v=0.2000)
    end
    set_digital_out(0, True)
    new_pose = pose_trans(tuft_coords, p[0.1552, 0.3839, 0.1450, 0, 0, 0])
    movel(p[new_pose[0], new_pose[1], new_pose[2], current_pose[3], current_pose[4], current_pose[5]], a=1.2, v=0.0600)
    set_digital_out(0, False)
    new_pose = pose_trans(tuft_coords, p[0.1552, 0.3839, 0.1500, 0, 0, 0])
    movel(p[new_pose[0], new_pose[1], new_pose[2], current_pose[3], current_pose[4], current_pose[5]], a=0.8, v=0.2000)
    new_pose = pose_trans(tuft_coords, p[0.1559, 0.1151, 0.1500, 0, 0, 0])
    movel(p[new_pose[0], new_pose[1], new_pose[2], current_pose[3], current_pose[4], current_pose[5]], a=1.2, v=0.2000)
    local contact_pose = get_actual_tcp_pose()
    while norm(get_tcp_force()) < contact_force_threshold and contact_pose[2] > 0.1450:
        contact_pose := pose_trans(contact_pose, p[0, 0, -contact_probe_step, 0, 0, 0])
        movel(contact_pose, a=0.8, v=0.2000)
    end
    if contact_pose[2] > 0.1450:
        new_pose = pose_trans(tuft_coords, p[0.1559, 0.1151, 0.1450, 0, 0, 0])
        movel(p[new_pose[0], new_pose[1], new_pose[2], current_pose[3], current_pose[4], current_pose[5]], a=0.8, v=0.2000)
    end
    set_digital_out(0, True)
    new_pose = pose_trans(tuft_coords, p[0.1559, 0.3849, 0.1450, 0, 0, 0])
    movel(p[new_pose[0], new_pose[1], new_pose[2], current_pose[3], current_pose[4], current_pose[5]], a=1.2, v=0.0600)
    set_digital_out(0, False)
    new_pose = pose_trans(tuft_coords, p[0.1559, 0.3849, 0.1500, 0, 0, 0])
    movel(p[new_pose[0], new_pose[1], new_pose[2], current_pose[3], current_pose[4], current_pose[5]], a=0.8, v=0.2000)
    new_pose = pose_trans(tuft_coords, p[0.1566, 0.1141, 0.1500, 0, 0, 0])
    movel(p[new_pose[0], new_pose[1], new_pose[2], current_pose[3], current_pose[4], current_pose[5]], a=1.2, v=0.2000)
    local contact_pose = get_actual_tcp_pose()
    while norm(get_tcp_force()) < contact_force_threshold and contact_pose[2] > 0.1450:
        contact_pose := pose_trans(contact_pose, p[0, 0, -contact_probe_step, 0, 0, 0])
        movel(contact_pose, a=0.8, v=0.2000)
    end
    if contact_pose[2] > 0.1450:
        new_pose = pose_trans(tuft_coords, p[0.1566, 0.1141, 0.1450, 0, 0, 0])
        movel(p[new_pose[0], new_pose[1], new_pose[2], current_pose[3], current_pose[4], current_pose[5]], a=0.8, v=0.2000)
    end
    set_digital_out(0, True)
    new_pose = pose_trans(tuft_coords, p[0.1566, 0.3859, 0.1450, 0, 0, 0])
    movel(p[new_pose[0], new_pose[1], new_pose[2], current_pose[3], current_pose[4], current_pose[5]], a=1.2, v=0.0600)
    set_digital_out(0, False)
    new_pose = pose_trans(tuft_coords, p[0.1566, 0.3859, 0.1500, 0, 0, 0])
    movel(p[new_pose[0], new_pose[1], new_pose[2], current_pose[3], current_pose[4], current_pose[5]], a=0.8, v=0.2000)
    new_pose = pose_trans(tuft_coords, p[0.1573, 0.1130, 0.1500, 0, 0, 0])
    movel(p[new_pose[0], new_pose[1], new_pose[2], current_pose[3], current_pose[4], current_pose[5]], a=1.2, v=0.2000)
    local contact_pose = get_actual_tcp_pose()
    while norm(get_tcp_force()) < contact_force_threshold and contact_pose[2] > 0.1450:
        contact_pose := pose_trans(contact_pose, p[0, 0, -contact_probe_step, 0, 0, 0])
        movel(contact_pose, a=0.8, v=0.2000)
    end
    if contact_pose[2] > 0.1450:
        new_pose = pose_trans(tuft_coords, p[0.1573, 0.1130, 0.1450, 0, 0, 0])
        movel(p[new_pose[0], new_pose[1], new_pose[2], current_pose[3], current_pose[4], current_pose[5]], a=0.8, v=0.2000)
    end
    set_digital_out(0, True)
    new_pose = pose_trans(tuft_coords, p[0.1573, 0.3870, 0.1450, 0, 0, 0])
    movel(p[new_pose[0], new_pose[1], new_pose[2], current_pose[3], current_pose[4], current_pose[5]], a=1.2, v=0.0600)
    set_digital_out(0, False)
    new_pose = pose_trans(tuft_coords, p[0.1573, 0.3870, 0.1500, 0, 0, 0])
    movel(p[new_pose[0], new_pose[1], new_pose[2], current_pose[3], current_pose[4], current_pose[5]], a=0.8, v=0.2000)
    new_pose = pose_trans(tuft_coords, p[0.1580, 0.1120, 0.1500, 0, 0, 0])
    movel(p[new_pose[0], new_pose[1], new_pose[2], current_pose[3], current_pose[4], current_pose[5]], a=1.2, v=0.2000)
    local contact_pose = get_actual_tcp_pose()
    while norm(get_tcp_force()) < contact_force_threshold and contact_pose[2] > 0.1450:
        contact_pose := pose_trans(contact_pose, p[0, 0, -contact_probe_step, 0, 0, 0])
        movel(contact_pose, a=0.8, v=0.2000)
    end
    if contact_pose[2] > 0.1450:
        new_pose = pose_trans(tuft_coords, p[0.1580, 0.1120, 0.1450, 0, 0, 0])
        movel(p[new_pose[0], new_pose[1], new_pose[2], current_pose[3], current_pose[4], current_pose[5]], a=0.8, v=0.2000)
    end
    set_digital_out(0, True)
    new_pose = pose_trans(tuft_coords, p[0.1580, 0.3880, 0.1450, 0, 0, 0])
    movel(p[new_pose[0], new_pose[1], new_pose[2], current_pose[3], current_pose[4], current_pose[5]], a=1.2, v=0.0600)
    set_digital_out(0, False)
    new_pose = pose_trans(tuft_coords, p[0.1580, 0.3880, 0.1500, 0, 0, 0])
    movel(p[new_pose[0], new_pose[1], new_pose[2], current_pose[3], current_pose[4], current_pose[5]], a=0.8, v=0.2000)
    new_pose = pose_trans(tuft_coords, p[0.1587, 0.1109, 0.1500, 0, 0, 0])
    movel(p[new_pose[0], new_pose[1], new_pose[2], current_pose[3], current_pose[4], current_pose[5]], a=1.2, v=0.2000)
    local contact_pose = get_actual_tcp_pose()
    while norm(get_tcp_force()) < contact_force_threshold and contact_pose[2] > 0.1450:
        contact_pose := pose_trans(contact_pose, p[0, 0, -contact_probe_step, 0, 0, 0])
        movel(contact_pose, a=0.8, v=0.2000)
    end
    if contact_pose[2] > 0.1450:
        new_pose = pose_trans(tuft_coords, p[0.1587, 0.1109, 0.1450, 0, 0, 0])
        movel(p[new_pose[0], new_pose[1], new_pose[2], current_pose[3], current_pose[4], current_pose[5]], a=0.8, v=0.2000)
    end
    set_digital_out(0, True)
    new_pose = pose_trans(tuft_coords, p[0.1587, 0.3891, 0.1450, 0, 0, 0])
    movel(p[new_pose[0], new_pose[1], new_pose[2], current_pose[3], current_pose[4], current_pose[5]], a=1.2, v=0.0600)
    set_digital_out(0, False)
    new_pose = pose_trans(tuft_coords, p[0.1587, 0.3891, 0.1500, 0, 0, 0])
    movel(p[new_pose[0], new_pose[1], new_pose[2], current_pose[3], current_pose[4], current_pose[5]], a=0.8, v=0.2000)
    new_pose = pose_trans(tuft_coords, p[0.1594, 0.1099, 0.1500, 0, 0, 0])
    movel(p[new_pose[0], new_pose[1], new_pose[2], current_pose[3], current_pose[4], current_pose[5]], a=1.2, v=0.2000)
    local contact_pose = get_actual_tcp_pose()
    while norm(get_tcp_force()) < contact_force_threshold and contact_pose[2] > 0.1450:
        contact_pose := pose_trans(contact_pose, p[0, 0, -contact_probe_step, 0, 0, 0])
        movel(contact_pose, a=0.8, v=0.2000)
    end
    if contact_pose[2] > 0.1450:
        new_pose = pose_trans(tuft_coords, p[0.1594, 0.1099, 0.1450, 0, 0, 0])
        movel(p[new_pose[0], new_pose[1], new_pose[2], current_pose[3], current_pose[4], current_pose[5]], a=0.8, v=0.2000)
    end
    set_digital_out(0, True)
    new_pose = pose_trans(tuft_coords, p[0.1594, 0.3901, 0.1450, 0, 0, 0])
    movel(p[new_pose[0], new_pose[1], new_pose[2], current_pose[3], current_pose[4], current_pose[5]], a=1.2, v=0.0600)
    set_digital_out(0, False)
    new_pose = pose_trans(tuft_coords, p[0.1594, 0.3901, 0.1500, 0, 0, 0])
    movel(p[new_pose[0], new_pose[1], new_pose[2], current_pose[3], current_pose[4], current_pose[5]], a=0.8, v=0.2000)
    new_pose = pose_trans(tuft_coords, p[0.1601, 0.1089, 0.1500, 0, 0, 0])
    movel(p[new_pose[0], new_pose[1], new_pose[2], current_pose[3], current_pose[4], current_pose[5]], a=1.2, v=0.2000)
    local contact_pose = get_actual_tcp_pose()
    while norm(get_tcp_force()) < contact_force_threshold and contact_pose[2] > 0.1450:
        contact_pose := pose_trans(contact_pose, p[0, 0, -contact_probe_step, 0, 0, 0])
        movel(contact_pose, a=0.8, v=0.2000)
    end
    if contact_pose[2] > 0.1450:
        new_pose = pose_trans(tuft_coords, p[0.1601, 0.1089, 0.1450, 0, 0, 0])
        movel(p[new_pose[0], new_pose[1], new_pose[2], current_pose[3], current_pose[4], current_pose[5]], a=0.8, v=0.2000)
    end
    set_digital_out(0, True)
    new_pose = pose_trans(tuft_coords, p[0.1601, 0.3911, 0.1450, 0, 0, 0])
    movel(p[new_pose[0], new_pose[1], new_pose[2], current_pose[3], current_pose[4], current_pose[5]], a=1.2, v=0.0600)
    set_digital_out(0, False)
    new_pose = pose_trans(tuft_coords, p[0.1601, 0.3911, 0.1500, 0, 0, 0])
    movel(p[new_pose[0], new_pose[1], new_pose[2], current_pose[3], current_pose[4], current_pose[5]], a=0.8, v=0.2000)
    new_pose = pose_trans(tuft_coords, p[0.1608, 0.1078, 0.1500, 0, 0, 0])
    movel(p[new_pose[0], new_pose[1], new_pose[2], current_pose[3], current_pose[4], current_pose[5]], a=1.2, v=0.2000)
    local contact_pose = get_actual_tcp_pose()
    while norm(get_tcp_force()) < contact_force_threshold and contact_pose[2] > 0.1450:
        contact_pose := pose_trans(contact_pose, p[0, 0, -contact_probe_step, 0, 0, 0])
        movel(contact_pose, a=0.8, v=0.2000)
    end
    if contact_pose[2] > 0.1450:
        new_pose = pose_trans(tuft_coords, p[0.1608, 0.1078, 0.1450, 0, 0, 0])
        movel(p[new_pose[0], new_pose[1], new_pose[2], current_pose[3], current_pose[4], current_pose[5]], a=0.8, v=0.2000)
    end
    set_digital_out(0, True)
    new_pose = pose_trans(tuft_coords, p[0.1608, 0.3922, 0.1450, 0, 0, 0])
    movel(p[new_pose[0], new_pose[1], new_pose[2], current_pose[3], current_pose[4], current_pose[5]], a=1.2, v=0.0600)
    set_digital_out(0, False)
    new_pose = pose_trans(tuft_coords, p[0.1608, 0.3922, 0.1500, 0, 0, 0])
    movel(p[new_pose[0], new_pose[1], new_pose[2], current_pose[3], current_pose[4], current_pose[5]], a=0.8, v=0.2000)
    new_pose = pose_trans(tuft_coords, p[0.1615, 0.1068, 0.1500, 0, 0, 0])
    movel(p[new_pose[0], new_pose[1], new_pose[2], current_pose[3], current_pose[4], current_pose[5]], a=1.2, v=0.2000)
    local contact_pose = get_actual_tcp_pose()
    while norm(get_tcp_force()) < contact_force_threshold and contact_pose[2] > 0.1450:
        contact_pose := pose_trans(contact_pose, p[0, 0, -contact_probe_step, 0, 0, 0])
        movel(contact_pose, a=0.8, v=0.2000)
    end
    if contact_pose[2] > 0.1450:
        new_pose = pose_trans(tuft_coords, p[0.1615, 0.1068, 0.1450, 0, 0, 0])
        movel(p[new_pose[0], new_pose[1], new_pose[2], current_pose[3], current_pose[4], current_pose[5]], a=0.8, v=0.2000)
    end
    set_digital_out(0, True)
    new_pose = pose_trans(tuft_coords, p[0.1615, 0.3932, 0.1450, 0, 0, 0])
    movel(p[new_pose[0], new_pose[1], new_pose[2], current_pose[3], current_pose[4], current_pose[5]], a=1.2, v=0.0600)
    set_digital_out(0, False)
    new_pose = pose_trans(tuft_coords, p[0.1615, 0.3932, 0.1500, 0, 0, 0])
    movel(p[new_pose[0], new_pose[1], new_pose[2], current_pose[3], current_pose[4], current_pose[5]], a=0.8, v=0.2000)
    new_pose = pose_trans(tuft_coords, p[0.1622, 0.1057, 0.1500, 0, 0, 0])
    movel(p[new_pose[0], new_pose[1], new_pose[2], current_pose[3], current_pose[4], current_pose[5]], a=1.2, v=0.2000)
    local contact_pose = get_actual_tcp_pose()
    while norm(get_tcp_force()) < contact_force_threshold and contact_pose[2] > 0.1450:
        contact_pose := pose_trans(contact_pose, p[0, 0, -contact_probe_step, 0, 0, 0])
        movel(contact_pose, a=0.8, v=0.2000)
    end
    if contact_pose[2] > 0.1450:
        new_pose = pose_trans(tuft_coords, p[0.1622, 0.1057, 0.1450, 0, 0, 0])
        movel(p[new_pose[0], new_pose[1], new_pose[2], current_pose[3], current_pose[4], current_pose[5]], a=0.8, v=0.2000)
    end
    set_digital_out(0, True)
    new_pose = pose_trans(tuft_coords, p[0.1622, 0.3943, 0.1450, 0, 0, 0])
    movel(p[new_pose[0], new_pose[1], new_pose[2], current_pose[3], current_pose[4], current_pose[5]], a=1.2, v=0.0600)
    set_digital_out(0, False)
    new_pose = pose_trans(tuft_coords, p[0.1622, 0.3943, 0.1500, 0, 0, 0])
    movel(p[new_pose[0], new_pose[1], new_pose[2], current_pose[3], current_pose[4], current_pose[5]], a=0.8, v=0.2000)
    new_pose = pose_trans(tuft_coords, p[0.1628, 0.1047, 0.1500, 0, 0, 0])
    movel(p[new_pose[0], new_pose[1], new_pose[2], current_pose[3], current_pose[4], current_pose[5]], a=1.2, v=0.2000)
    local contact_pose = get_actual_tcp_pose()
    while norm(get_tcp_force()) < contact_force_threshold and contact_pose[2] > 0.1450:
        contact_pose := pose_trans(contact_pose, p[0, 0, -contact_probe_step, 0, 0, 0])
        movel(contact_pose, a=0.8, v=0.2000)
    end
    if contact_pose[2] > 0.1450:
        new_pose = pose_trans(tuft_coords, p[0.1628, 0.1047, 0.1450, 0, 0, 0])
        movel(p[new_pose[0], new_pose[1], new_pose[2], current_pose[3], current_pose[4], current_pose[5]], a=0.8, v=0.2000)
    end
    set_digital_out(0, True)
    new_pose = pose_trans(tuft_coords, p[0.1628, 0.3953, 0.1450, 0, 0, 0])
    movel(p[new_pose[0], new_pose[1], new_pose[2], current_pose[3], current_pose[4], current_pose[5]], a=1.2, v=0.0600)
    set_digital_out(0, False)
    new_pose = pose_trans(tuft_coords, p[0.1628, 0.3953, 0.1500, 0, 0, 0])
    movel(p[new_pose[0], new_pose[1], new_pose[2], current_pose[3], current_pose[4], current_pose[5]], a=0.8, v=0.2000)
    new_pose = pose_trans(tuft_coords, p[0.1635, 0.1036, 0.1500, 0, 0, 0])
    movel(p[new_pose[0], new_pose[1], new_pose[2], current_pose[3], current_pose[4], current_pose[5]], a=1.2, v=0.2000)
    local contact_pose = get_actual_tcp_pose()
    while norm(get_tcp_force()) < contact_force_threshold and contact_pose[2] > 0.1450:
        contact_pose := pose_trans(contact_pose, p[0, 0, -contact_probe_step, 0, 0, 0])
        movel(contact_pose, a=0.8, v=0.2000)
    end
    if contact_pose[2] > 0.1450:
        new_pose = pose_trans(tuft_coords, p[0.1635, 0.1036, 0.1450, 0, 0, 0])
        movel(p[new_pose[0], new_pose[1], new_pose[2], current_pose[3], current_pose[4], current_pose[5]], a=0.8, v=0.2000)
    end
    set_digital_out(0, True)
    new_pose = pose_trans(tuft_coords, p[0.1635, 0.3964, 0.1450, 0, 0, 0])
    movel(p[new_pose[0], new_pose[1], new_pose[2], current_pose[3], current_pose[4], current_pose[5]], a=1.2, v=0.0600)
    set_digital_out(0, False)
    new_pose = pose_trans(tuft_coords, p[0.1635, 0.3964, 0.1500, 0, 0, 0])
    movel(p[new_pose[0], new_pose[1], new_pose[2], current_pose[3], current_pose[4], current_pose[5]], a=0.8, v=0.2000)
    new_pose = pose_trans(tuft_coords, p[0.1642, 0.1036, 0.1500, 0, 0, 0])
    movel(p[new_pose[0], new_pose[1], new_pose[2], current_pose[3], current_pose[4], current_pose[5]], a=1.2, v=0.2000)
    local contact_pose = get_actual_tcp_pose()
    while norm(get_tcp_force()) < contact_force_threshold and contact_pose[2] > 0.1450:
        contact_pose := pose_trans(contact_pose, p[0, 0, -contact_probe_step, 0, 0, 0])
        movel(contact_pose, a=0.8, v=0.2000)
    end
    if contact_pose[2] > 0.1450:
        new_pose = pose_trans(tuft_coords, p[0.1642, 0.1036, 0.1450, 0, 0, 0])
        movel(p[new_pose[0], new_pose[1], new_pose[2], current_pose[3], current_pose[4], current_pose[5]], a=0.8, v=0.2000)
    end
    set_digital_out(0, True)
    new_pose = pose_trans(tuft_coords, p[0.1642, 0.3964, 0.1450, 0, 0, 0])
    movel(p[new_pose[0], new_pose[1], new_pose[2], current_pose[3], current_pose[4], current_pose[5]], a=1.2, v=0.0600)
    set_digital_out(0, False)
    new_pose = pose_trans(tuft_coords, p[0.1642, 0.3964, 0.1500, 0, 0, 0])
    movel(p[new_pose[0], new_pose[1], new_pose[2], current_pose[3], current_pose[4], current_pose[5]], a=0.8, v=0.2000)
    new_pose = pose_trans(tuft_coords, p[0.1649, 0.1026, 0.1500, 0, 0, 0])
    movel(p[new_pose[0], new_pose[1], new_pose[2], current_pose[3], current_pose[4], current_pose[5]], a=1.2, v=0.2000)
    local contact_pose = get_actual_tcp_pose()
    while norm(get_tcp_force()) < contact_force_threshold and contact_pose[2] > 0.1450:
        contact_pose := pose_trans(contact_pose, p[0, 0, -contact_probe_step, 0, 0, 0])
        movel(contact_pose, a=0.8, v=0.2000)
    end
    if contact_pose[2] > 0.1450:
        new_pose = pose_trans(tuft_coords, p[0.1649, 0.1026, 0.1450, 0, 0, 0])
        movel(p[new_pose[0], new_pose[1], new_pose[2], current_pose[3], current_pose[4], current_pose[5]], a=0.8, v=0.2000)
    end
    set_digital_out(0, True)
    new_pose = pose_trans(tuft_coords, p[0.1649, 0.3974, 0.1450, 0, 0, 0])
    movel(p[new_pose[0], new_pose[1], new_pose[2], current_pose[3], current_pose[4], current_pose[5]], a=1.2, v=0.0600)
    set_digital_out(0, False)
    new_pose = pose_trans(tuft_coords, p[0.1649, 0.3974, 0.1500, 0, 0, 0])
    movel(p[new_pose[0], new_pose[1], new_pose[2], current_pose[3], current_pose[4], current_pose[5]], a=0.8, v=0.2000)
    new_pose = pose_trans(tuft_coords, p[0.1656, 0.1016, 0.1500, 0, 0, 0])
    movel(p[new_pose[0], new_pose[1], new_pose[2], current_pose[3], current_pose[4], current_pose[5]], a=1.2, v=0.2000)
    local contact_pose = get_actual_tcp_pose()
    while norm(get_tcp_force()) < contact_force_threshold and contact_pose[2] > 0.1450:
        contact_pose := pose_trans(contact_pose, p[0, 0, -contact_probe_step, 0, 0, 0])
        movel(contact_pose, a=0.8, v=0.2000)
    end
    if contact_pose[2] > 0.1450:
        new_pose = pose_trans(tuft_coords, p[0.1656, 0.1016, 0.1450, 0, 0, 0])
        movel(p[new_pose[0], new_pose[1], new_pose[2], current_pose[3], current_pose[4], current_pose[5]], a=0.8, v=0.2000)
    end
    set_digital_out(0, True)
    new_pose = pose_trans(tuft_coords, p[0.1656, 0.3984, 0.1450, 0, 0, 0])
    movel(p[new_pose[0], new_pose[1], new_pose[2], current_pose[3], current_pose[4], current_pose[5]], a=1.2, v=0.0600)
    set_digital_out(0, False)
    new_pose = pose_trans(tuft_coords, p[0.1656, 0.3984, 0.1500, 0, 0, 0])
    movel(p[new_pose[0], new_pose[1], new_pose[2], current_pose[3], current_pose[4], current_pose[5]], a=0.8, v=0.2000)
    new_pose = pose_trans(tuft_coords, p[0.1663, 0.1005, 0.1500, 0, 0, 0])
    movel(p[new_pose[0], new_pose[1], new_pose[2], current_pose[3], current_pose[4], current_pose[5]], a=1.2, v=0.2000)
    local contact_pose = get_actual_tcp_pose()
    while norm(get_tcp_force()) < contact_force_threshold and contact_pose[2] > 0.1450:
        contact_pose := pose_trans(contact_pose, p[0, 0, -contact_probe_step, 0, 0, 0])
        movel(contact_pose, a=0.8, v=0.2000)
    end
    if contact_pose[2] > 0.1450:
        new_pose = pose_trans(tuft_coords, p[0.1663, 0.1005, 0.1450, 0, 0, 0])
        movel(p[new_pose[0], new_pose[1], new_pose[2], current_pose[3], current_pose[4], current_pose[5]], a=0.8, v=0.2000)
    end
    set_digital_out(0, True)
    new_pose = pose_trans(tuft_coords, p[0.1663, 0.3995, 0.1450, 0, 0, 0])
    movel(p[new_pose[0], new_pose[1], new_pose[2], current_pose[3], current_pose[4], current_pose[5]], a=1.2, v=0.0600)
    set_digital_out(0, False)
    new_pose = pose_trans(tuft_coords, p[0.1663, 0.3995, 0.1500, 0, 0, 0])
    movel(p[new_pose[0], new_pose[1], new_pose[2], current_pose[3], current_pose[4], current_pose[5]], a=0.8, v=0.2000)
    new_pose = pose_trans(tuft_coords, p[0.1670, 0.0995, 0.1500, 0, 0, 0])
    movel(p[new_pose[0], new_pose[1], new_pose[2], current_pose[3], current_pose[4], current_pose[5]], a=1.2, v=0.2000)
    local contact_pose = get_actual_tcp_pose()
    while norm(get_tcp_force()) < contact_force_threshold and contact_pose[2] > 0.1450:
        contact_pose := pose_trans(contact_pose, p[0, 0, -contact_probe_step, 0, 0, 0])
        movel(contact_pose, a=0.8, v=0.2000)
    end
    if contact_pose[2] > 0.1450:
        new_pose = pose_trans(tuft_coords, p[0.1670, 0.0995, 0.1450, 0, 0, 0])
        movel(p[new_pose[0], new_pose[1], new_pose[2], current_pose[3], current_pose[4], current_pose[5]], a=0.8, v=0.2000)
    end
    set_digital_out(0, True)
    new_pose = pose_trans(tuft_coords, p[0.1670, 0.4005, 0.1450, 0, 0, 0])
    movel(p[new_pose[0], new_pose[1], new_pose[2], current_pose[3], current_pose[4], current_pose[5]], a=1.2, v=0.0600)
    set_digital_out(0, False)
    new_pose = pose_trans(tuft_coords, p[0.1670, 0.4005, 0.1500, 0, 0, 0])
    movel(p[new_pose[0], new_pose[1], new_pose[2], current_pose[3], current_pose[4], current_pose[5]], a=0.8, v=0.2000)
    new_pose = pose_trans(tuft_coords, p[0.1677, 0.0984, 0.1500, 0, 0, 0])
    movel(p[new_pose[0], new_pose[1], new_pose[2], current_pose[3], current_pose[4], current_pose[5]], a=1.2, v=0.2000)
    local contact_pose = get_actual_tcp_pose()
    while norm(get_tcp_force()) < contact_force_threshold and contact_pose[2] > 0.1450:
        contact_pose := pose_trans(contact_pose, p[0, 0, -contact_probe_step, 0, 0, 0])
        movel(contact_pose, a=0.8, v=0.2000)
    end
    if contact_pose[2] > 0.1450:
        new_pose = pose_trans(tuft_coords, p[0.1677, 0.0984, 0.1450, 0, 0, 0])
        movel(p[new_pose[0], new_pose[1], new_pose[2], current_pose[3], current_pose[4], current_pose[5]], a=0.8, v=0.2000)
    end
    set_digital_out(0, True)
    new_pose = pose_trans(tuft_coords, p[0.1677, 0.4016, 0.1450, 0, 0, 0])
    movel(p[new_pose[0], new_pose[1], new_pose[2], current_pose[3], current_pose[4], current_pose[5]], a=1.2, v=0.0600)
    set_digital_out(0, False)
    new_pose = pose_trans(tuft_coords, p[0.1677, 0.4016, 0.1500, 0, 0, 0])
    movel(p[new_pose[0], new_pose[1], new_pose[2], current_pose[3], current_pose[4], current_pose[5]], a=0.8, v=0.2000)
    new_pose = pose_trans(tuft_coords, p[0.1684, 0.0974, 0.1500, 0, 0, 0])
    movel(p[new_pose[0], new_pose[1], new_pose[2], current_pose[3], current_pose[4], current_pose[5]], a=1.2, v=0.2000)
    local contact_pose = get_actual_tcp_pose()
    while norm(get_tcp_force()) < contact_force_threshold and contact_pose[2] > 0.1450:
        contact_pose := pose_trans(contact_pose, p[0, 0, -contact_probe_step, 0, 0, 0])
        movel(contact_pose, a=0.8, v=0.2000)
    end
    if contact_pose[2] > 0.1450:
        new_pose = pose_trans(tuft_coords, p[0.1684, 0.0974, 0.1450, 0, 0, 0])
        movel(p[new_pose[0], new_pose[1], new_pose[2], current_pose[3], current_pose[4], current_pose[5]], a=0.8, v=0.2000)
    end
    set_digital_out(0, True)
    new_pose = pose_trans(tuft_coords, p[0.1684, 0.4026, 0.1450, 0, 0, 0])
    movel(p[new_pose[0], new_pose[1], new_pose[2], current_pose[3], current_pose[4], current_pose[5]], a=1.2, v=0.0600)
    set_digital_out(0, False)
    new_pose = pose_trans(tuft_coords, p[0.1684, 0.4026, 0.1500, 0, 0, 0])
    movel(p[new_pose[0], new_pose[1], new_pose[2], current_pose[3], current_pose[4], current_pose[5]], a=0.8, v=0.2000)
    new_pose = pose_trans(tuft_coords, p[0.1691, 0.0974, 0.1500, 0, 0, 0])
    movel(p[new_pose[0], new_pose[1], new_pose[2], current_pose[3], current_pose[4], current_pose[5]], a=1.2, v=0.2000)
    local contact_pose = get_actual_tcp_pose()
    while norm(get_tcp_force()) < contact_force_threshold and contact_pose[2] > 0.1450:
        contact_pose := pose_trans(contact_pose, p[0, 0, -contact_probe_step, 0, 0, 0])
        movel(contact_pose, a=0.8, v=0.2000)
    end
    if contact_pose[2] > 0.1450:
        new_pose = pose_trans(tuft_coords, p[0.1691, 0.0974, 0.1450, 0, 0, 0])
        movel(p[new_pose[0], new_pose[1], new_pose[2], current_pose[3], current_pose[4], current_pose[5]], a=0.8, v=0.2000)
    end
    set_digital_out(0, True)
    new_pose = pose_trans(tuft_coords, p[0.1691, 0.4026, 0.1450, 0, 0, 0])
    movel(p[new_pose[0], new_pose[1], new_pose[2], current_pose[3], current_pose[4], current_pose[5]], a=1.2, v=0.0600)
    set_digital_out(0, False)
    new_pose = pose_trans(tuft_coords, p[0.1691, 0.4026, 0.1500, 0, 0, 0])
    movel(p[new_pose[0], new_pose[1], new_pose[2], current_pose[3], current_pose[4], current_pose[5]], a=0.8, v=0.2000)
    new_pose = pose_trans(tuft_coords, p[0.1698, 0.0964, 0.1500, 0, 0, 0])
    movel(p[new_pose[0], new_pose[1], new_pose[2], current_pose[3], current_pose[4], current_pose[5]], a=1.2, v=0.2000)
    local contact_pose = get_actual_tcp_pose()
    while norm(get_tcp_force()) < contact_force_threshold and contact_pose[2] > 0.1450:
        contact_pose := pose_trans(contact_pose, p[0, 0, -contact_probe_step, 0, 0, 0])
        movel(contact_pose, a=0.8, v=0.2000)
    end
    if contact_pose[2] > 0.1450:
        new_pose = pose_trans(tuft_coords, p[0.1698, 0.0964, 0.1450, 0, 0, 0])
        movel(p[new_pose[0], new_pose[1], new_pose[2], current_pose[3], current_pose[4], current_pose[5]], a=0.8, v=0.2000)
    end
    set_digital_out(0, True)
    new_pose = pose_trans(tuft_coords, p[0.1698, 0.4036, 0.1450, 0, 0, 0])
    movel(p[new_pose[0], new_pose[1], new_pose[2], current_pose[3], current_pose[4], current_pose[5]], a=1.2, v=0.0600)
    set_digital_out(0, False)
    new_pose = pose_trans(tuft_coords, p[0.1698, 0.4036, 0.1500, 0, 0, 0])
    movel(p[new_pose[0], new_pose[1], new_pose[2], current_pose[3], current_pose[4], current_pose[5]], a=0.8, v=0.2000)
    new_pose = pose_trans(tuft_coords, p[0.1705, 0.0953, 0.1500, 0, 0, 0])
    movel(p[new_pose[0], new_pose[1], new_pose[2], current_pose[3], current_pose[4], current_pose[5]], a=1.2, v=0.2000)
    local contact_pose = get_actual_tcp_pose()
    while norm(get_tcp_force()) < contact_force_threshold and contact_pose[2] > 0.1450:
        contact_pose := pose_trans(contact_pose, p[0, 0, -contact_probe_step, 0, 0, 0])
        movel(contact_pose, a=0.8, v=0.2000)
    end
    if contact_pose[2] > 0.1450:
        new_pose = pose_trans(tuft_coords, p[0.1705, 0.0953, 0.1450, 0, 0, 0])
        movel(p[new_pose[0], new_pose[1], new_pose[2], current_pose[3], current_pose[4], current_pose[5]], a=0.8, v=0.2000)
    end
    set_digital_out(0, True)
    new_pose = pose_trans(tuft_coords, p[0.1705, 0.4047, 0.1450, 0, 0, 0])
    movel(p[new_pose[0], new_pose[1], new_pose[2], current_pose[3], current_pose[4], current_pose[5]], a=1.2, v=0.0600)
    set_digital_out(0, False)
    new_pose = pose_trans(tuft_coords, p[0.1705, 0.4047, 0.1500, 0, 0, 0])
    movel(p[new_pose[0], new_pose[1], new_pose[2], current_pose[3], current_pose[4], current_pose[5]], a=0.8, v=0.2000)
    new_pose = pose_trans(tuft_coords, p[0.1712, 0.0943, 0.1500, 0, 0, 0])
    movel(p[new_pose[0], new_pose[1], new_pose[2], current_pose[3], current_pose[4], current_pose[5]], a=1.2, v=0.2000)
    local contact_pose = get_actual_tcp_pose()
    while norm(get_tcp_force()) < contact_force_threshold and contact_pose[2] > 0.1450:
        contact_pose := pose_trans(contact_pose, p[0, 0, -contact_probe_step, 0, 0, 0])
        movel(contact_pose, a=0.8, v=0.2000)
    end
    if contact_pose[2] > 0.1450:
        new_pose = pose_trans(tuft_coords, p[0.1712, 0.0943, 0.1450, 0, 0, 0])
        movel(p[new_pose[0], new_pose[1], new_pose[2], current_pose[3], current_pose[4], current_pose[5]], a=0.8, v=0.2000)
    end
    set_digital_out(0, True)
    new_pose = pose_trans(tuft_coords, p[0.1712, 0.4057, 0.1450, 0, 0, 0])
    movel(p[new_pose[0], new_pose[1], new_pose[2], current_pose[3], current_pose[4], current_pose[5]], a=1.2, v=0.0600)
    set_digital_out(0, False)
    new_pose = pose_trans(tuft_coords, p[0.1712, 0.4057, 0.1500, 0, 0, 0])
    movel(p[new_pose[0], new_pose[1], new_pose[2], current_pose[3], current_pose[4], current_pose[5]], a=0.8, v=0.2000)
    new_pose = pose_trans(tuft_coords, p[0.1719, 0.0943, 0.1500, 0, 0, 0])
    movel(p[new_pose[0], new_pose[1], new_pose[2], current_pose[3], current_pose[4], current_pose[5]], a=1.2, v=0.2000)
    local contact_pose = get_actual_tcp_pose()
    while norm(get_tcp_force()) < contact_force_threshold and contact_pose[2] > 0.1450:
        contact_pose := pose_trans(contact_pose, p[0, 0, -contact_probe_step, 0, 0, 0])
        movel(contact_pose, a=0.8, v=0.2000)
    end
    if contact_pose[2] > 0.1450:
        new_pose = pose_trans(tuft_coords, p[0.1719, 0.0943, 0.1450, 0, 0, 0])
        movel(p[new_pose[0], new_pose[1], new_pose[2], current_pose[3], current_pose[4], current_pose[5]], a=0.8, v=0.2000)
    end
    set_digital_out(0, True)
    new_pose = pose_trans(tuft_coords, p[0.1719, 0.4057, 0.1450, 0, 0, 0])
    movel(p[new_pose[0], new_pose[1], new_pose[2], current_pose[3], current_pose[4], current_pose[5]], a=1.2, v=0.0600)
    set_digital_out(0, False)
    new_pose = pose_trans(tuft_coords, p[0.1719, 0.4057, 0.1500, 0, 0, 0])
    movel(p[new_pose[0], new_pose[1], new_pose[2], current_pose[3], current_pose[4], current_pose[5]], a=0.8, v=0.2000)
    new_pose = pose_trans(tuft_coords, p[0.1726, 0.0932, 0.1500, 0, 0, 0])
    movel(p[new_pose[0], new_pose[1], new_pose[2], current_pose[3], current_pose[4], current_pose[5]], a=1.2, v=0.2000)
    local contact_pose = get_actual_tcp_pose()
    while norm(get_tcp_force()) < contact_force_threshold and contact_pose[2] > 0.1450:
        contact_pose := pose_trans(contact_pose, p[0, 0, -contact_probe_step, 0, 0, 0])
        movel(contact_pose, a=0.8, v=0.2000)
    end
    if contact_pose[2] > 0.1450:
        new_pose = pose_trans(tuft_coords, p[0.1726, 0.0932, 0.1450, 0, 0, 0])
        movel(p[new_pose[0], new_pose[1], new_pose[2], current_pose[3], current_pose[4], current_pose[5]], a=0.8, v=0.2000)
    end
    set_digital_out(0, True)
    new_pose = pose_trans(tuft_coords, p[0.1726, 0.4068, 0.1450, 0, 0, 0])
    movel(p[new_pose[0], new_pose[1], new_pose[2], current_pose[3], current_pose[4], current_pose[5]], a=1.2, v=0.0600)
    set_digital_out(0, False)
    new_pose = pose_trans(tuft_coords, p[0.1726, 0.4068, 0.1500, 0, 0, 0])
    movel(p[new_pose[0], new_pose[1], new_pose[2], current_pose[3], current_pose[4], current_pose[5]], a=0.8, v=0.2000)
    new_pose = pose_trans(tuft_coords, p[0.1733, 0.0922, 0.1500, 0, 0, 0])
    movel(p[new_pose[0], new_pose[1], new_pose[2], current_pose[3], current_pose[4], current_pose[5]], a=1.2, v=0.2000)
    local contact_pose = get_actual_tcp_pose()
    while norm(get_tcp_force()) < contact_force_threshold and contact_pose[2] > 0.1450:
        contact_pose := pose_trans(contact_pose, p[0, 0, -contact_probe_step, 0, 0, 0])
        movel(contact_pose, a=0.8, v=0.2000)
    end
    if contact_pose[2] > 0.1450:
        new_pose = pose_trans(tuft_coords, p[0.1733, 0.0922, 0.1450, 0, 0, 0])
        movel(p[new_pose[0], new_pose[1], new_pose[2], current_pose[3], current_pose[4], current_pose[5]], a=0.8, v=0.2000)
    end
    set_digital_out(0, True)
    new_pose = pose_trans(tuft_coords, p[0.1733, 0.4078, 0.1450, 0, 0, 0])
    movel(p[new_pose[0], new_pose[1], new_pose[2], current_pose[3], current_pose[4], current_pose[5]], a=1.2, v=0.0600)
    set_digital_out(0, False)
    new_pose = pose_trans(tuft_coords, p[0.1733, 0.4078, 0.1500, 0, 0, 0])
    movel(p[new_pose[0], new_pose[1], new_pose[2], current_pose[3], current_pose[4], current_pose[5]], a=0.8, v=0.2000)
    new_pose = pose_trans(tuft_coords, p[0.1740, 0.0911, 0.1500, 0, 0, 0])
    movel(p[new_pose[0], new_pose[1], new_pose[2], current_pose[3], current_pose[4], current_pose[5]], a=1.2, v=0.2000)
    local contact_pose = get_actual_tcp_pose()
    while norm(get_tcp_force()) < contact_force_threshold and contact_pose[2] > 0.1450:
        contact_pose := pose_trans(contact_pose, p[0, 0, -contact_probe_step, 0, 0, 0])
        movel(contact_pose, a=0.8, v=0.2000)
    end
    if contact_pose[2] > 0.1450:
        new_pose = pose_trans(tuft_coords, p[0.1740, 0.0911, 0.1450, 0, 0, 0])
        movel(p[new_pose[0], new_pose[1], new_pose[2], current_pose[3], current_pose[4], current_pose[5]], a=0.8, v=0.2000)
    end
    set_digital_out(0, True)
    new_pose = pose_trans(tuft_coords, p[0.1740, 0.4089, 0.1450, 0, 0, 0])
    movel(p[new_pose[0], new_pose[1], new_pose[2], current_pose[3], current_pose[4], current_pose[5]], a=1.2, v=0.0600)
    set_digital_out(0, False)
    new_pose = pose_trans(tuft_coords, p[0.1740, 0.4089, 0.1500, 0, 0, 0])
    movel(p[new_pose[0], new_pose[1], new_pose[2], current_pose[3], current_pose[4], current_pose[5]], a=0.8, v=0.2000)
    new_pose = pose_trans(tuft_coords, p[0.1747, 0.0911, 0.1500, 0, 0, 0])
    movel(p[new_pose[0], new_pose[1], new_pose[2], current_pose[3], current_pose[4], current_pose[5]], a=1.2, v=0.2000)
    local contact_pose = get_actual_tcp_pose()
    while norm(get_tcp_force()) < contact_force_threshold and contact_pose[2] > 0.1450:
        contact_pose := pose_trans(contact_pose, p[0, 0, -contact_probe_step, 0, 0, 0])
        movel(contact_pose, a=0.8, v=0.2000)
    end
    if contact_pose[2] > 0.1450:
        new_pose = pose_trans(tuft_coords, p[0.1747, 0.0911, 0.1450, 0, 0, 0])
        movel(p[new_pose[0], new_pose[1], new_pose[2], current_pose[3], current_pose[4], current_pose[5]], a=0.8, v=0.2000)
    end
    set_digital_out(0, True)
    new_pose = pose_trans(tuft_coords, p[0.1747, 0.4089, 0.1450, 0, 0, 0])
    movel(p[new_pose[0], new_pose[1], new_pose[2], current_pose[3], current_pose[4], current_pose[5]], a=1.2, v=0.0600)
    set_digital_out(0, False)
    new_pose = pose_trans(tuft_coords, p[0.1747, 0.4089, 0.1500, 0, 0, 0])
    movel(p[new_pose[0], new_pose[1], new_pose[2], current_pose[3], current_pose[4], current_pose[5]], a=0.8, v=0.2000)
    new_pose = pose_trans(tuft_coords, p[0.1753, 0.0901, 0.1500, 0, 0, 0])
    movel(p[new_pose[0], new_pose[1], new_pose[2], current_pose[3], current_pose[4], current_pose[5]], a=1.2, v=0.2000)
    local contact_pose = get_actual_tcp_pose()
    while norm(get_tcp_force()) < contact_force_threshold and contact_pose[2] > 0.1450:
        contact_pose := pose_trans(contact_pose, p[0, 0, -contact_probe_step, 0, 0, 0])
        movel(contact_pose, a=0.8, v=0.2000)
    end
    if contact_pose[2] > 0.1450:
        new_pose = pose_trans(tuft_coords, p[0.1753, 0.0901, 0.1450, 0, 0, 0])
        movel(p[new_pose[0], new_pose[1], new_pose[2], current_pose[3], current_pose[4], current_pose[5]], a=0.8, v=0.2000)
    end
    set_digital_out(0, True)
    new_pose = pose_trans(tuft_coords, p[0.1753, 0.4099, 0.1450, 0, 0, 0])
    movel(p[new_pose[0], new_pose[1], new_pose[2], current_pose[3], current_pose[4], current_pose[5]], a=1.2, v=0.0600)
    set_digital_out(0, False)
    new_pose = pose_trans(tuft_coords, p[0.1753, 0.4099, 0.1500, 0, 0, 0])
    movel(p[new_pose[0], new_pose[1], new_pose[2], current_pose[3], current_pose[4], current_pose[5]], a=0.8, v=0.2000)
    new_pose = pose_trans(tuft_coords, p[0.1760, 0.0891, 0.1500, 0, 0, 0])
    movel(p[new_pose[0], new_pose[1], new_pose[2], current_pose[3], current_pose[4], current_pose[5]], a=1.2, v=0.2000)
    local contact_pose = get_actual_tcp_pose()
    while norm(get_tcp_force()) < contact_force_threshold and contact_pose[2] > 0.1450:
        contact_pose := pose_trans(contact_pose, p[0, 0, -contact_probe_step, 0, 0, 0])
        movel(contact_pose, a=0.8, v=0.2000)
    end
    if contact_pose[2] > 0.1450:
        new_pose = pose_trans(tuft_coords, p[0.1760, 0.0891, 0.1450, 0, 0, 0])
        movel(p[new_pose[0], new_pose[1], new_pose[2], current_pose[3], current_pose[4], current_pose[5]], a=0.8, v=0.2000)
    end
    set_digital_out(0, True)
    new_pose = pose_trans(tuft_coords, p[0.1760, 0.4109, 0.1450, 0, 0, 0])
    movel(p[new_pose[0], new_pose[1], new_pose[2], current_pose[3], current_pose[4], current_pose[5]], a=1.2, v=0.0600)
    set_digital_out(0, False)
    new_pose = pose_trans(tuft_coords, p[0.1760, 0.4109, 0.1500, 0, 0, 0])
    movel(p[new_pose[0], new_pose[1], new_pose[2], current_pose[3], current_pose[4], current_pose[5]], a=0.8, v=0.2000)
    new_pose = pose_trans(tuft_coords, p[0.1767, 0.0891, 0.1500, 0, 0, 0])
    movel(p[new_pose[0], new_pose[1], new_pose[2], current_pose[3], current_pose[4], current_pose[5]], a=1.2, v=0.2000)
    local contact_pose = get_actual_tcp_pose()
    while norm(get_tcp_force()) < contact_force_threshold and contact_pose[2] > 0.1450:
        contact_pose := pose_trans(contact_pose, p[0, 0, -contact_probe_step, 0, 0, 0])
        movel(contact_pose, a=0.8, v=0.2000)
    end
    if contact_pose[2] > 0.1450:
        new_pose = pose_trans(tuft_coords, p[0.1767, 0.0891, 0.1450, 0, 0, 0])
        movel(p[new_pose[0], new_pose[1], new_pose[2], current_pose[3], current_pose[4], current_pose[5]], a=0.8, v=0.2000)
    end
    set_digital_out(0, True)
    new_pose = pose_trans(tuft_coords, p[0.1767, 0.4109, 0.1450, 0, 0, 0])
    movel(p[new_pose[0], new_pose[1], new_pose[2], current_pose[3], current_pose[4], current_pose[5]], a=1.2, v=0.0600)
    set_digital_out(0, False)
    new_pose = pose_trans(tuft_coords, p[0.1767, 0.4109, 0.1500, 0, 0, 0])
    movel(p[new_pose[0], new_pose[1], new_pose[2], current_pose[3], current_pose[4], current_pose[5]], a=0.8, v=0.2000)
    new_pose = pose_trans(tuft_coords, p[0.1774, 0.0880, 0.1500, 0, 0, 0])
    movel(p[new_pose[0], new_pose[1], new_pose[2], current_pose[3], current_pose[4], current_pose[5]], a=1.2, v=0.2000)
    local contact_pose = get_actual_tcp_pose()
    while norm(get_tcp_force()) < contact_force_threshold and contact_pose[2] > 0.1450:
        contact_pose := pose_trans(contact_pose, p[0, 0, -contact_probe_step, 0, 0, 0])
        movel(contact_pose, a=0.8, v=0.2000)
    end
    if contact_pose[2] > 0.1450:
        new_pose = pose_trans(tuft_coords, p[0.1774, 0.0880, 0.1450, 0, 0, 0])
        movel(p[new_pose[0], new_pose[1], new_pose[2], current_pose[3], current_pose[4], current_pose[5]], a=0.8, v=0.2000)
    end
    set_digital_out(0, True)
    new_pose = pose_trans(tuft_coords, p[0.1774, 0.4120, 0.1450, 0, 0, 0])
    movel(p[new_pose[0], new_pose[1], new_pose[2], current_pose[3], current_pose[4], current_pose[5]], a=1.2, v=0.0600)
    set_digital_out(0, False)
    new_pose = pose_trans(tuft_coords, p[0.1774, 0.4120, 0.1500, 0, 0, 0])
    movel(p[new_pose[0], new_pose[1], new_pose[2], current_pose[3], current_pose[4], current_pose[5]], a=0.8, v=0.2000)
    new_pose = pose_trans(tuft_coords, p[0.1781, 0.0870, 0.1500, 0, 0, 0])
    movel(p[new_pose[0], new_pose[1], new_pose[2], current_pose[3], current_pose[4], current_pose[5]], a=1.2, v=0.2000)
    local contact_pose = get_actual_tcp_pose()
    while norm(get_tcp_force()) < contact_force_threshold and contact_pose[2] > 0.1450:
        contact_pose := pose_trans(contact_pose, p[0, 0, -contact_probe_step, 0, 0, 0])
        movel(contact_pose, a=0.8, v=0.2000)
    end
    if contact_pose[2] > 0.1450:
        new_pose = pose_trans(tuft_coords, p[0.1781, 0.0870, 0.1450, 0, 0, 0])
        movel(p[new_pose[0], new_pose[1], new_pose[2], current_pose[3], current_pose[4], current_pose[5]], a=0.8, v=0.2000)
    end
    set_digital_out(0, True)
    new_pose = pose_trans(tuft_coords, p[0.1781, 0.4130, 0.1450, 0, 0, 0])
    movel(p[new_pose[0], new_pose[1], new_pose[2], current_pose[3], current_pose[4], current_pose[5]], a=1.2, v=0.0600)
    set_digital_out(0, False)
    new_pose = pose_trans(tuft_coords, p[0.1781, 0.4130, 0.1500, 0, 0, 0])
    movel(p[new_pose[0], new_pose[1], new_pose[2], current_pose[3], current_pose[4], current_pose[5]], a=0.8, v=0.2000)
    new_pose = pose_trans(tuft_coords, p[0.1788, 0.0870, 0.1500, 0, 0, 0])
    movel(p[new_pose[0], new_pose[1], new_pose[2], current_pose[3], current_pose[4], current_pose[5]], a=1.2, v=0.2000)
    local contact_pose = get_actual_tcp_pose()
    while norm(get_tcp_force()) < contact_force_threshold and contact_pose[2] > 0.1450:
        contact_pose := pose_trans(contact_pose, p[0, 0, -contact_probe_step, 0, 0, 0])
        movel(contact_pose, a=0.8, v=0.2000)
    end
    if contact_pose[2] > 0.1450:
